(02-00-Screws-6mmFlat.nc)
(----------------------------------------------------------------)
( Generated for RhinoCam to export for CNC-STEP models Raptor X-SL3000s20 / T-Rex1215 )
( Postprocessor written at FabLab BCN/IaaC by eduardo.chamorro@iaac.net )
( Last edit : 22 January - 2019 )
(----------------------------------------------------------------)
(Stock Size X = 2500.0000, Y =  1250.0000, Z = 15.0000)
(Home Origin X =  0, Y = 0, Z = 0)
(Units = MM, Spindle Speed = 18000)
(Max cut depth = Z-15.0000)
(Tool dia= 6.0 mm, Tool length= 90.0 mm)(WARNING!-CHECK YOUR TOOL)
(-------------------------------------------------------------)
%
G90
G64
M7
M8
T1
S20000
M3
G0 Z20.0000
G0 X26.2166 Y27.2207
G1 X26.2166 Y27.2207 Z-3.0000 F3000.
G0 Z20.0000
G0 X26.2166 Y27.2207
G0 Z20.0000
G0 X648.5724 Y602.4665
G1 X648.5724 Y602.4665 Z-3.0000 F3000.
G0 Z20.0000
G0 X648.5724 Y602.4665
G0 Z20.0000
G0 X649.5808 Y1204.8803
G1 X649.5808 Y1204.8803 Z-3.0000 F3000.
G0 Z20.0000
G0 X649.5808 Y1204.8803
G0 Z20.0000
G0 X35.0144 Y1210.6825
G1 X35.0144 Y1210.6825 Z-3.0000 F3000.
G0 Z20.0000
G0 X35.0144 Y1210.6825
G0 Z20.0000
G0 X1558.1564 Y1205.4981
G1 X1558.1564 Y1205.4981 Z-3.0000 F3000.
G0 Z20.0000
G0 X1558.1564 Y1205.4981
G0 Z20.0000
G0 X1551.8380 Y599.3731
G1 X1551.8380 Y599.3731 Z-3.0000 F3000.
G0 Z20.0000
G0 X1551.8380 Y599.3731
G0 Z20.0000
G0 X2453.2130 Y574.9969
G1 X2453.2130 Y574.9969 Z-3.0000 F3000.
G0 Z20.0000
G0 X2453.2130 Y574.9969
G0 Z20.0000
G0 X2465.0760 Y36.4311
G1 X2465.0760 Y36.4311 Z-3.0000 F3000.
G0 Z20.0000
G0 X2465.0760 Y36.4311
G0 Z20.0000
G0 X2468.7526 Y1214.3293
G1 X2468.7526 Y1214.3293 Z-3.0000 F3000.
G0 Z20.0000
G0 X2468.7526 Y1214.3293
M9
M5
M30
(--THE END - THANK YOU FOR USING THIS AWESOME POSTPROCESSOR---)
