(02-01-9mm-Cut6mmFlat.nc)
(----------------------------------------------------------------)
( Generated for RhinoCam to export for CNC-STEP models Raptor X-SL3000s20 / T-Rex1215 )
( Postprocessor written at FabLab BCN/IaaC by eduardo.chamorro@iaac.net )
( Last edit : 22 January - 2019 )
(----------------------------------------------------------------)
(Stock Size X = 2500.0000, Y =  1250.0000, Z = 15.0000)
(Home Origin X =  0, Y = 0, Z = 0)
(Units = MM, Spindle Speed = 18000)
(Max cut depth = Z-15.0000)
(Tool dia= 6.0 mm, Tool length= 90.0 mm)(WARNING!-CHECK YOUR TOOL)
(-------------------------------------------------------------)
%
G90
G64
M7
M8
T1
S20000
M3
G0 Z20.0000
G0 X296.5687 Y668.6460
G1 X296.5687 Y668.6460 Z-2.3250 F3000.
G1 X539.0632 Y670.2905 Z-2.3250 F4000.
G2 X542.0834 Y667.3109 I0.0203 J-2.9999
G1 X542.7199 Y573.4631 Z-2.3250
G2 X539.7403 Y570.4428 I-3.0000 J-0.0204
G1 X547.2401 Y570.4936 Z-2.3250
G2 X550.2604 Y567.5141 I0.0203 J-2.9999
G1 X550.9406 Y467.2164 Z-2.3250
G2 X547.9610 Y464.1961 I-3.0000 J-0.0204
G1 X540.4612 Y464.1452 Z-2.3250
G2 X543.4814 Y461.1656 I0.0203 J-2.9999
G1 X544.0863 Y371.9677 Z-2.3250
G2 X541.1067 Y368.9474 I-2.9999 J-0.0204
G1 X304.3122 Y367.3416 Z-2.3250
G2 X301.2919 Y370.3212 I-0.0204 J2.9999
G1 X301.3550 Y361.0214 Z-2.3250
G2 X304.3346 Y364.0417 I2.9999 J0.0203
G1 X541.1291 Y365.6475 Z-2.3250
G2 X544.1494 Y362.6679 I0.0204 J-2.9999
G1 X544.7543 Y273.4700 Z-2.3250
G2 X541.7748 Y270.4497 I-2.9999 J-0.0204
G1 X549.2745 Y270.5005 Z-2.3250
G2 X552.2948 Y267.5210 I0.0204 J-2.9999
G1 X552.9750 Y167.2233 Z-2.3250
G2 X549.9954 Y164.2030 I-3.0000 J-0.0204
G1 X542.4956 Y164.1521 Z-2.3250
G2 X545.5158 Y161.1725 I0.0203 J-2.9999
G1 X546.1523 Y67.3247 Z-2.3250
G2 X543.1727 Y64.3044 I-3.0000 J-0.0203
G1 X58.1838 Y61.0154 Z-2.3250
G2 X55.1636 Y63.9950 I-0.0203 J3.0000
G1 X54.5271 Y157.8429 Z-2.3250
G2 X57.5067 Y160.8632 I3.0000 J0.0203
G1 X50.0069 Y160.8123 Z-2.3250
G2 X46.9866 Y163.7919 I-0.0204 J2.9999
G1 X46.3064 Y264.0896 Z-2.3250
G2 X49.2860 Y267.1098 I3.0000 J0.0203
G1 X56.7858 Y267.1607 Z-2.3250
G2 X53.7656 Y270.1403 I-0.0203 J2.9999
G1 X52.4927 Y457.8360 Z-2.3250
G2 X55.4723 Y460.8563 I2.9999 J0.0203
G1 X47.9725 Y460.8054 Z-2.3250
G2 X44.9522 Y463.7850 I-0.0204 J2.9999
G1 X44.2720 Y564.0827 Z-2.3250
G2 X47.2516 Y567.1029 I2.9999 J0.0203
G1 X54.7514 Y567.1538 Z-2.3250
G2 X51.7312 Y570.1334 I-0.0203 J2.9999
G1 X51.0947 Y663.9812 Z-2.3250
G2 X54.0743 Y667.0015 I3.0000 J0.0204
G1 X296.5687 Y668.6460 Z-2.3250
G1 X296.5687 Y668.6460 Z-4.6500
G1 X539.0632 Y670.2905 Z-4.6500
G2 X542.0834 Y667.3109 I0.0203 J-2.9999
G1 X542.7199 Y573.4631 Z-4.6500
G2 X539.7403 Y570.4428 I-3.0000 J-0.0204
G1 X547.2401 Y570.4936 Z-4.6500
G2 X550.2604 Y567.5141 I0.0203 J-2.9999
G1 X550.9406 Y467.2164 Z-4.6500
G2 X547.9610 Y464.1961 I-3.0000 J-0.0204
G1 X540.4612 Y464.1452 Z-4.6500
G2 X543.4814 Y461.1656 I0.0203 J-2.9999
G1 X544.0863 Y371.9677 Z-4.6500
G2 X541.1067 Y368.9474 I-2.9999 J-0.0204
G1 X304.3122 Y367.3416 Z-4.6500
G2 X301.2919 Y370.3212 I-0.0204 J2.9999
G1 X301.3550 Y361.0214 Z-4.6500
G2 X304.3346 Y364.0417 I2.9999 J0.0203
G1 X541.1291 Y365.6475 Z-4.6500
G2 X544.1494 Y362.6679 I0.0204 J-2.9999
G1 X544.7543 Y273.4700 Z-4.6500
G2 X541.7748 Y270.4497 I-2.9999 J-0.0204
G1 X549.2745 Y270.5005 Z-4.6500
G2 X552.2948 Y267.5210 I0.0204 J-2.9999
G1 X552.9750 Y167.2233 Z-4.6500
G2 X549.9954 Y164.2030 I-3.0000 J-0.0204
G1 X542.4956 Y164.1521 Z-4.6500
G2 X545.5158 Y161.1725 I0.0203 J-2.9999
G1 X546.1523 Y67.3247 Z-4.6500
G2 X543.1727 Y64.3044 I-3.0000 J-0.0203
G1 X58.1838 Y61.0154 Z-4.6500
G2 X55.1636 Y63.9950 I-0.0203 J3.0000
G1 X54.5271 Y157.8429 Z-4.6500
G2 X57.5067 Y160.8632 I3.0000 J0.0203
G1 X50.0069 Y160.8123 Z-4.6500
G2 X46.9866 Y163.7919 I-0.0204 J2.9999
G1 X46.3064 Y264.0896 Z-4.6500
G2 X49.2860 Y267.1098 I3.0000 J0.0203
G1 X56.7858 Y267.1607 Z-4.6500
G2 X53.7656 Y270.1403 I-0.0203 J2.9999
G1 X52.4927 Y457.8360 Z-4.6500
G2 X55.4723 Y460.8563 I2.9999 J0.0203
G1 X47.9725 Y460.8054 Z-4.6500
G2 X44.9522 Y463.7850 I-0.0204 J2.9999
G1 X44.2720 Y564.0827 Z-4.6500
G2 X47.2516 Y567.1029 I2.9999 J0.0203
G1 X54.7514 Y567.1538 Z-4.6500
G2 X51.7312 Y570.1334 I-0.0203 J2.9999
G1 X51.0947 Y663.9812 Z-4.6500
G2 X54.0743 Y667.0015 I3.0000 J0.0204
G1 X296.5687 Y668.6460 Z-4.6500
G1 X296.5687 Y668.6460 Z-6.9750
G1 X520.7176 Y670.1661 Z-6.9750
G1 X520.7176 Y670.1661 Z-5.3000
G1 X530.7173 Y670.2339 Z-5.3000
G1 X530.7173 Y670.2339 Z-6.9750
G1 X539.0632 Y670.2905 Z-6.9750
G2 X542.0834 Y667.3109 I0.0203 J-2.9999
G1 X542.7199 Y573.4631 Z-6.9750
G2 X539.7403 Y570.4428 I-3.0000 J-0.0204
G1 X547.2401 Y570.4936 Z-6.9750
G2 X550.2604 Y567.5141 I0.0203 J-2.9999
G1 X550.9406 Y467.2164 Z-6.9750
G2 X547.9610 Y464.1961 I-3.0000 J-0.0204
G1 X540.4612 Y464.1452 Z-6.9750
G2 X543.4814 Y461.1656 I0.0203 J-2.9999
G1 X544.0863 Y371.9677 Z-6.9750
G2 X541.1067 Y368.9474 I-2.9999 J-0.0204
G1 X418.3400 Y368.1149 Z-6.9750
G1 X418.3400 Y368.1149 Z-5.3000
G1 X408.3403 Y368.0471 Z-5.3000
G1 X408.3403 Y368.0471 Z-6.9750
G1 X304.3122 Y367.3416 Z-6.9750
G2 X301.2919 Y370.3212 I-0.0204 J2.9999
G1 X301.3550 Y361.0214 Z-6.9750
G2 X304.3346 Y364.0417 I2.9999 J0.0203
G1 X541.1291 Y365.6475 Z-6.9750
G2 X544.1494 Y362.6679 I0.0204 J-2.9999
G1 X544.6874 Y283.3347 Z-6.9750
G1 X544.6874 Y283.3347 Z-5.3000
G1 X544.7543 Y273.4700 Z-5.3000
G2 X541.7869 Y270.4504 I-2.9990 J-0.0208
G1 X541.7869 Y270.4504 Z-6.9750
G1 X541.7748 Y270.4497 Z-6.9750
G1 X549.2745 Y270.5005 Z-6.9750
G2 X552.2948 Y267.5210 I0.0204 J-2.9999
G1 X552.9750 Y167.2233 Z-6.9750
G2 X549.9954 Y164.2030 I-3.0000 J-0.0204
G1 X542.4956 Y164.1521 Z-6.9750
G2 X545.5158 Y161.1725 I0.0203 J-2.9999
G1 X546.1523 Y67.3247 Z-6.9750
G2 X543.1727 Y64.3044 I-3.0000 J-0.0203
G1 X322.7272 Y62.8095 Z-6.9750
G1 X322.7272 Y62.8095 Z-5.3000
G1 X312.7274 Y62.7416 Z-5.3000
G1 X312.7274 Y62.7416 Z-6.9750
G1 X58.1838 Y61.0154 Z-6.9750
G2 X55.1636 Y63.9950 I-0.0203 J3.0000
G1 X54.5271 Y157.8429 Z-6.9750
G2 X57.5067 Y160.8632 I3.0000 J0.0203
G1 X50.0069 Y160.8123 Z-6.9750
G2 X46.9866 Y163.7919 I-0.0204 J2.9999
G1 X46.4238 Y246.7773 Z-6.9750
G1 X46.4238 Y246.7773 Z-5.3000
G1 X46.3560 Y256.7770 Z-5.3000
G1 X46.3560 Y256.7770 Z-6.9750
G1 X46.3064 Y264.0896 Z-6.9750
G2 X49.2860 Y267.1098 I3.0000 J0.0203
G1 X56.7858 Y267.1607 Z-6.9750
G2 X53.7656 Y270.1403 I-0.0203 J2.9999
G1 X52.4927 Y457.8360 Z-6.9750
G2 X55.4723 Y460.8563 I2.9999 J0.0203
G1 X47.9725 Y460.8054 Z-6.9750
G2 X44.9522 Y463.7850 I-0.0204 J2.9999
G1 X44.2720 Y564.0827 Z-6.9750
G2 X47.2516 Y567.1029 I2.9999 J0.0203
G1 X54.7514 Y567.1538 Z-6.9750
G2 X51.7312 Y570.1334 I-0.0203 J2.9999
G1 X51.0947 Y663.9812 Z-6.9750
G2 X54.0743 Y667.0015 I3.0000 J0.0204
G1 X62.4557 Y667.0584 Z-6.9750
G1 X62.4557 Y667.0584 Z-5.3000
G1 X72.4555 Y667.1262 Z-5.3000
G1 X72.4555 Y667.1262 Z-6.9750
G1 X296.5687 Y668.6460 Z-6.9750
G1 X296.5687 Y668.6460 Z-9.3000
G1 X520.7176 Y670.1661 Z-9.3000
G1 X520.7176 Y670.1661 Z-5.3000
G1 X530.7173 Y670.2339 Z-5.3000
G1 X530.7173 Y670.2339 Z-9.3000
G1 X539.0632 Y670.2905 Z-9.3000
G2 X542.0834 Y667.3109 I0.0203 J-2.9999
G1 X542.7199 Y573.4631 Z-9.3000
G2 X539.7403 Y570.4428 I-3.0000 J-0.0204
G1 X547.2401 Y570.4936 Z-9.3000
G2 X550.2604 Y567.5141 I0.0203 J-2.9999
G1 X550.9406 Y467.2164 Z-9.3000
G2 X547.9610 Y464.1961 I-3.0000 J-0.0204
G1 X540.4612 Y464.1452 Z-9.3000
G2 X543.4814 Y461.1656 I0.0203 J-2.9999
G1 X544.0863 Y371.9677 Z-9.3000
G2 X541.1067 Y368.9474 I-2.9999 J-0.0204
G1 X418.3400 Y368.1149 Z-9.3000
G1 X418.3400 Y368.1149 Z-5.3000
G1 X408.3403 Y368.0471 Z-5.3000
G1 X408.3403 Y368.0471 Z-9.3000
G1 X304.3122 Y367.3416 Z-9.3000
G2 X301.2919 Y370.3212 I-0.0204 J2.9999
G1 X301.3550 Y361.0214 Z-9.3000
G2 X304.3346 Y364.0417 I2.9999 J0.0203
G1 X541.1291 Y365.6475 Z-9.3000
G2 X544.1494 Y362.6679 I0.0204 J-2.9999
G1 X544.6874 Y283.3347 Z-9.3000
G1 X544.6874 Y283.3347 Z-5.3000
G1 X544.7543 Y273.4700 Z-5.3000
G2 X541.7869 Y270.4504 I-2.9990 J-0.0208
G1 X541.7869 Y270.4504 Z-9.3000
G1 X541.7748 Y270.4497 Z-9.3000
G1 X549.2745 Y270.5005 Z-9.3000
G2 X552.2948 Y267.5210 I0.0204 J-2.9999
G1 X552.9750 Y167.2233 Z-9.3000
G2 X549.9954 Y164.2030 I-3.0000 J-0.0204
G1 X542.4956 Y164.1521 Z-9.3000
G2 X545.5158 Y161.1725 I0.0203 J-2.9999
G1 X546.1523 Y67.3247 Z-9.3000
G2 X543.1727 Y64.3044 I-3.0000 J-0.0203
G1 X322.7272 Y62.8095 Z-9.3000
G1 X322.7272 Y62.8095 Z-5.3000
G1 X312.7274 Y62.7416 Z-5.3000
G1 X312.7274 Y62.7416 Z-9.3000
G1 X58.1838 Y61.0154 Z-9.3000
G2 X55.1636 Y63.9950 I-0.0203 J3.0000
G1 X54.5271 Y157.8429 Z-9.3000
G2 X57.5067 Y160.8632 I3.0000 J0.0203
G1 X50.0069 Y160.8123 Z-9.3000
G2 X46.9866 Y163.7919 I-0.0204 J2.9999
G1 X46.4238 Y246.7773 Z-9.3000
G1 X46.4238 Y246.7773 Z-5.3000
G1 X46.3560 Y256.7770 Z-5.3000
G1 X46.3560 Y256.7770 Z-9.3000
G1 X46.3064 Y264.0896 Z-9.3000
G2 X49.2860 Y267.1098 I3.0000 J0.0203
G1 X56.7858 Y267.1607 Z-9.3000
G2 X53.7656 Y270.1403 I-0.0203 J2.9999
G1 X52.4927 Y457.8360 Z-9.3000
G2 X55.4723 Y460.8563 I2.9999 J0.0203
G1 X47.9725 Y460.8054 Z-9.3000
G2 X44.9522 Y463.7850 I-0.0204 J2.9999
G1 X44.2720 Y564.0827 Z-9.3000
G2 X47.2516 Y567.1029 I2.9999 J0.0203
G1 X54.7514 Y567.1538 Z-9.3000
G2 X51.7312 Y570.1334 I-0.0203 J2.9999
G1 X51.0947 Y663.9812 Z-9.3000
G2 X54.0743 Y667.0015 I3.0000 J0.0204
G1 X62.4557 Y667.0584 Z-9.3000
G1 X62.4557 Y667.0584 Z-5.3000
G1 X72.4555 Y667.1262 Z-5.3000
G1 X72.4555 Y667.1262 Z-9.3000
G1 X296.5687 Y668.6460 Z-9.3000
G0 Z20.0000
G0 X296.5687 Y668.6460
G0 Z20.0000
G0 X336.5729 Y715.0903
G1 X336.5729 Y715.0903 Z-2.3250 F3000.
G1 X242.7229 Y715.0903 Z-2.3250 F4000.
G2 X239.7229 Y718.0903 I0.0000 J3.0000
G1 X239.7229 Y710.5903 Z-2.3250
G2 X236.7229 Y707.5903 I-3.0000 J0.0000
G1 X136.4229 Y707.5903 Z-2.3250
G2 X133.4229 Y710.5903 I0.0000 J3.0000
G1 X133.4229 Y718.0903 Z-2.3250
G2 X130.4229 Y715.0903 I-3.0000 J0.0000
G1 X36.5729 Y715.0903 Z-2.3250
G2 X33.5729 Y718.0903 I0.0000 J3.0000
G1 X33.5729 Y903.0903 Z-2.3250
G2 X36.5729 Y906.0903 I3.0000 J0.0000
G1 X130.4229 Y906.0903 Z-2.3250
G2 X133.4229 Y903.0903 I0.0000 J-3.0000
G1 X133.4229 Y910.5903 Z-2.3250
G2 X136.4229 Y913.5903 I3.0000 J0.0000
G1 X236.7229 Y913.5903 Z-2.3250
G2 X239.7229 Y910.5903 I0.0000 J-3.0000
G1 X239.7229 Y903.0903 Z-2.3250
G2 X242.7229 Y906.0903 I3.0000 J0.0000
G1 X331.9229 Y906.0903 Z-2.3250
G2 X334.9229 Y903.0903 I0.0000 J-3.0000
G1 X334.9229 Y816.5903 Z-2.3250
G2 X331.9229 Y813.5903 I-3.0000 J0.0000
G1 X341.2229 Y813.5903 Z-2.3250
G2 X338.2229 Y816.5903 I0.0000 J3.0000
G1 X338.2229 Y903.0903 Z-2.3250
G2 X341.2229 Y906.0903 I3.0000 J0.0000
G1 X430.4229 Y906.0903 Z-2.3250
G2 X433.4229 Y903.0903 I0.0000 J-3.0000
G1 X433.4229 Y910.5903 Z-2.3250
G2 X436.4229 Y913.5903 I3.0000 J0.0000
G1 X536.7229 Y913.5903 Z-2.3250
G2 X539.7229 Y910.5903 I0.0000 J-3.0000
G1 X539.7229 Y903.0903 Z-2.3250
G2 X542.7229 Y906.0903 I3.0000 J0.0000
G1 X636.5729 Y906.0903 Z-2.3250
G2 X639.5729 Y903.0903 I0.0000 J-3.0000
G1 X639.5729 Y718.0903 Z-2.3250
G2 X636.5729 Y715.0903 I-3.0000 J0.0000
G1 X542.7229 Y715.0903 Z-2.3250
G2 X539.7229 Y718.0903 I0.0000 J3.0000
G1 X539.7229 Y710.5903 Z-2.3250
G2 X536.7229 Y707.5903 I-3.0000 J0.0000
G1 X436.4229 Y707.5903 Z-2.3250
G2 X433.4229 Y710.5903 I0.0000 J3.0000
G1 X433.4229 Y718.0903 Z-2.3250
G2 X430.4229 Y715.0903 I-3.0000 J0.0000
G1 X336.5729 Y715.0903 Z-2.3250
G1 X336.5729 Y715.0903 Z-4.6500
G1 X242.7229 Y715.0903 Z-4.6500
G2 X239.7229 Y718.0903 I0.0000 J3.0000
G1 X239.7229 Y710.5903 Z-4.6500
G2 X236.7229 Y707.5903 I-3.0000 J0.0000
G1 X136.4229 Y707.5903 Z-4.6500
G2 X133.4229 Y710.5903 I0.0000 J3.0000
G1 X133.4229 Y718.0903 Z-4.6500
G2 X130.4229 Y715.0903 I-3.0000 J0.0000
G1 X36.5729 Y715.0903 Z-4.6500
G2 X33.5729 Y718.0903 I0.0000 J3.0000
G1 X33.5729 Y903.0903 Z-4.6500
G2 X36.5729 Y906.0903 I3.0000 J0.0000
G1 X130.4229 Y906.0903 Z-4.6500
G2 X133.4229 Y903.0903 I0.0000 J-3.0000
G1 X133.4229 Y910.5903 Z-4.6500
G2 X136.4229 Y913.5903 I3.0000 J0.0000
G1 X236.7229 Y913.5903 Z-4.6500
G2 X239.7229 Y910.5903 I0.0000 J-3.0000
G1 X239.7229 Y903.0903 Z-4.6500
G2 X242.7229 Y906.0903 I3.0000 J0.0000
G1 X331.9229 Y906.0903 Z-4.6500
G2 X334.9229 Y903.0903 I0.0000 J-3.0000
G1 X334.9229 Y816.5903 Z-4.6500
G2 X331.9229 Y813.5903 I-3.0000 J0.0000
G1 X341.2229 Y813.5903 Z-4.6500
G2 X338.2229 Y816.5903 I0.0000 J3.0000
G1 X338.2229 Y903.0903 Z-4.6500
G2 X341.2229 Y906.0903 I3.0000 J0.0000
G1 X430.4229 Y906.0903 Z-4.6500
G2 X433.4229 Y903.0903 I0.0000 J-3.0000
G1 X433.4229 Y910.5903 Z-4.6500
G2 X436.4229 Y913.5903 I3.0000 J0.0000
G1 X536.7229 Y913.5903 Z-4.6500
G2 X539.7229 Y910.5903 I0.0000 J-3.0000
G1 X539.7229 Y903.0903 Z-4.6500
G2 X542.7229 Y906.0903 I3.0000 J0.0000
G1 X636.5729 Y906.0903 Z-4.6500
G2 X639.5729 Y903.0903 I0.0000 J-3.0000
G1 X639.5729 Y718.0903 Z-4.6500
G2 X636.5729 Y715.0903 I-3.0000 J0.0000
G1 X542.7229 Y715.0903 Z-4.6500
G2 X539.7229 Y718.0903 I0.0000 J3.0000
G1 X539.7229 Y710.5903 Z-4.6500
G2 X536.7229 Y707.5903 I-3.0000 J0.0000
G1 X436.4229 Y707.5903 Z-4.6500
G2 X433.4229 Y710.5903 I0.0000 J3.0000
G1 X433.4229 Y718.0903 Z-4.6500
G2 X430.4229 Y715.0903 I-3.0000 J0.0000
G1 X336.5729 Y715.0903 Z-4.6500
G1 X336.5729 Y715.0903 Z-6.9750
G1 X242.7229 Y715.0903 Z-6.9750
G2 X239.7229 Y718.0903 I0.0000 J3.0000
G1 X239.7229 Y710.5903 Z-6.9750
G2 X236.7229 Y707.5903 I-3.0000 J0.0000
G1 X198.3901 Y707.5903 Z-6.9750
G1 X198.3901 Y707.5903 Z-5.3000
G1 X188.3901 Y707.5903 Z-5.3000
G1 X188.3901 Y707.5903 Z-6.9750
G1 X136.4229 Y707.5903 Z-6.9750
G2 X133.4229 Y710.5903 I0.0000 J3.0000
G1 X133.4229 Y718.0903 Z-6.9750
G2 X130.4229 Y715.0903 I-3.0000 J0.0000
G1 X36.5729 Y715.0903 Z-6.9750
G2 X33.5729 Y718.0903 I0.0000 J3.0000
G1 X33.5729 Y853.5598 Z-6.9750
G1 X33.5729 Y853.5598 Z-5.3000
G1 X33.5729 Y863.5598 Z-5.3000
G1 X33.5729 Y863.5598 Z-6.9750
G1 X33.5729 Y903.0903 Z-6.9750
G2 X36.5729 Y906.0903 I3.0000 J0.0000
G1 X130.4229 Y906.0903 Z-6.9750
G2 X133.4229 Y903.0903 I0.0000 J-3.0000
G1 X133.4229 Y910.5903 Z-6.9750
G2 X136.4229 Y913.5903 I3.0000 J0.0000
G1 X236.7229 Y913.5903 Z-6.9750
G2 X239.7229 Y910.5903 I0.0000 J-3.0000
G1 X239.7229 Y903.0903 Z-6.9750
G2 X242.7229 Y906.0903 I3.0000 J0.0000
G1 X273.4079 Y906.0903 Z-6.9750
G1 X273.4079 Y906.0903 Z-5.3000
G1 X283.4079 Y906.0903 Z-5.3000
G1 X283.4079 Y906.0903 Z-6.9750
G1 X331.9229 Y906.0903 Z-6.9750
G2 X334.9229 Y903.0903 I0.0000 J-3.0000
G1 X334.9229 Y816.5903 Z-6.9750
G2 X331.9229 Y813.5903 I-3.0000 J0.0000
G1 X341.2229 Y813.5903 Z-6.9750
G2 X338.2229 Y816.5903 I0.0000 J3.0000
G1 X338.2229 Y903.0903 Z-6.9750
G2 X341.2229 Y906.0903 I3.0000 J0.0000
G1 X389.7734 Y906.0903 Z-6.9750
G1 X389.7734 Y906.0903 Z-5.3000
G1 X399.7734 Y906.0903 Z-5.3000
G1 X399.7734 Y906.0903 Z-6.9750
G1 X430.4229 Y906.0903 Z-6.9750
G2 X433.4229 Y903.0903 I0.0000 J-3.0000
G1 X433.4229 Y910.5903 Z-6.9750
G2 X436.4229 Y913.5903 I3.0000 J0.0000
G1 X536.7229 Y913.5903 Z-6.9750
G2 X539.7229 Y910.5903 I0.0000 J-3.0000
G1 X539.7229 Y903.0903 Z-6.9750
G2 X542.7229 Y906.0903 I3.0000 J0.0000
G1 X636.5729 Y906.0903 Z-6.9750
G2 X639.5729 Y903.0903 I0.0000 J-3.0000
G1 X639.5729 Y863.5243 Z-6.9750
G1 X639.5729 Y863.5243 Z-5.3000
G1 X639.5729 Y853.5243 Z-5.3000
G1 X639.5729 Y853.5243 Z-6.9750
G1 X639.5729 Y718.0903 Z-6.9750
G2 X636.5729 Y715.0903 I-3.0000 J0.0000
G1 X542.7229 Y715.0903 Z-6.9750
G2 X539.7229 Y718.0903 I0.0000 J3.0000
G1 X539.7229 Y710.5903 Z-6.9750
G2 X536.7229 Y707.5903 I-3.0000 J0.0000
G1 X484.7201 Y707.5903 Z-6.9750
G1 X484.7201 Y707.5903 Z-5.3000
G1 X474.7201 Y707.5903 Z-5.3000
G1 X474.7201 Y707.5903 Z-6.9750
G1 X436.4229 Y707.5903 Z-6.9750
G2 X433.4229 Y710.5903 I0.0000 J3.0000
G1 X433.4229 Y718.0903 Z-6.9750
G2 X430.4229 Y715.0903 I-3.0000 J0.0000
G1 X336.5729 Y715.0903 Z-6.9750
G1 X336.5729 Y715.0903 Z-9.3000
G1 X242.7229 Y715.0903 Z-9.3000
G2 X239.7229 Y718.0903 I0.0000 J3.0000
G1 X239.7229 Y710.5903 Z-9.3000
G2 X236.7229 Y707.5903 I-3.0000 J0.0000
G1 X198.3901 Y707.5903 Z-9.3000
G1 X198.3901 Y707.5903 Z-5.3000
G1 X188.3901 Y707.5903 Z-5.3000
G1 X188.3901 Y707.5903 Z-9.3000
G1 X136.4229 Y707.5903 Z-9.3000
G2 X133.4229 Y710.5903 I0.0000 J3.0000
G1 X133.4229 Y718.0903 Z-9.3000
G2 X130.4229 Y715.0903 I-3.0000 J0.0000
G1 X36.5729 Y715.0903 Z-9.3000
G2 X33.5729 Y718.0903 I0.0000 J3.0000
G1 X33.5729 Y853.5598 Z-9.3000
G1 X33.5729 Y853.5598 Z-5.3000
G1 X33.5729 Y863.5598 Z-5.3000
G1 X33.5729 Y863.5598 Z-9.3000
G1 X33.5729 Y903.0903 Z-9.3000
G2 X36.5729 Y906.0903 I3.0000 J0.0000
G1 X130.4229 Y906.0903 Z-9.3000
G2 X133.4229 Y903.0903 I0.0000 J-3.0000
G1 X133.4229 Y910.5903 Z-9.3000
G2 X136.4229 Y913.5903 I3.0000 J0.0000
G1 X236.7229 Y913.5903 Z-9.3000
G2 X239.7229 Y910.5903 I0.0000 J-3.0000
G1 X239.7229 Y903.0903 Z-9.3000
G2 X242.7229 Y906.0903 I3.0000 J0.0000
G1 X273.4079 Y906.0903 Z-9.3000
G1 X273.4079 Y906.0903 Z-5.3000
G1 X283.4079 Y906.0903 Z-5.3000
G1 X283.4079 Y906.0903 Z-9.3000
G1 X331.9229 Y906.0903 Z-9.3000
G2 X334.9229 Y903.0903 I0.0000 J-3.0000
G1 X334.9229 Y816.5903 Z-9.3000
G2 X331.9229 Y813.5903 I-3.0000 J0.0000
G1 X341.2229 Y813.5903 Z-9.3000
G2 X338.2229 Y816.5903 I0.0000 J3.0000
G1 X338.2229 Y903.0903 Z-9.3000
G2 X341.2229 Y906.0903 I3.0000 J0.0000
G1 X389.7734 Y906.0903 Z-9.3000
G1 X389.7734 Y906.0903 Z-5.3000
G1 X399.7734 Y906.0903 Z-5.3000
G1 X399.7734 Y906.0903 Z-9.3000
G1 X430.4229 Y906.0903 Z-9.3000
G2 X433.4229 Y903.0903 I0.0000 J-3.0000
G1 X433.4229 Y910.5903 Z-9.3000
G2 X436.4229 Y913.5903 I3.0000 J0.0000
G1 X536.7229 Y913.5903 Z-9.3000
G2 X539.7229 Y910.5903 I0.0000 J-3.0000
G1 X539.7229 Y903.0903 Z-9.3000
G2 X542.7229 Y906.0903 I3.0000 J0.0000
G1 X636.5729 Y906.0903 Z-9.3000
G2 X639.5729 Y903.0903 I0.0000 J-3.0000
G1 X639.5729 Y863.5243 Z-9.3000
G1 X639.5729 Y863.5243 Z-5.3000
G1 X639.5729 Y853.5243 Z-5.3000
G1 X639.5729 Y853.5243 Z-9.3000
G1 X639.5729 Y718.0903 Z-9.3000
G2 X636.5729 Y715.0903 I-3.0000 J0.0000
G1 X542.7229 Y715.0903 Z-9.3000
G2 X539.7229 Y718.0903 I0.0000 J3.0000
G1 X539.7229 Y710.5903 Z-9.3000
G2 X536.7229 Y707.5903 I-3.0000 J0.0000
G1 X484.7201 Y707.5903 Z-9.3000
G1 X484.7201 Y707.5903 Z-5.3000
G1 X474.7201 Y707.5903 Z-5.3000
G1 X474.7201 Y707.5903 Z-9.3000
G1 X436.4229 Y707.5903 Z-9.3000
G2 X433.4229 Y710.5903 I0.0000 J3.0000
G1 X433.4229 Y718.0903 Z-9.3000
G2 X430.4229 Y715.0903 I-3.0000 J0.0000
G1 X336.5729 Y715.0903 Z-9.3000
G0 Z20.0000
G0 X336.5729 Y715.0903
G0 Z20.0000
G0 X336.5729 Y964.7000
G1 X336.5729 Y964.7000 Z-2.3250 F3000.
G1 X242.7229 Y964.7000 Z-2.3250 F4000.
G2 X239.7229 Y967.7000 I0.0000 J3.0000
G1 X239.7229 Y960.2000 Z-2.3250
G2 X236.7229 Y957.2000 I-3.0000 J0.0000
G1 X136.4229 Y957.2000 Z-2.3250
G2 X133.4229 Y960.2000 I0.0000 J3.0000
G1 X133.4229 Y967.7000 Z-2.3250
G2 X130.4229 Y964.7000 I-3.0000 J0.0000
G1 X36.5729 Y964.7000 Z-2.3250
G2 X33.5729 Y967.7000 I0.0000 J3.0000
G1 X33.5729 Y1152.7000 Z-2.3250
G2 X36.5729 Y1155.7000 I3.0000 J0.0000
G1 X130.4229 Y1155.7000 Z-2.3250
G2 X133.4229 Y1152.7000 I0.0000 J-3.0000
G1 X133.4229 Y1160.2000 Z-2.3250
G2 X136.4229 Y1163.2000 I3.0000 J0.0000
G1 X236.7229 Y1163.2000 Z-2.3250
G2 X239.7229 Y1160.2000 I0.0000 J-3.0000
G1 X239.7229 Y1152.7000 Z-2.3250
G2 X242.7229 Y1155.7000 I3.0000 J0.0000
G1 X331.9229 Y1155.7000 Z-2.3250
G2 X334.9229 Y1152.7000 I0.0000 J-3.0000
G1 X334.9229 Y1066.2000 Z-2.3250
G2 X331.9229 Y1063.2000 I-3.0000 J0.0000
G1 X341.2229 Y1063.2000 Z-2.3250
G2 X338.2229 Y1066.2000 I0.0000 J3.0000
G1 X338.2229 Y1152.7000 Z-2.3250
G2 X341.2229 Y1155.7000 I3.0000 J0.0000
G1 X430.4229 Y1155.7000 Z-2.3250
G2 X433.4229 Y1152.7000 I0.0000 J-3.0000
G1 X433.4229 Y1160.2000 Z-2.3250
G2 X436.4229 Y1163.2000 I3.0000 J0.0000
G1 X536.7229 Y1163.2000 Z-2.3250
G2 X539.7229 Y1160.2000 I0.0000 J-3.0000
G1 X539.7229 Y1152.7000 Z-2.3250
G2 X542.7229 Y1155.7000 I3.0000 J0.0000
G1 X636.5729 Y1155.7000 Z-2.3250
G2 X639.5729 Y1152.7000 I0.0000 J-3.0000
G1 X639.5729 Y967.7000 Z-2.3250
G2 X636.5729 Y964.7000 I-3.0000 J0.0000
G1 X542.7229 Y964.7000 Z-2.3250
G2 X539.7229 Y967.7000 I0.0000 J3.0000
G1 X539.7229 Y960.2000 Z-2.3250
G2 X536.7229 Y957.2000 I-3.0000 J0.0000
G1 X436.4229 Y957.2000 Z-2.3250
G2 X433.4229 Y960.2000 I0.0000 J3.0000
G1 X433.4229 Y967.7000 Z-2.3250
G2 X430.4229 Y964.7000 I-3.0000 J0.0000
G1 X336.5729 Y964.7000 Z-2.3250
G1 X336.5729 Y964.7000 Z-4.6500
G1 X242.7229 Y964.7000 Z-4.6500
G2 X239.7229 Y967.7000 I0.0000 J3.0000
G1 X239.7229 Y960.2000 Z-4.6500
G2 X236.7229 Y957.2000 I-3.0000 J0.0000
G1 X136.4229 Y957.2000 Z-4.6500
G2 X133.4229 Y960.2000 I0.0000 J3.0000
G1 X133.4229 Y967.7000 Z-4.6500
G2 X130.4229 Y964.7000 I-3.0000 J0.0000
G1 X36.5729 Y964.7000 Z-4.6500
G2 X33.5729 Y967.7000 I0.0000 J3.0000
G1 X33.5729 Y1152.7000 Z-4.6500
G2 X36.5729 Y1155.7000 I3.0000 J0.0000
G1 X130.4229 Y1155.7000 Z-4.6500
G2 X133.4229 Y1152.7000 I0.0000 J-3.0000
G1 X133.4229 Y1160.2000 Z-4.6500
G2 X136.4229 Y1163.2000 I3.0000 J0.0000
G1 X236.7229 Y1163.2000 Z-4.6500
G2 X239.7229 Y1160.2000 I0.0000 J-3.0000
G1 X239.7229 Y1152.7000 Z-4.6500
G2 X242.7229 Y1155.7000 I3.0000 J0.0000
G1 X331.9229 Y1155.7000 Z-4.6500
G2 X334.9229 Y1152.7000 I0.0000 J-3.0000
G1 X334.9229 Y1066.2000 Z-4.6500
G2 X331.9229 Y1063.2000 I-3.0000 J0.0000
G1 X341.2229 Y1063.2000 Z-4.6500
G2 X338.2229 Y1066.2000 I0.0000 J3.0000
G1 X338.2229 Y1152.7000 Z-4.6500
G2 X341.2229 Y1155.7000 I3.0000 J0.0000
G1 X430.4229 Y1155.7000 Z-4.6500
G2 X433.4229 Y1152.7000 I0.0000 J-3.0000
G1 X433.4229 Y1160.2000 Z-4.6500
G2 X436.4229 Y1163.2000 I3.0000 J0.0000
G1 X536.7229 Y1163.2000 Z-4.6500
G2 X539.7229 Y1160.2000 I0.0000 J-3.0000
G1 X539.7229 Y1152.7000 Z-4.6500
G2 X542.7229 Y1155.7000 I3.0000 J0.0000
G1 X636.5729 Y1155.7000 Z-4.6500
G2 X639.5729 Y1152.7000 I0.0000 J-3.0000
G1 X639.5729 Y967.7000 Z-4.6500
G2 X636.5729 Y964.7000 I-3.0000 J0.0000
G1 X542.7229 Y964.7000 Z-4.6500
G2 X539.7229 Y967.7000 I0.0000 J3.0000
G1 X539.7229 Y960.2000 Z-4.6500
G2 X536.7229 Y957.2000 I-3.0000 J0.0000
G1 X436.4229 Y957.2000 Z-4.6500
G2 X433.4229 Y960.2000 I0.0000 J3.0000
G1 X433.4229 Y967.7000 Z-4.6500
G2 X430.4229 Y964.7000 I-3.0000 J0.0000
G1 X336.5729 Y964.7000 Z-4.6500
G1 X336.5729 Y964.7000 Z-6.9750
G1 X242.7229 Y964.7000 Z-6.9750
G2 X239.7229 Y967.7000 I0.0000 J3.0000
G1 X239.7229 Y960.2000 Z-6.9750
G2 X236.7229 Y957.2000 I-3.0000 J0.0000
G1 X198.3901 Y957.2000 Z-6.9750
G1 X198.3901 Y957.2000 Z-5.3000
G1 X188.3901 Y957.2000 Z-5.3000
G1 X188.3901 Y957.2000 Z-6.9750
G1 X136.4229 Y957.2000 Z-6.9750
G2 X133.4229 Y960.2000 I0.0000 J3.0000
G1 X133.4229 Y967.7000 Z-6.9750
G2 X130.4229 Y964.7000 I-3.0000 J0.0000
G1 X36.5729 Y964.7000 Z-6.9750
G2 X33.5729 Y967.7000 I0.0000 J3.0000
G1 X33.5729 Y1103.1695 Z-6.9750
G1 X33.5729 Y1103.1695 Z-5.3000
G1 X33.5729 Y1113.1695 Z-5.3000
G1 X33.5729 Y1113.1695 Z-6.9750
G1 X33.5729 Y1152.7000 Z-6.9750
G2 X36.5729 Y1155.7000 I3.0000 J0.0000
G1 X130.4229 Y1155.7000 Z-6.9750
G2 X133.4229 Y1152.7000 I0.0000 J-3.0000
G1 X133.4229 Y1160.2000 Z-6.9750
G2 X136.4229 Y1163.2000 I3.0000 J0.0000
G1 X236.7229 Y1163.2000 Z-6.9750
G2 X239.7229 Y1160.2000 I0.0000 J-3.0000
G1 X239.7229 Y1152.7000 Z-6.9750
G2 X242.7229 Y1155.7000 I3.0000 J0.0000
G1 X273.4079 Y1155.7000 Z-6.9750
G1 X273.4079 Y1155.7000 Z-5.3000
G1 X283.4079 Y1155.7000 Z-5.3000
G1 X283.4079 Y1155.7000 Z-6.9750
G1 X331.9229 Y1155.7000 Z-6.9750
G2 X334.9229 Y1152.7000 I0.0000 J-3.0000
G1 X334.9229 Y1066.2000 Z-6.9750
G2 X331.9229 Y1063.2000 I-3.0000 J0.0000
G1 X341.2229 Y1063.2000 Z-6.9750
G2 X338.2229 Y1066.2000 I0.0000 J3.0000
G1 X338.2229 Y1152.7000 Z-6.9750
G2 X341.2229 Y1155.7000 I3.0000 J0.0000
G1 X389.7734 Y1155.7000 Z-6.9750
G1 X389.7734 Y1155.7000 Z-5.3000
G1 X399.7734 Y1155.7000 Z-5.3000
G1 X399.7734 Y1155.7000 Z-6.9750
G1 X430.4229 Y1155.7000 Z-6.9750
G2 X433.4229 Y1152.7000 I0.0000 J-3.0000
G1 X433.4229 Y1160.2000 Z-6.9750
G2 X436.4229 Y1163.2000 I3.0000 J0.0000
G1 X536.7229 Y1163.2000 Z-6.9750
G2 X539.7229 Y1160.2000 I0.0000 J-3.0000
G1 X539.7229 Y1152.7000 Z-6.9750
G2 X542.7229 Y1155.7000 I3.0000 J0.0000
G1 X636.5729 Y1155.7000 Z-6.9750
G2 X639.5729 Y1152.7000 I0.0000 J-3.0000
G1 X639.5729 Y1113.1340 Z-6.9750
G1 X639.5729 Y1113.1340 Z-5.3000
G1 X639.5729 Y1103.1340 Z-5.3000
G1 X639.5729 Y1103.1340 Z-6.9750
G1 X639.5729 Y967.7000 Z-6.9750
G2 X636.5729 Y964.7000 I-3.0000 J0.0000
G1 X542.7229 Y964.7000 Z-6.9750
G2 X539.7229 Y967.7000 I0.0000 J3.0000
G1 X539.7229 Y960.2000 Z-6.9750
G2 X536.7229 Y957.2000 I-3.0000 J0.0000
G1 X484.7201 Y957.2000 Z-6.9750
G1 X484.7201 Y957.2000 Z-5.3000
G1 X474.7201 Y957.2000 Z-5.3000
G1 X474.7201 Y957.2000 Z-6.9750
G1 X436.4229 Y957.2000 Z-6.9750
G2 X433.4229 Y960.2000 I0.0000 J3.0000
G1 X433.4229 Y967.7000 Z-6.9750
G2 X430.4229 Y964.7000 I-3.0000 J0.0000
G1 X336.5729 Y964.7000 Z-6.9750
G1 X336.5729 Y964.7000 Z-9.3000
G1 X242.7229 Y964.7000 Z-9.3000
G2 X239.7229 Y967.7000 I0.0000 J3.0000
G1 X239.7229 Y960.2000 Z-9.3000
G2 X236.7229 Y957.2000 I-3.0000 J0.0000
G1 X198.3901 Y957.2000 Z-9.3000
G1 X198.3901 Y957.2000 Z-5.3000
G1 X188.3901 Y957.2000 Z-5.3000
G1 X188.3901 Y957.2000 Z-9.3000
G1 X136.4229 Y957.2000 Z-9.3000
G2 X133.4229 Y960.2000 I0.0000 J3.0000
G1 X133.4229 Y967.7000 Z-9.3000
G2 X130.4229 Y964.7000 I-3.0000 J0.0000
G1 X36.5729 Y964.7000 Z-9.3000
G2 X33.5729 Y967.7000 I0.0000 J3.0000
G1 X33.5729 Y1103.1695 Z-9.3000
G1 X33.5729 Y1103.1695 Z-5.3000
G1 X33.5729 Y1113.1695 Z-5.3000
G1 X33.5729 Y1113.1695 Z-9.3000
G1 X33.5729 Y1152.7000 Z-9.3000
G2 X36.5729 Y1155.7000 I3.0000 J0.0000
G1 X130.4229 Y1155.7000 Z-9.3000
G2 X133.4229 Y1152.7000 I0.0000 J-3.0000
G1 X133.4229 Y1160.2000 Z-9.3000
G2 X136.4229 Y1163.2000 I3.0000 J0.0000
G1 X236.7229 Y1163.2000 Z-9.3000
G2 X239.7229 Y1160.2000 I0.0000 J-3.0000
G1 X239.7229 Y1152.7000 Z-9.3000
G2 X242.7229 Y1155.7000 I3.0000 J0.0000
G1 X273.4079 Y1155.7000 Z-9.3000
G1 X273.4079 Y1155.7000 Z-5.3000
G1 X283.4079 Y1155.7000 Z-5.3000
G1 X283.4079 Y1155.7000 Z-9.3000
G1 X331.9229 Y1155.7000 Z-9.3000
G2 X334.9229 Y1152.7000 I0.0000 J-3.0000
G1 X334.9229 Y1066.2000 Z-9.3000
G2 X331.9229 Y1063.2000 I-3.0000 J0.0000
G1 X341.2229 Y1063.2000 Z-9.3000
G2 X338.2229 Y1066.2000 I0.0000 J3.0000
G1 X338.2229 Y1152.7000 Z-9.3000
G2 X341.2229 Y1155.7000 I3.0000 J0.0000
G1 X389.7734 Y1155.7000 Z-9.3000
G1 X389.7734 Y1155.7000 Z-5.3000
G1 X399.7734 Y1155.7000 Z-5.3000
G1 X399.7734 Y1155.7000 Z-9.3000
G1 X430.4229 Y1155.7000 Z-9.3000
G2 X433.4229 Y1152.7000 I0.0000 J-3.0000
G1 X433.4229 Y1160.2000 Z-9.3000
G2 X436.4229 Y1163.2000 I3.0000 J0.0000
G1 X536.7229 Y1163.2000 Z-9.3000
G2 X539.7229 Y1160.2000 I0.0000 J-3.0000
G1 X539.7229 Y1152.7000 Z-9.3000
G2 X542.7229 Y1155.7000 I3.0000 J0.0000
G1 X636.5729 Y1155.7000 Z-9.3000
G2 X639.5729 Y1152.7000 I0.0000 J-3.0000
G1 X639.5729 Y1113.1340 Z-9.3000
G1 X639.5729 Y1113.1340 Z-5.3000
G1 X639.5729 Y1103.1340 Z-5.3000
G1 X639.5729 Y1103.1340 Z-9.3000
G1 X639.5729 Y967.7000 Z-9.3000
G2 X636.5729 Y964.7000 I-3.0000 J0.0000
G1 X542.7229 Y964.7000 Z-9.3000
G2 X539.7229 Y967.7000 I0.0000 J3.0000
G1 X539.7229 Y960.2000 Z-9.3000
G2 X536.7229 Y957.2000 I-3.0000 J0.0000
G1 X484.7201 Y957.2000 Z-9.3000
G1 X484.7201 Y957.2000 Z-5.3000
G1 X474.7201 Y957.2000 Z-5.3000
G1 X474.7201 Y957.2000 Z-9.3000
G1 X436.4229 Y957.2000 Z-9.3000
G2 X433.4229 Y960.2000 I0.0000 J3.0000
G1 X433.4229 Y967.7000 Z-9.3000
G2 X430.4229 Y964.7000 I-3.0000 J0.0000
G1 X336.5729 Y964.7000 Z-9.3000
G0 Z20.0000
G0 X336.5729 Y964.7000
G0 Z20.0000
G0 X568.1559 Y299.5793
G1 X568.1559 Y299.5793 Z-2.3250 F3000.
G1 X568.1559 Y542.0793 Z-2.3250 F4000.
G2 X571.1559 Y545.0793 I3.0000 J0.0000
G1 X665.0059 Y545.0793 Z-2.3250
G2 X668.0059 Y542.0793 I0.0000 J-3.0000
G1 X668.0059 Y549.5793 Z-2.3250
G2 X671.0059 Y552.5793 I3.0000 J0.0000
G1 X771.3059 Y552.5793 Z-2.3250
G2 X774.3059 Y549.5793 I0.0000 J-3.0000
G1 X774.3059 Y542.0793 Z-2.3250
G2 X777.3059 Y545.0793 I3.0000 J0.0000
G1 X866.5059 Y545.0793 Z-2.3250
G2 X869.5059 Y542.0793 I0.0000 J-3.0000
G1 X869.5059 Y305.2793 Z-2.3250
G2 X866.5059 Y302.2793 I-3.0000 J0.0000
G1 X875.8059 Y302.2793 Z-2.3250
G2 X872.8059 Y305.2793 I0.0000 J3.0000
G1 X872.8059 Y542.0793 Z-2.3250
G2 X875.8059 Y545.0793 I3.0000 J0.0000
G1 X965.0059 Y545.0793 Z-2.3250
G2 X968.0059 Y542.0793 I0.0000 J-3.0000
G1 X968.0059 Y549.5793 Z-2.3250
G2 X971.0059 Y552.5793 I3.0000 J0.0000
G1 X1071.3059 Y552.5793 Z-2.3250
G2 X1074.3059 Y549.5793 I0.0000 J-3.0000
G1 X1074.3059 Y542.0793 Z-2.3250
G2 X1077.3059 Y545.0793 I3.0000 J0.0000
G1 X1171.1559 Y545.0793 Z-2.3250
G2 X1174.1559 Y542.0793 I0.0000 J-3.0000
G1 X1174.1559 Y57.0793 Z-2.3250
G2 X1171.1559 Y54.0793 I-3.0000 J0.0000
G1 X1077.3059 Y54.0793 Z-2.3250
G2 X1074.3059 Y57.0793 I0.0000 J3.0000
G1 X1074.3059 Y49.5793 Z-2.3250
G2 X1071.3059 Y46.5793 I-3.0000 J0.0000
G1 X971.0059 Y46.5793 Z-2.3250
G2 X968.0059 Y49.5793 I0.0000 J3.0000
G1 X968.0059 Y57.0793 Z-2.3250
G2 X965.0059 Y54.0793 I-3.0000 J0.0000
G1 X777.3059 Y54.0793 Z-2.3250
G2 X774.3059 Y57.0793 I0.0000 J3.0000
G1 X774.3059 Y49.5793 Z-2.3250
G2 X771.3059 Y46.5793 I-3.0000 J0.0000
G1 X671.0059 Y46.5793 Z-2.3250
G2 X668.0059 Y49.5793 I0.0000 J3.0000
G1 X668.0059 Y57.0793 Z-2.3250
G2 X665.0059 Y54.0793 I-3.0000 J0.0000
G1 X571.1559 Y54.0793 Z-2.3250
G2 X568.1559 Y57.0793 I0.0000 J3.0000
G1 X568.1559 Y299.5793 Z-2.3250
G1 X568.1559 Y299.5793 Z-4.6500
G1 X568.1559 Y542.0793 Z-4.6500
G2 X571.1559 Y545.0793 I3.0000 J0.0000
G1 X665.0059 Y545.0793 Z-4.6500
G2 X668.0059 Y542.0793 I0.0000 J-3.0000
G1 X668.0059 Y549.5793 Z-4.6500
G2 X671.0059 Y552.5793 I3.0000 J0.0000
G1 X771.3059 Y552.5793 Z-4.6500
G2 X774.3059 Y549.5793 I0.0000 J-3.0000
G1 X774.3059 Y542.0793 Z-4.6500
G2 X777.3059 Y545.0793 I3.0000 J0.0000
G1 X866.5059 Y545.0793 Z-4.6500
G2 X869.5059 Y542.0793 I0.0000 J-3.0000
G1 X869.5059 Y305.2793 Z-4.6500
G2 X866.5059 Y302.2793 I-3.0000 J0.0000
G1 X875.8059 Y302.2793 Z-4.6500
G2 X872.8059 Y305.2793 I0.0000 J3.0000
G1 X872.8059 Y542.0793 Z-4.6500
G2 X875.8059 Y545.0793 I3.0000 J0.0000
G1 X965.0059 Y545.0793 Z-4.6500
G2 X968.0059 Y542.0793 I0.0000 J-3.0000
G1 X968.0059 Y549.5793 Z-4.6500
G2 X971.0059 Y552.5793 I3.0000 J0.0000
G1 X1071.3059 Y552.5793 Z-4.6500
G2 X1074.3059 Y549.5793 I0.0000 J-3.0000
G1 X1074.3059 Y542.0793 Z-4.6500
G2 X1077.3059 Y545.0793 I3.0000 J0.0000
G1 X1171.1559 Y545.0793 Z-4.6500
G2 X1174.1559 Y542.0793 I0.0000 J-3.0000
G1 X1174.1559 Y57.0793 Z-4.6500
G2 X1171.1559 Y54.0793 I-3.0000 J0.0000
G1 X1077.3059 Y54.0793 Z-4.6500
G2 X1074.3059 Y57.0793 I0.0000 J3.0000
G1 X1074.3059 Y49.5793 Z-4.6500
G2 X1071.3059 Y46.5793 I-3.0000 J0.0000
G1 X971.0059 Y46.5793 Z-4.6500
G2 X968.0059 Y49.5793 I0.0000 J3.0000
G1 X968.0059 Y57.0793 Z-4.6500
G2 X965.0059 Y54.0793 I-3.0000 J0.0000
G1 X777.3059 Y54.0793 Z-4.6500
G2 X774.3059 Y57.0793 I0.0000 J3.0000
G1 X774.3059 Y49.5793 Z-4.6500
G2 X771.3059 Y46.5793 I-3.0000 J0.0000
G1 X671.0059 Y46.5793 Z-4.6500
G2 X668.0059 Y49.5793 I0.0000 J3.0000
G1 X668.0059 Y57.0793 Z-4.6500
G2 X665.0059 Y54.0793 I-3.0000 J0.0000
G1 X571.1559 Y54.0793 Z-4.6500
G2 X568.1559 Y57.0793 I0.0000 J3.0000
G1 X568.1559 Y299.5793 Z-4.6500
G1 X568.1559 Y299.5793 Z-6.9750
G1 X568.1559 Y523.7333 Z-6.9750
G1 X568.1559 Y523.7333 Z-5.3000
G1 X568.1559 Y533.7333 Z-5.3000
G1 X568.1559 Y533.7333 Z-6.9750
G1 X568.1559 Y542.0793 Z-6.9750
G2 X571.1559 Y545.0793 I3.0000 J0.0000
G1 X665.0059 Y545.0793 Z-6.9750
G2 X668.0059 Y542.0793 I0.0000 J-3.0000
G1 X668.0059 Y549.5793 Z-6.9750
G2 X671.0059 Y552.5793 I3.0000 J0.0000
G1 X771.3059 Y552.5793 Z-6.9750
G2 X774.3059 Y549.5793 I0.0000 J-3.0000
G1 X774.3059 Y542.0793 Z-6.9750
G2 X777.3059 Y545.0793 I3.0000 J0.0000
G1 X866.5059 Y545.0793 Z-6.9750
G2 X869.5059 Y542.0793 I0.0000 J-3.0000
G1 X869.5059 Y419.3098 Z-6.9750
G1 X869.5059 Y419.3098 Z-5.3000
G1 X869.5059 Y409.3098 Z-5.3000
G1 X869.5059 Y409.3098 Z-6.9750
G1 X869.5059 Y305.2793 Z-6.9750
G2 X866.5059 Y302.2793 I-3.0000 J0.0000
G1 X875.8059 Y302.2793 Z-6.9750
G2 X872.8059 Y305.2793 I0.0000 J3.0000
G1 X872.8059 Y542.0793 Z-6.9750
G2 X875.8059 Y545.0793 I3.0000 J0.0000
G1 X955.1409 Y545.0793 Z-6.9750
G1 X955.1409 Y545.0793 Z-5.3000
G1 X965.0059 Y545.0793 Z-5.3000
G2 X968.0053 Y542.0915 I0.0004 J-2.9990
G1 X968.0053 Y542.0915 Z-6.9750
G1 X968.0059 Y542.0793 Z-6.9750
G1 X968.0059 Y549.5793 Z-6.9750
G2 X971.0059 Y552.5793 I3.0000 J0.0000
G1 X1071.3059 Y552.5793 Z-6.9750
G2 X1074.3059 Y549.5793 I0.0000 J-3.0000
G1 X1074.3059 Y542.0793 Z-6.9750
G2 X1077.3059 Y545.0793 I3.0000 J0.0000
G1 X1171.1559 Y545.0793 Z-6.9750
G2 X1174.1559 Y542.0793 I0.0000 J-3.0000
G1 X1174.1559 Y321.6288 Z-6.9750
G1 X1174.1559 Y321.6288 Z-5.3000
G1 X1174.1559 Y311.6288 Z-5.3000
G1 X1174.1559 Y311.6288 Z-6.9750
G1 X1174.1559 Y57.0793 Z-6.9750
G2 X1171.1559 Y54.0793 I-3.0000 J0.0000
G1 X1077.3059 Y54.0793 Z-6.9750
G2 X1074.3059 Y57.0793 I0.0000 J3.0000
G1 X1074.3059 Y49.5793 Z-6.9750
G2 X1071.3059 Y46.5793 I-3.0000 J0.0000
G1 X988.3186 Y46.5793 Z-6.9750
G1 X988.3186 Y46.5793 Z-5.3000
G1 X978.3186 Y46.5793 Z-5.3000
G1 X978.3186 Y46.5793 Z-6.9750
G1 X971.0059 Y46.5793 Z-6.9750
G2 X968.0059 Y49.5793 I0.0000 J3.0000
G1 X968.0059 Y57.0793 Z-6.9750
G2 X965.0059 Y54.0793 I-3.0000 J0.0000
G1 X777.3059 Y54.0793 Z-6.9750
G2 X774.3059 Y57.0793 I0.0000 J3.0000
G1 X774.3059 Y49.5793 Z-6.9750
G2 X771.3059 Y46.5793 I-3.0000 J0.0000
G1 X671.0059 Y46.5793 Z-6.9750
G2 X668.0059 Y49.5793 I0.0000 J3.0000
G1 X668.0059 Y57.0793 Z-6.9750
G2 X665.0059 Y54.0793 I-3.0000 J0.0000
G1 X571.1559 Y54.0793 Z-6.9750
G2 X568.1559 Y57.0793 I0.0000 J3.0000
G1 X568.1559 Y65.4609 Z-6.9750
G1 X568.1559 Y65.4609 Z-5.3000
G1 X568.1559 Y75.4609 Z-5.3000
G1 X568.1559 Y75.4609 Z-6.9750
G1 X568.1559 Y299.5793 Z-6.9750
G1 X568.1559 Y299.5793 Z-9.3000
G1 X568.1559 Y523.7333 Z-9.3000
G1 X568.1559 Y523.7333 Z-5.3000
G1 X568.1559 Y533.7333 Z-5.3000
G1 X568.1559 Y533.7333 Z-9.3000
G1 X568.1559 Y542.0793 Z-9.3000
G2 X571.1559 Y545.0793 I3.0000 J0.0000
G1 X665.0059 Y545.0793 Z-9.3000
G2 X668.0059 Y542.0793 I0.0000 J-3.0000
G1 X668.0059 Y549.5793 Z-9.3000
G2 X671.0059 Y552.5793 I3.0000 J0.0000
G1 X771.3059 Y552.5793 Z-9.3000
G2 X774.3059 Y549.5793 I0.0000 J-3.0000
G1 X774.3059 Y542.0793 Z-9.3000
G2 X777.3059 Y545.0793 I3.0000 J0.0000
G1 X866.5059 Y545.0793 Z-9.3000
G2 X869.5059 Y542.0793 I0.0000 J-3.0000
G1 X869.5059 Y419.3098 Z-9.3000
G1 X869.5059 Y419.3098 Z-5.3000
G1 X869.5059 Y409.3098 Z-5.3000
G1 X869.5059 Y409.3098 Z-9.3000
G1 X869.5059 Y305.2793 Z-9.3000
G2 X866.5059 Y302.2793 I-3.0000 J0.0000
G1 X875.8059 Y302.2793 Z-9.3000
G2 X872.8059 Y305.2793 I0.0000 J3.0000
G1 X872.8059 Y542.0793 Z-9.3000
G2 X875.8059 Y545.0793 I3.0000 J0.0000
G1 X955.1409 Y545.0793 Z-9.3000
G1 X955.1409 Y545.0793 Z-5.3000
G1 X965.0059 Y545.0793 Z-5.3000
G2 X968.0053 Y542.0915 I0.0004 J-2.9990
G1 X968.0053 Y542.0915 Z-9.3000
G1 X968.0059 Y542.0793 Z-9.3000
G1 X968.0059 Y549.5793 Z-9.3000
G2 X971.0059 Y552.5793 I3.0000 J0.0000
G1 X1071.3059 Y552.5793 Z-9.3000
G2 X1074.3059 Y549.5793 I0.0000 J-3.0000
G1 X1074.3059 Y542.0793 Z-9.3000
G2 X1077.3059 Y545.0793 I3.0000 J0.0000
G1 X1171.1559 Y545.0793 Z-9.3000
G2 X1174.1559 Y542.0793 I0.0000 J-3.0000
G1 X1174.1559 Y321.6288 Z-9.3000
G1 X1174.1559 Y321.6288 Z-5.3000
G1 X1174.1559 Y311.6288 Z-5.3000
G1 X1174.1559 Y311.6288 Z-9.3000
G1 X1174.1559 Y57.0793 Z-9.3000
G2 X1171.1559 Y54.0793 I-3.0000 J0.0000
G1 X1077.3059 Y54.0793 Z-9.3000
G2 X1074.3059 Y57.0793 I0.0000 J3.0000
G1 X1074.3059 Y49.5793 Z-9.3000
G2 X1071.3059 Y46.5793 I-3.0000 J0.0000
G1 X988.3186 Y46.5793 Z-9.3000
G1 X988.3186 Y46.5793 Z-5.3000
G1 X978.3186 Y46.5793 Z-5.3000
G1 X978.3186 Y46.5793 Z-9.3000
G1 X971.0059 Y46.5793 Z-9.3000
G2 X968.0059 Y49.5793 I0.0000 J3.0000
G1 X968.0059 Y57.0793 Z-9.3000
G2 X965.0059 Y54.0793 I-3.0000 J0.0000
G1 X777.3059 Y54.0793 Z-9.3000
G2 X774.3059 Y57.0793 I0.0000 J3.0000
G1 X774.3059 Y49.5793 Z-9.3000
G2 X771.3059 Y46.5793 I-3.0000 J0.0000
G1 X671.0059 Y46.5793 Z-9.3000
G2 X668.0059 Y49.5793 I0.0000 J3.0000
G1 X668.0059 Y57.0793 Z-9.3000
G2 X665.0059 Y54.0793 I-3.0000 J0.0000
G1 X571.1559 Y54.0793 Z-9.3000
G2 X568.1559 Y57.0793 I0.0000 J3.0000
G1 X568.1559 Y65.4609 Z-9.3000
G1 X568.1559 Y65.4609 Z-5.3000
G1 X568.1559 Y75.4609 Z-5.3000
G1 X568.1559 Y75.4609 Z-9.3000
G1 X568.1559 Y299.5793 Z-9.3000
G0 Z20.0000
G0 X568.1559 Y299.5793
G0 Z20.0000
G0 X1195.4555 Y299.5793
G1 X1195.4555 Y299.5793 Z-2.3250 F3000.
G1 X1195.4555 Y542.0793 Z-2.3250 F4000.
G2 X1198.4555 Y545.0793 I3.0000 J0.0000
G1 X1292.3055 Y545.0793 Z-2.3250
G2 X1295.3055 Y542.0793 I0.0000 J-3.0000
G1 X1295.3055 Y549.5793 Z-2.3250
G2 X1298.3055 Y552.5793 I3.0000 J0.0000
G1 X1398.6055 Y552.5793 Z-2.3250
G2 X1401.6055 Y549.5793 I0.0000 J-3.0000
G1 X1401.6055 Y542.0793 Z-2.3250
G2 X1404.6055 Y545.0793 I3.0000 J0.0000
G1 X1493.8055 Y545.0793 Z-2.3250
G2 X1496.8055 Y542.0793 I0.0000 J-3.0000
G1 X1496.8055 Y305.2793 Z-2.3250
G2 X1493.8055 Y302.2793 I-3.0000 J0.0000
G1 X1503.1055 Y302.2793 Z-2.3250
G2 X1500.1055 Y305.2793 I0.0000 J3.0000
G1 X1500.1055 Y542.0793 Z-2.3250
G2 X1503.1055 Y545.0793 I3.0000 J0.0000
G1 X1592.3055 Y545.0793 Z-2.3250
G2 X1595.3055 Y542.0793 I0.0000 J-3.0000
G1 X1595.3055 Y549.5793 Z-2.3250
G2 X1598.3055 Y552.5793 I3.0000 J0.0000
G1 X1698.6055 Y552.5793 Z-2.3250
G2 X1701.6055 Y549.5793 I0.0000 J-3.0000
G1 X1701.6055 Y542.0793 Z-2.3250
G2 X1704.6055 Y545.0793 I3.0000 J0.0000
G1 X1798.4555 Y545.0793 Z-2.3250
G2 X1801.4555 Y542.0793 I0.0000 J-3.0000
G1 X1801.4555 Y57.0793 Z-2.3250
G2 X1798.4555 Y54.0793 I-3.0000 J0.0000
G1 X1704.6055 Y54.0793 Z-2.3250
G2 X1701.6055 Y57.0793 I0.0000 J3.0000
G1 X1701.6055 Y49.5793 Z-2.3250
G2 X1698.6055 Y46.5793 I-3.0000 J0.0000
G1 X1598.3055 Y46.5793 Z-2.3250
G2 X1595.3055 Y49.5793 I0.0000 J3.0000
G1 X1595.3055 Y57.0793 Z-2.3250
G2 X1592.3055 Y54.0793 I-3.0000 J0.0000
G1 X1404.6055 Y54.0793 Z-2.3250
G2 X1401.6055 Y57.0793 I0.0000 J3.0000
G1 X1401.6055 Y49.5793 Z-2.3250
G2 X1398.6055 Y46.5793 I-3.0000 J0.0000
G1 X1298.3055 Y46.5793 Z-2.3250
G2 X1295.3055 Y49.5793 I0.0000 J3.0000
G1 X1295.3055 Y57.0793 Z-2.3250
G2 X1292.3055 Y54.0793 I-3.0000 J0.0000
G1 X1198.4555 Y54.0793 Z-2.3250
G2 X1195.4555 Y57.0793 I0.0000 J3.0000
G1 X1195.4555 Y299.5793 Z-2.3250
G1 X1195.4555 Y299.5793 Z-4.6500
G1 X1195.4555 Y542.0793 Z-4.6500
G2 X1198.4555 Y545.0793 I3.0000 J0.0000
G1 X1292.3055 Y545.0793 Z-4.6500
G2 X1295.3055 Y542.0793 I0.0000 J-3.0000
G1 X1295.3055 Y549.5793 Z-4.6500
G2 X1298.3055 Y552.5793 I3.0000 J0.0000
G1 X1398.6055 Y552.5793 Z-4.6500
G2 X1401.6055 Y549.5793 I0.0000 J-3.0000
G1 X1401.6055 Y542.0793 Z-4.6500
G2 X1404.6055 Y545.0793 I3.0000 J0.0000
G1 X1493.8055 Y545.0793 Z-4.6500
G2 X1496.8055 Y542.0793 I0.0000 J-3.0000
G1 X1496.8055 Y305.2793 Z-4.6500
G2 X1493.8055 Y302.2793 I-3.0000 J0.0000
G1 X1503.1055 Y302.2793 Z-4.6500
G2 X1500.1055 Y305.2793 I0.0000 J3.0000
G1 X1500.1055 Y542.0793 Z-4.6500
G2 X1503.1055 Y545.0793 I3.0000 J0.0000
G1 X1592.3055 Y545.0793 Z-4.6500
G2 X1595.3055 Y542.0793 I0.0000 J-3.0000
G1 X1595.3055 Y549.5793 Z-4.6500
G2 X1598.3055 Y552.5793 I3.0000 J0.0000
G1 X1698.6055 Y552.5793 Z-4.6500
G2 X1701.6055 Y549.5793 I0.0000 J-3.0000
G1 X1701.6055 Y542.0793 Z-4.6500
G2 X1704.6055 Y545.0793 I3.0000 J0.0000
G1 X1798.4555 Y545.0793 Z-4.6500
G2 X1801.4555 Y542.0793 I0.0000 J-3.0000
G1 X1801.4555 Y57.0793 Z-4.6500
G2 X1798.4555 Y54.0793 I-3.0000 J0.0000
G1 X1704.6055 Y54.0793 Z-4.6500
G2 X1701.6055 Y57.0793 I0.0000 J3.0000
G1 X1701.6055 Y49.5793 Z-4.6500
G2 X1698.6055 Y46.5793 I-3.0000 J0.0000
G1 X1598.3055 Y46.5793 Z-4.6500
G2 X1595.3055 Y49.5793 I0.0000 J3.0000
G1 X1595.3055 Y57.0793 Z-4.6500
G2 X1592.3055 Y54.0793 I-3.0000 J0.0000
G1 X1404.6055 Y54.0793 Z-4.6500
G2 X1401.6055 Y57.0793 I0.0000 J3.0000
G1 X1401.6055 Y49.5793 Z-4.6500
G2 X1398.6055 Y46.5793 I-3.0000 J0.0000
G1 X1298.3055 Y46.5793 Z-4.6500
G2 X1295.3055 Y49.5793 I0.0000 J3.0000
G1 X1295.3055 Y57.0793 Z-4.6500
G2 X1292.3055 Y54.0793 I-3.0000 J0.0000
G1 X1198.4555 Y54.0793 Z-4.6500
G2 X1195.4555 Y57.0793 I0.0000 J3.0000
G1 X1195.4555 Y299.5793 Z-4.6500
G1 X1195.4555 Y299.5793 Z-6.9750
G1 X1195.4555 Y523.7333 Z-6.9750
G1 X1195.4555 Y523.7333 Z-5.3000
G1 X1195.4555 Y533.7333 Z-5.3000
G1 X1195.4555 Y533.7333 Z-6.9750
G1 X1195.4555 Y542.0793 Z-6.9750
G2 X1198.4555 Y545.0793 I3.0000 J0.0000
G1 X1292.3055 Y545.0793 Z-6.9750
G2 X1295.3055 Y542.0793 I0.0000 J-3.0000
G1 X1295.3055 Y549.5793 Z-6.9750
G2 X1298.3055 Y552.5793 I3.0000 J0.0000
G1 X1398.6055 Y552.5793 Z-6.9750
G2 X1401.6055 Y549.5793 I0.0000 J-3.0000
G1 X1401.6055 Y542.0793 Z-6.9750
G2 X1404.6055 Y545.0793 I3.0000 J0.0000
G1 X1493.8055 Y545.0793 Z-6.9750
G2 X1496.8055 Y542.0793 I0.0000 J-3.0000
G1 X1496.8055 Y419.3098 Z-6.9750
G1 X1496.8055 Y419.3098 Z-5.3000
G1 X1496.8055 Y409.3098 Z-5.3000
G1 X1496.8055 Y409.3098 Z-6.9750
G1 X1496.8055 Y305.2793 Z-6.9750
G2 X1493.8055 Y302.2793 I-3.0000 J0.0000
G1 X1503.1055 Y302.2793 Z-6.9750
G2 X1500.1055 Y305.2793 I0.0000 J3.0000
G1 X1500.1055 Y542.0793 Z-6.9750
G2 X1503.1055 Y545.0793 I3.0000 J0.0000
G1 X1582.4405 Y545.0793 Z-6.9750
G1 X1582.4405 Y545.0793 Z-5.3000
G1 X1592.3055 Y545.0793 Z-5.3000
G2 X1595.3049 Y542.0915 I0.0004 J-2.9990
G1 X1595.3049 Y542.0915 Z-6.9750
G1 X1595.3055 Y542.0793 Z-6.9750
G1 X1595.3055 Y549.5793 Z-6.9750
G2 X1598.3055 Y552.5793 I3.0000 J0.0000
G1 X1698.6055 Y552.5793 Z-6.9750
G2 X1701.6055 Y549.5793 I0.0000 J-3.0000
G1 X1701.6055 Y542.0793 Z-6.9750
G2 X1704.6055 Y545.0793 I3.0000 J0.0000
G1 X1798.4555 Y545.0793 Z-6.9750
G2 X1801.4555 Y542.0793 I0.0000 J-3.0000
G1 X1801.4555 Y321.6288 Z-6.9750
G1 X1801.4555 Y321.6288 Z-5.3000
G1 X1801.4555 Y311.6288 Z-5.3000
G1 X1801.4555 Y311.6288 Z-6.9750
G1 X1801.4555 Y57.0793 Z-6.9750
G2 X1798.4555 Y54.0793 I-3.0000 J0.0000
G1 X1704.6055 Y54.0793 Z-6.9750
G2 X1701.6055 Y57.0793 I0.0000 J3.0000
G1 X1701.6055 Y49.5793 Z-6.9750
G2 X1698.6055 Y46.5793 I-3.0000 J0.0000
G1 X1615.6182 Y46.5793 Z-6.9750
G1 X1615.6182 Y46.5793 Z-5.3000
G1 X1605.6182 Y46.5793 Z-5.3000
G1 X1605.6182 Y46.5793 Z-6.9750
G1 X1598.3055 Y46.5793 Z-6.9750
G2 X1595.3055 Y49.5793 I0.0000 J3.0000
G1 X1595.3055 Y57.0793 Z-6.9750
G2 X1592.3055 Y54.0793 I-3.0000 J0.0000
G1 X1404.6055 Y54.0793 Z-6.9750
G2 X1401.6055 Y57.0793 I0.0000 J3.0000
G1 X1401.6055 Y49.5793 Z-6.9750
G2 X1398.6055 Y46.5793 I-3.0000 J0.0000
G1 X1298.3055 Y46.5793 Z-6.9750
G2 X1295.3055 Y49.5793 I0.0000 J3.0000
G1 X1295.3055 Y57.0793 Z-6.9750
G2 X1292.3055 Y54.0793 I-3.0000 J0.0000
G1 X1198.4555 Y54.0793 Z-6.9750
G2 X1195.4555 Y57.0793 I0.0000 J3.0000
G1 X1195.4555 Y65.4609 Z-6.9750
G1 X1195.4555 Y65.4609 Z-5.3000
G1 X1195.4555 Y75.4609 Z-5.3000
G1 X1195.4555 Y75.4609 Z-6.9750
G1 X1195.4555 Y299.5793 Z-6.9750
G1 X1195.4555 Y299.5793 Z-9.3000
G1 X1195.4555 Y523.7333 Z-9.3000
G1 X1195.4555 Y523.7333 Z-5.3000
G1 X1195.4555 Y533.7333 Z-5.3000
G1 X1195.4555 Y533.7333 Z-9.3000
G1 X1195.4555 Y542.0793 Z-9.3000
G2 X1198.4555 Y545.0793 I3.0000 J0.0000
G1 X1292.3055 Y545.0793 Z-9.3000
G2 X1295.3055 Y542.0793 I0.0000 J-3.0000
G1 X1295.3055 Y549.5793 Z-9.3000
G2 X1298.3055 Y552.5793 I3.0000 J0.0000
G1 X1398.6055 Y552.5793 Z-9.3000
G2 X1401.6055 Y549.5793 I0.0000 J-3.0000
G1 X1401.6055 Y542.0793 Z-9.3000
G2 X1404.6055 Y545.0793 I3.0000 J0.0000
G1 X1493.8055 Y545.0793 Z-9.3000
G2 X1496.8055 Y542.0793 I0.0000 J-3.0000
G1 X1496.8055 Y419.3098 Z-9.3000
G1 X1496.8055 Y419.3098 Z-5.3000
G1 X1496.8055 Y409.3098 Z-5.3000
G1 X1496.8055 Y409.3098 Z-9.3000
G1 X1496.8055 Y305.2793 Z-9.3000
G2 X1493.8055 Y302.2793 I-3.0000 J0.0000
G1 X1503.1055 Y302.2793 Z-9.3000
G2 X1500.1055 Y305.2793 I0.0000 J3.0000
G1 X1500.1055 Y542.0793 Z-9.3000
G2 X1503.1055 Y545.0793 I3.0000 J0.0000
G1 X1582.4405 Y545.0793 Z-9.3000
G1 X1582.4405 Y545.0793 Z-5.3000
G1 X1592.3055 Y545.0793 Z-5.3000
G2 X1595.3049 Y542.0915 I0.0004 J-2.9990
G1 X1595.3049 Y542.0915 Z-9.3000
G1 X1595.3055 Y542.0793 Z-9.3000
G1 X1595.3055 Y549.5793 Z-9.3000
G2 X1598.3055 Y552.5793 I3.0000 J0.0000
G1 X1698.6055 Y552.5793 Z-9.3000
G2 X1701.6055 Y549.5793 I0.0000 J-3.0000
G1 X1701.6055 Y542.0793 Z-9.3000
G2 X1704.6055 Y545.0793 I3.0000 J0.0000
G1 X1798.4555 Y545.0793 Z-9.3000
G2 X1801.4555 Y542.0793 I0.0000 J-3.0000
G1 X1801.4555 Y321.6288 Z-9.3000
G1 X1801.4555 Y321.6288 Z-5.3000
G1 X1801.4555 Y311.6288 Z-5.3000
G1 X1801.4555 Y311.6288 Z-9.3000
G1 X1801.4555 Y57.0793 Z-9.3000
G2 X1798.4555 Y54.0793 I-3.0000 J0.0000
G1 X1704.6055 Y54.0793 Z-9.3000
G2 X1701.6055 Y57.0793 I0.0000 J3.0000
G1 X1701.6055 Y49.5793 Z-9.3000
G2 X1698.6055 Y46.5793 I-3.0000 J0.0000
G1 X1615.6182 Y46.5793 Z-9.3000
G1 X1615.6182 Y46.5793 Z-5.3000
G1 X1605.6182 Y46.5793 Z-5.3000
G1 X1605.6182 Y46.5793 Z-9.3000
G1 X1598.3055 Y46.5793 Z-9.3000
G2 X1595.3055 Y49.5793 I0.0000 J3.0000
G1 X1595.3055 Y57.0793 Z-9.3000
G2 X1592.3055 Y54.0793 I-3.0000 J0.0000
G1 X1404.6055 Y54.0793 Z-9.3000
G2 X1401.6055 Y57.0793 I0.0000 J3.0000
G1 X1401.6055 Y49.5793 Z-9.3000
G2 X1398.6055 Y46.5793 I-3.0000 J0.0000
G1 X1298.3055 Y46.5793 Z-9.3000
G2 X1295.3055 Y49.5793 I0.0000 J3.0000
G1 X1295.3055 Y57.0793 Z-9.3000
G2 X1292.3055 Y54.0793 I-3.0000 J0.0000
G1 X1198.4555 Y54.0793 Z-9.3000
G2 X1195.4555 Y57.0793 I0.0000 J3.0000
G1 X1195.4555 Y65.4609 Z-9.3000
G1 X1195.4555 Y65.4609 Z-5.3000
G1 X1195.4555 Y75.4609 Z-5.3000
G1 X1195.4555 Y75.4609 Z-9.3000
G1 X1195.4555 Y299.5793 Z-9.3000
G0 Z20.0000
G0 X1195.4555 Y299.5793
G0 Z20.0000
G0 X1819.6255 Y299.5793
G1 X1819.6255 Y299.5793 Z-2.3250 F3000.
G1 X1819.6255 Y542.0793 Z-2.3250 F4000.
G2 X1822.6255 Y545.0793 I3.0000 J0.0000
G1 X1916.4755 Y545.0793 Z-2.3250
G2 X1919.4755 Y542.0793 I0.0000 J-3.0000
G1 X1919.4755 Y549.5793 Z-2.3250
G2 X1922.4755 Y552.5793 I3.0000 J0.0000
G1 X2022.7755 Y552.5793 Z-2.3250
G2 X2025.7755 Y549.5793 I0.0000 J-3.0000
G1 X2025.7755 Y542.0793 Z-2.3250
G2 X2028.7755 Y545.0793 I3.0000 J0.0000
G1 X2117.9755 Y545.0793 Z-2.3250
G2 X2120.9755 Y542.0793 I0.0000 J-3.0000
G1 X2120.9755 Y305.2793 Z-2.3250
G2 X2117.9755 Y302.2793 I-3.0000 J0.0000
G1 X2127.2755 Y302.2793 Z-2.3250
G2 X2124.2755 Y305.2793 I0.0000 J3.0000
G1 X2124.2755 Y542.0793 Z-2.3250
G2 X2127.2755 Y545.0793 I3.0000 J0.0000
G1 X2216.4755 Y545.0793 Z-2.3250
G2 X2219.4755 Y542.0793 I0.0000 J-3.0000
G1 X2219.4755 Y549.5793 Z-2.3250
G2 X2222.4755 Y552.5793 I3.0000 J0.0000
G1 X2322.7755 Y552.5793 Z-2.3250
G2 X2325.7755 Y549.5793 I0.0000 J-3.0000
G1 X2325.7755 Y542.0793 Z-2.3250
G2 X2328.7755 Y545.0793 I3.0000 J0.0000
G1 X2422.6255 Y545.0793 Z-2.3250
G2 X2425.6255 Y542.0793 I0.0000 J-3.0000
G1 X2425.6255 Y57.0793 Z-2.3250
G2 X2422.6255 Y54.0793 I-3.0000 J0.0000
G1 X2328.7755 Y54.0793 Z-2.3250
G2 X2325.7755 Y57.0793 I0.0000 J3.0000
G1 X2325.7755 Y49.5793 Z-2.3250
G2 X2322.7755 Y46.5793 I-3.0000 J0.0000
G1 X2222.4755 Y46.5793 Z-2.3250
G2 X2219.4755 Y49.5793 I0.0000 J3.0000
G1 X2219.4755 Y57.0793 Z-2.3250
G2 X2216.4755 Y54.0793 I-3.0000 J0.0000
G1 X2028.7755 Y54.0793 Z-2.3250
G2 X2025.7755 Y57.0793 I0.0000 J3.0000
G1 X2025.7755 Y49.5793 Z-2.3250
G2 X2022.7755 Y46.5793 I-3.0000 J0.0000
G1 X1922.4755 Y46.5793 Z-2.3250
G2 X1919.4755 Y49.5793 I0.0000 J3.0000
G1 X1919.4755 Y57.0793 Z-2.3250
G2 X1916.4755 Y54.0793 I-3.0000 J0.0000
G1 X1822.6255 Y54.0793 Z-2.3250
G2 X1819.6255 Y57.0793 I0.0000 J3.0000
G1 X1819.6255 Y299.5793 Z-2.3250
G1 X1819.6255 Y299.5793 Z-4.6500
G1 X1819.6255 Y542.0793 Z-4.6500
G2 X1822.6255 Y545.0793 I3.0000 J0.0000
G1 X1916.4755 Y545.0793 Z-4.6500
G2 X1919.4755 Y542.0793 I0.0000 J-3.0000
G1 X1919.4755 Y549.5793 Z-4.6500
G2 X1922.4755 Y552.5793 I3.0000 J0.0000
G1 X2022.7755 Y552.5793 Z-4.6500
G2 X2025.7755 Y549.5793 I0.0000 J-3.0000
G1 X2025.7755 Y542.0793 Z-4.6500
G2 X2028.7755 Y545.0793 I3.0000 J0.0000
G1 X2117.9755 Y545.0793 Z-4.6500
G2 X2120.9755 Y542.0793 I0.0000 J-3.0000
G1 X2120.9755 Y305.2793 Z-4.6500
G2 X2117.9755 Y302.2793 I-3.0000 J0.0000
G1 X2127.2755 Y302.2793 Z-4.6500
G2 X2124.2755 Y305.2793 I0.0000 J3.0000
G1 X2124.2755 Y542.0793 Z-4.6500
G2 X2127.2755 Y545.0793 I3.0000 J0.0000
G1 X2216.4755 Y545.0793 Z-4.6500
G2 X2219.4755 Y542.0793 I0.0000 J-3.0000
G1 X2219.4755 Y549.5793 Z-4.6500
G2 X2222.4755 Y552.5793 I3.0000 J0.0000
G1 X2322.7755 Y552.5793 Z-4.6500
G2 X2325.7755 Y549.5793 I0.0000 J-3.0000
G1 X2325.7755 Y542.0793 Z-4.6500
G2 X2328.7755 Y545.0793 I3.0000 J0.0000
G1 X2422.6255 Y545.0793 Z-4.6500
G2 X2425.6255 Y542.0793 I0.0000 J-3.0000
G1 X2425.6255 Y57.0793 Z-4.6500
G2 X2422.6255 Y54.0793 I-3.0000 J0.0000
G1 X2328.7755 Y54.0793 Z-4.6500
G2 X2325.7755 Y57.0793 I0.0000 J3.0000
G1 X2325.7755 Y49.5793 Z-4.6500
G2 X2322.7755 Y46.5793 I-3.0000 J0.0000
G1 X2222.4755 Y46.5793 Z-4.6500
G2 X2219.4755 Y49.5793 I0.0000 J3.0000
G1 X2219.4755 Y57.0793 Z-4.6500
G2 X2216.4755 Y54.0793 I-3.0000 J0.0000
G1 X2028.7755 Y54.0793 Z-4.6500
G2 X2025.7755 Y57.0793 I0.0000 J3.0000
G1 X2025.7755 Y49.5793 Z-4.6500
G2 X2022.7755 Y46.5793 I-3.0000 J0.0000
G1 X1922.4755 Y46.5793 Z-4.6500
G2 X1919.4755 Y49.5793 I0.0000 J3.0000
G1 X1919.4755 Y57.0793 Z-4.6500
G2 X1916.4755 Y54.0793 I-3.0000 J0.0000
G1 X1822.6255 Y54.0793 Z-4.6500
G2 X1819.6255 Y57.0793 I0.0000 J3.0000
G1 X1819.6255 Y299.5793 Z-4.6500
G1 X1819.6255 Y299.5793 Z-6.9750
G1 X1819.6255 Y523.7333 Z-6.9750
G1 X1819.6255 Y523.7333 Z-5.3000
G1 X1819.6255 Y533.7333 Z-5.3000
G1 X1819.6255 Y533.7333 Z-6.9750
G1 X1819.6255 Y542.0793 Z-6.9750
G2 X1822.6255 Y545.0793 I3.0000 J0.0000
G1 X1916.4755 Y545.0793 Z-6.9750
G2 X1919.4755 Y542.0793 I0.0000 J-3.0000
G1 X1919.4755 Y549.5793 Z-6.9750
G2 X1922.4755 Y552.5793 I3.0000 J0.0000
G1 X2022.7755 Y552.5793 Z-6.9750
G2 X2025.7755 Y549.5793 I0.0000 J-3.0000
G1 X2025.7755 Y542.0793 Z-6.9750
G2 X2028.7755 Y545.0793 I3.0000 J0.0000
G1 X2117.9755 Y545.0793 Z-6.9750
G2 X2120.9755 Y542.0793 I0.0000 J-3.0000
G1 X2120.9755 Y419.3098 Z-6.9750
G1 X2120.9755 Y419.3098 Z-5.3000
G1 X2120.9755 Y409.3098 Z-5.3000
G1 X2120.9755 Y409.3098 Z-6.9750
G1 X2120.9755 Y305.2793 Z-6.9750
G2 X2117.9755 Y302.2793 I-3.0000 J0.0000
G1 X2127.2755 Y302.2793 Z-6.9750
G2 X2124.2755 Y305.2793 I0.0000 J3.0000
G1 X2124.2755 Y542.0793 Z-6.9750
G2 X2127.2755 Y545.0793 I3.0000 J0.0000
G1 X2206.6105 Y545.0793 Z-6.9750
G1 X2206.6105 Y545.0793 Z-5.3000
G1 X2216.4755 Y545.0793 Z-5.3000
G2 X2219.4749 Y542.0915 I0.0004 J-2.9990
G1 X2219.4749 Y542.0915 Z-6.9750
G1 X2219.4755 Y542.0793 Z-6.9750
G1 X2219.4755 Y549.5793 Z-6.9750
G2 X2222.4755 Y552.5793 I3.0000 J0.0000
G1 X2322.7755 Y552.5793 Z-6.9750
G2 X2325.7755 Y549.5793 I0.0000 J-3.0000
G1 X2325.7755 Y542.0793 Z-6.9750
G2 X2328.7755 Y545.0793 I3.0000 J0.0000
G1 X2422.6255 Y545.0793 Z-6.9750
G2 X2425.6255 Y542.0793 I0.0000 J-3.0000
G1 X2425.6255 Y321.6288 Z-6.9750
G1 X2425.6255 Y321.6288 Z-5.3000
G1 X2425.6255 Y311.6288 Z-5.3000
G1 X2425.6255 Y311.6288 Z-6.9750
G1 X2425.6255 Y57.0793 Z-6.9750
G2 X2422.6255 Y54.0793 I-3.0000 J0.0000
G1 X2328.7755 Y54.0793 Z-6.9750
G2 X2325.7755 Y57.0793 I0.0000 J3.0000
G1 X2325.7755 Y49.5793 Z-6.9750
G2 X2322.7755 Y46.5793 I-3.0000 J0.0000
G1 X2239.7882 Y46.5793 Z-6.9750
G1 X2239.7882 Y46.5793 Z-5.3000
G1 X2229.7882 Y46.5793 Z-5.3000
G1 X2229.7882 Y46.5793 Z-6.9750
G1 X2222.4755 Y46.5793 Z-6.9750
G2 X2219.4755 Y49.5793 I0.0000 J3.0000
G1 X2219.4755 Y57.0793 Z-6.9750
G2 X2216.4755 Y54.0793 I-3.0000 J0.0000
G1 X2028.7755 Y54.0793 Z-6.9750
G2 X2025.7755 Y57.0793 I0.0000 J3.0000
G1 X2025.7755 Y49.5793 Z-6.9750
G2 X2022.7755 Y46.5793 I-3.0000 J0.0000
G1 X1922.4755 Y46.5793 Z-6.9750
G2 X1919.4755 Y49.5793 I0.0000 J3.0000
G1 X1919.4755 Y57.0793 Z-6.9750
G2 X1916.4755 Y54.0793 I-3.0000 J0.0000
G1 X1822.6255 Y54.0793 Z-6.9750
G2 X1819.6255 Y57.0793 I0.0000 J3.0000
G1 X1819.6255 Y65.4609 Z-6.9750
G1 X1819.6255 Y65.4609 Z-5.3000
G1 X1819.6255 Y75.4609 Z-5.3000
G1 X1819.6255 Y75.4609 Z-6.9750
G1 X1819.6255 Y299.5793 Z-6.9750
G1 X1819.6255 Y299.5793 Z-9.3000
G1 X1819.6255 Y523.7333 Z-9.3000
G1 X1819.6255 Y523.7333 Z-5.3000
G1 X1819.6255 Y533.7333 Z-5.3000
G1 X1819.6255 Y533.7333 Z-9.3000
G1 X1819.6255 Y542.0793 Z-9.3000
G2 X1822.6255 Y545.0793 I3.0000 J0.0000
G1 X1916.4755 Y545.0793 Z-9.3000
G2 X1919.4755 Y542.0793 I0.0000 J-3.0000
G1 X1919.4755 Y549.5793 Z-9.3000
G2 X1922.4755 Y552.5793 I3.0000 J0.0000
G1 X2022.7755 Y552.5793 Z-9.3000
G2 X2025.7755 Y549.5793 I0.0000 J-3.0000
G1 X2025.7755 Y542.0793 Z-9.3000
G2 X2028.7755 Y545.0793 I3.0000 J0.0000
G1 X2117.9755 Y545.0793 Z-9.3000
G2 X2120.9755 Y542.0793 I0.0000 J-3.0000
G1 X2120.9755 Y419.3098 Z-9.3000
G1 X2120.9755 Y419.3098 Z-5.3000
G1 X2120.9755 Y409.3098 Z-5.3000
G1 X2120.9755 Y409.3098 Z-9.3000
G1 X2120.9755 Y305.2793 Z-9.3000
G2 X2117.9755 Y302.2793 I-3.0000 J0.0000
G1 X2127.2755 Y302.2793 Z-9.3000
G2 X2124.2755 Y305.2793 I0.0000 J3.0000
G1 X2124.2755 Y542.0793 Z-9.3000
G2 X2127.2755 Y545.0793 I3.0000 J0.0000
G1 X2206.6105 Y545.0793 Z-9.3000
G1 X2206.6105 Y545.0793 Z-5.3000
G1 X2216.4755 Y545.0793 Z-5.3000
G2 X2219.4749 Y542.0915 I0.0004 J-2.9990
G1 X2219.4749 Y542.0915 Z-9.3000
G1 X2219.4755 Y542.0793 Z-9.3000
G1 X2219.4755 Y549.5793 Z-9.3000
G2 X2222.4755 Y552.5793 I3.0000 J0.0000
G1 X2322.7755 Y552.5793 Z-9.3000
G2 X2325.7755 Y549.5793 I0.0000 J-3.0000
G1 X2325.7755 Y542.0793 Z-9.3000
G2 X2328.7755 Y545.0793 I3.0000 J0.0000
G1 X2422.6255 Y545.0793 Z-9.3000
G2 X2425.6255 Y542.0793 I0.0000 J-3.0000
G1 X2425.6255 Y321.6288 Z-9.3000
G1 X2425.6255 Y321.6288 Z-5.3000
G1 X2425.6255 Y311.6288 Z-5.3000
G1 X2425.6255 Y311.6288 Z-9.3000
G1 X2425.6255 Y57.0793 Z-9.3000
G2 X2422.6255 Y54.0793 I-3.0000 J0.0000
G1 X2328.7755 Y54.0793 Z-9.3000
G2 X2325.7755 Y57.0793 I0.0000 J3.0000
G1 X2325.7755 Y49.5793 Z-9.3000
G2 X2322.7755 Y46.5793 I-3.0000 J0.0000
G1 X2239.7882 Y46.5793 Z-9.3000
G1 X2239.7882 Y46.5793 Z-5.3000
G1 X2229.7882 Y46.5793 Z-5.3000
G1 X2229.7882 Y46.5793 Z-9.3000
G1 X2222.4755 Y46.5793 Z-9.3000
G2 X2219.4755 Y49.5793 I0.0000 J3.0000
G1 X2219.4755 Y57.0793 Z-9.3000
G2 X2216.4755 Y54.0793 I-3.0000 J0.0000
G1 X2028.7755 Y54.0793 Z-9.3000
G2 X2025.7755 Y57.0793 I0.0000 J3.0000
G1 X2025.7755 Y49.5793 Z-9.3000
G2 X2022.7755 Y46.5793 I-3.0000 J0.0000
G1 X1922.4755 Y46.5793 Z-9.3000
G2 X1919.4755 Y49.5793 I0.0000 J3.0000
G1 X1919.4755 Y57.0793 Z-9.3000
G2 X1916.4755 Y54.0793 I-3.0000 J0.0000
G1 X1822.6255 Y54.0793 Z-9.3000
G2 X1819.6255 Y57.0793 I0.0000 J3.0000
G1 X1819.6255 Y65.4609 Z-9.3000
G1 X1819.6255 Y65.4609 Z-5.3000
G1 X1819.6255 Y75.4609 Z-5.3000
G1 X1819.6255 Y75.4609 Z-9.3000
G1 X1819.6255 Y299.5793 Z-9.3000
G0 Z20.0000
G0 X1819.6255 Y299.5793
G0 Z20.0000
G0 X2008.0454 Y1194.1338
G1 X2008.0454 Y1194.1338 Z-2.3250 F3000.
G1 X2408.0454 Y1194.1338 Z-2.3250 F4000.
G2 X2411.0454 Y1191.1338 I0.0000 J-3.0000
G1 X2411.0454 Y1097.2838 Z-2.3250
G2 X2408.0454 Y1094.2838 I-3.0000 J0.0000
G1 X2415.5454 Y1094.2838 Z-2.3250
G2 X2418.5454 Y1091.2838 I0.0000 J-3.0000
G1 X2418.5454 Y990.9838 Z-2.3250
G2 X2415.5454 Y987.9838 I-3.0000 J0.0000
G1 X2408.0454 Y987.9838 Z-2.3250
G2 X2411.0454 Y984.9838 I0.0000 J-3.0000
G1 X2411.0454 Y797.2838 Z-2.3250
G2 X2408.0454 Y794.2838 I-3.0000 J0.0000
G1 X2415.5454 Y794.2838 Z-2.3250
G2 X2418.5454 Y791.2838 I0.0000 J-3.0000
G1 X2418.5454 Y690.9838 Z-2.3250
G2 X2415.5454 Y687.9838 I-3.0000 J0.0000
G1 X2408.0454 Y687.9838 Z-2.3250
G2 X2411.0454 Y684.9838 I0.0000 J-3.0000
G1 X2411.0454 Y591.1338 Z-2.3250
G2 X2408.0454 Y588.1338 I-3.0000 J0.0000
G1 X1608.0454 Y588.1338 Z-2.3250
G2 X1605.0454 Y591.1338 I0.0000 J3.0000
G1 X1605.0454 Y684.9838 Z-2.3250
G2 X1608.0454 Y687.9838 I3.0000 J0.0000
G1 X1600.5454 Y687.9838 Z-2.3250
G2 X1597.5454 Y690.9838 I0.0000 J3.0000
G1 X1597.5454 Y791.2838 Z-2.3250
G2 X1600.5454 Y794.2838 I3.0000 J0.0000
G1 X1608.0454 Y794.2838 Z-2.3250
G2 X1605.0454 Y797.2838 I0.0000 J3.0000
G1 X1605.0454 Y886.4838 Z-2.3250
G2 X1608.0454 Y889.4838 I3.0000 J0.0000
G1 X2002.0454 Y889.4838 Z-2.3250
G2 X2005.0454 Y886.4838 I0.0000 J-3.0000
G1 X2005.0454 Y895.7838 Z-2.3250
G2 X2002.0454 Y892.7838 I-3.0000 J0.0000
G1 X1608.0454 Y892.7838 Z-2.3250
G2 X1605.0454 Y895.7838 I0.0000 J3.0000
G1 X1605.0454 Y984.9838 Z-2.3250
G2 X1608.0454 Y987.9838 I3.0000 J0.0000
G1 X1600.5454 Y987.9838 Z-2.3250
G2 X1597.5454 Y990.9838 I0.0000 J3.0000
G1 X1597.5454 Y1091.2838 Z-2.3250
G2 X1600.5454 Y1094.2838 I3.0000 J0.0000
G1 X1608.0454 Y1094.2838 Z-2.3250
G2 X1605.0454 Y1097.2838 I0.0000 J3.0000
G1 X1605.0454 Y1191.1338 Z-2.3250
G2 X1608.0454 Y1194.1338 I3.0000 J0.0000
G1 X2008.0454 Y1194.1338 Z-2.3250
G1 X2008.0454 Y1194.1338 Z-4.6500
G1 X2408.0454 Y1194.1338 Z-4.6500
G2 X2411.0454 Y1191.1338 I0.0000 J-3.0000
G1 X2411.0454 Y1097.2838 Z-4.6500
G2 X2408.0454 Y1094.2838 I-3.0000 J0.0000
G1 X2415.5454 Y1094.2838 Z-4.6500
G2 X2418.5454 Y1091.2838 I0.0000 J-3.0000
G1 X2418.5454 Y990.9838 Z-4.6500
G2 X2415.5454 Y987.9838 I-3.0000 J0.0000
G1 X2408.0454 Y987.9838 Z-4.6500
G2 X2411.0454 Y984.9838 I0.0000 J-3.0000
G1 X2411.0454 Y797.2838 Z-4.6500
G2 X2408.0454 Y794.2838 I-3.0000 J0.0000
G1 X2415.5454 Y794.2838 Z-4.6500
G2 X2418.5454 Y791.2838 I0.0000 J-3.0000
G1 X2418.5454 Y690.9838 Z-4.6500
G2 X2415.5454 Y687.9838 I-3.0000 J0.0000
G1 X2408.0454 Y687.9838 Z-4.6500
G2 X2411.0454 Y684.9838 I0.0000 J-3.0000
G1 X2411.0454 Y591.1338 Z-4.6500
G2 X2408.0454 Y588.1338 I-3.0000 J0.0000
G1 X1608.0454 Y588.1338 Z-4.6500
G2 X1605.0454 Y591.1338 I0.0000 J3.0000
G1 X1605.0454 Y684.9838 Z-4.6500
G2 X1608.0454 Y687.9838 I3.0000 J0.0000
G1 X1600.5454 Y687.9838 Z-4.6500
G2 X1597.5454 Y690.9838 I0.0000 J3.0000
G1 X1597.5454 Y791.2838 Z-4.6500
G2 X1600.5454 Y794.2838 I3.0000 J0.0000
G1 X1608.0454 Y794.2838 Z-4.6500
G2 X1605.0454 Y797.2838 I0.0000 J3.0000
G1 X1605.0454 Y886.4838 Z-4.6500
G2 X1608.0454 Y889.4838 I3.0000 J0.0000
G1 X2002.0454 Y889.4838 Z-4.6500
G2 X2005.0454 Y886.4838 I0.0000 J-3.0000
G1 X2005.0454 Y895.7838 Z-4.6500
G2 X2002.0454 Y892.7838 I-3.0000 J0.0000
G1 X1608.0454 Y892.7838 Z-4.6500
G2 X1605.0454 Y895.7838 I0.0000 J3.0000
G1 X1605.0454 Y984.9838 Z-4.6500
G2 X1608.0454 Y987.9838 I3.0000 J0.0000
G1 X1600.5454 Y987.9838 Z-4.6500
G2 X1597.5454 Y990.9838 I0.0000 J3.0000
G1 X1597.5454 Y1091.2838 Z-4.6500
G2 X1600.5454 Y1094.2838 I3.0000 J0.0000
G1 X1608.0454 Y1094.2838 Z-4.6500
G2 X1605.0454 Y1097.2838 I0.0000 J3.0000
G1 X1605.0454 Y1191.1338 Z-4.6500
G2 X1608.0454 Y1194.1338 I3.0000 J0.0000
G1 X2008.0454 Y1194.1338 Z-4.6500
G1 X2008.0454 Y1194.1338 Z-6.9750
G1 X2310.8994 Y1194.1338 Z-6.9750
G1 X2310.8994 Y1194.1338 Z-5.3000
G1 X2320.8994 Y1194.1338 Z-5.3000
G1 X2320.8994 Y1194.1338 Z-6.9750
G1 X2408.0454 Y1194.1338 Z-6.9750
G2 X2411.0454 Y1191.1338 I0.0000 J-3.0000
G1 X2411.0454 Y1097.2838 Z-6.9750
G2 X2408.0454 Y1094.2838 I-3.0000 J0.0000
G1 X2415.5454 Y1094.2838 Z-6.9750
G2 X2418.5454 Y1091.2838 I0.0000 J-3.0000
G1 X2418.5454 Y990.9838 Z-6.9750
G2 X2415.5454 Y987.9838 I-3.0000 J0.0000
G1 X2408.0454 Y987.9838 Z-6.9750
G2 X2411.0454 Y984.9838 I0.0000 J-3.0000
G1 X2411.0454 Y797.2838 Z-6.9750
G2 X2408.0454 Y794.2838 I-3.0000 J0.0000
G1 X2415.5454 Y794.2838 Z-6.9750
G2 X2418.5454 Y791.2838 I0.0000 J-3.0000
G1 X2418.5454 Y705.3356 Z-6.9750
G1 X2418.5454 Y705.3356 Z-5.3000
G1 X2418.5454 Y695.3356 Z-5.3000
G1 X2418.5454 Y695.3356 Z-6.9750
G2 X2418.4878 Y690.3986 I-25.0918 J-2.1759
G2 X2415.5454 Y687.9838 I-2.9424 J0.5852
G1 X2408.0454 Y687.9838 Z-6.9750
G2 X2411.0454 Y684.9838 I0.0000 J-3.0000
G1 X2411.0454 Y591.1338 Z-6.9750
G2 X2408.0454 Y588.1338 I-3.0000 J0.0000
G1 X1917.4604 Y588.1338 Z-6.9750
G1 X1917.4604 Y588.1338 Z-5.3000
G1 X1907.4604 Y588.1338 Z-5.3000
G1 X1907.4604 Y588.1338 Z-6.9750
G1 X1608.0454 Y588.1338 Z-6.9750
G2 X1605.0454 Y591.1338 I0.0000 J3.0000
G1 X1605.0454 Y684.9838 Z-6.9750
G2 X1608.0454 Y687.9838 I3.0000 J0.0000
G1 X1600.5454 Y687.9838 Z-6.9750
G2 X1597.5454 Y690.9838 I0.0000 J3.0000
G1 X1597.5454 Y791.2838 Z-6.9750
G2 X1600.5454 Y794.2838 I3.0000 J0.0000
G1 X1608.0454 Y794.2838 Z-6.9750
G2 X1605.0454 Y797.2838 I0.0000 J3.0000
G1 X1605.0454 Y875.5844 Z-6.9750
G1 X1605.0454 Y875.5844 Z-5.3000
G1 X1605.0454 Y885.5844 Z-5.3000
G1 X1605.0454 Y885.5844 Z-6.9750
G2 X1608.0454 Y889.4838 I3.0771 J0.7364
G1 X2002.0454 Y889.4838 Z-6.9750
G2 X2005.0454 Y886.4838 I0.0000 J-3.0000
G1 X2005.0454 Y895.7838 Z-6.9750
G2 X2002.0454 Y892.7838 I-3.0000 J0.0000
G1 X1819.3793 Y892.7838 Z-6.9750
G1 X1819.3793 Y892.7838 Z-5.3000
G1 X1809.3793 Y892.7838 Z-5.3000
G1 X1809.3793 Y892.7838 Z-6.9750
G1 X1608.0454 Y892.7838 Z-6.9750
G2 X1605.0454 Y895.7838 I0.0000 J3.0000
G1 X1605.0454 Y984.9838 Z-6.9750
G2 X1608.0454 Y987.9838 I3.0000 J0.0000
G1 X1600.5454 Y987.9838 Z-6.9750
G2 X1597.5454 Y990.9838 I0.0000 J3.0000
G1 X1597.5454 Y1091.2838 Z-6.9750
G2 X1600.5454 Y1094.2838 I3.0000 J0.0000
G1 X1608.0454 Y1094.2838 Z-6.9750
G2 X1605.0454 Y1097.2838 I0.0000 J3.0000
G1 X1605.0454 Y1191.1338 Z-6.9750
G2 X1608.0454 Y1194.1338 I3.0000 J0.0000
G1 X1695.2270 Y1194.1338 Z-6.9750
G1 X1695.2270 Y1194.1338 Z-5.3000
G1 X1705.2270 Y1194.1338 Z-5.3000
G1 X1705.2270 Y1194.1338 Z-6.9750
G1 X2008.0454 Y1194.1338 Z-6.9750
G1 X2008.0454 Y1194.1338 Z-9.3000
G1 X2310.8994 Y1194.1338 Z-9.3000
G1 X2310.8994 Y1194.1338 Z-5.3000
G1 X2320.8994 Y1194.1338 Z-5.3000
G1 X2320.8994 Y1194.1338 Z-9.3000
G1 X2408.0454 Y1194.1338 Z-9.3000
G2 X2411.0454 Y1191.1338 I0.0000 J-3.0000
G1 X2411.0454 Y1097.2838 Z-9.3000
G2 X2408.0454 Y1094.2838 I-3.0000 J0.0000
G1 X2415.5454 Y1094.2838 Z-9.3000
G2 X2418.5454 Y1091.2838 I0.0000 J-3.0000
G1 X2418.5454 Y990.9838 Z-9.3000
G2 X2415.5454 Y987.9838 I-3.0000 J0.0000
G1 X2408.0454 Y987.9838 Z-9.3000
G2 X2411.0454 Y984.9838 I0.0000 J-3.0000
G1 X2411.0454 Y797.2838 Z-9.3000
G2 X2408.0454 Y794.2838 I-3.0000 J0.0000
G1 X2415.5454 Y794.2838 Z-9.3000
G2 X2418.5454 Y791.2838 I0.0000 J-3.0000
G1 X2418.5454 Y705.3356 Z-9.3000
G1 X2418.5454 Y705.3356 Z-5.3000
G1 X2418.5454 Y695.3356 Z-5.3000
G1 X2418.5454 Y695.3356 Z-9.3000
G2 X2418.4878 Y690.3986 I-25.0918 J-2.1759
G2 X2415.5454 Y687.9838 I-2.9424 J0.5852
G1 X2408.0454 Y687.9838 Z-9.3000
G2 X2411.0454 Y684.9838 I0.0000 J-3.0000
G1 X2411.0454 Y591.1338 Z-9.3000
G2 X2408.0454 Y588.1338 I-3.0000 J0.0000
G1 X1917.4604 Y588.1338 Z-9.3000
G1 X1917.4604 Y588.1338 Z-5.3000
G1 X1907.4604 Y588.1338 Z-5.3000
G1 X1907.4604 Y588.1338 Z-9.3000
G1 X1608.0454 Y588.1338 Z-9.3000
G2 X1605.0454 Y591.1338 I0.0000 J3.0000
G1 X1605.0454 Y684.9838 Z-9.3000
G2 X1608.0454 Y687.9838 I3.0000 J0.0000
G1 X1600.5454 Y687.9838 Z-9.3000
G2 X1597.5454 Y690.9838 I0.0000 J3.0000
G1 X1597.5454 Y791.2838 Z-9.3000
G2 X1600.5454 Y794.2838 I3.0000 J0.0000
G1 X1608.0454 Y794.2838 Z-9.3000
G2 X1605.0454 Y797.2838 I0.0000 J3.0000
G1 X1605.0454 Y875.5844 Z-9.3000
G1 X1605.0454 Y875.5844 Z-5.3000
G1 X1605.0454 Y885.5844 Z-5.3000
G1 X1605.0454 Y885.5844 Z-9.3000
G2 X1608.0454 Y889.4838 I3.0771 J0.7364
G1 X2002.0454 Y889.4838 Z-9.3000
G2 X2005.0454 Y886.4838 I0.0000 J-3.0000
G1 X2005.0454 Y895.7838 Z-9.3000
G2 X2002.0454 Y892.7838 I-3.0000 J0.0000
G1 X1819.3793 Y892.7838 Z-9.3000
G1 X1819.3793 Y892.7838 Z-5.3000
G1 X1809.3793 Y892.7838 Z-5.3000
G1 X1809.3793 Y892.7838 Z-9.3000
G1 X1608.0454 Y892.7838 Z-9.3000
G2 X1605.0454 Y895.7838 I0.0000 J3.0000
G1 X1605.0454 Y984.9838 Z-9.3000
G2 X1608.0454 Y987.9838 I3.0000 J0.0000
G1 X1600.5454 Y987.9838 Z-9.3000
G2 X1597.5454 Y990.9838 I0.0000 J3.0000
G1 X1597.5454 Y1091.2838 Z-9.3000
G2 X1600.5454 Y1094.2838 I3.0000 J0.0000
G1 X1608.0454 Y1094.2838 Z-9.3000
G2 X1605.0454 Y1097.2838 I0.0000 J3.0000
G1 X1605.0454 Y1191.1338 Z-9.3000
G2 X1608.0454 Y1194.1338 I3.0000 J0.0000
G1 X1695.2270 Y1194.1338 Z-9.3000
G1 X1695.2270 Y1194.1338 Z-5.3000
G1 X1705.2270 Y1194.1338 Z-5.3000
G1 X1705.2270 Y1194.1338 Z-9.3000
G1 X2008.0454 Y1194.1338 Z-9.3000
G0 Z20.0000
G0 X2008.0454 Y1194.1338
G0 Z20.0000
G0 X1105.3070 Y588.1338
G1 X1105.3070 Y588.1338 Z-2.3250 F3000.
G1 X705.3070 Y588.1338 Z-2.3250 F4000.
G2 X702.3070 Y591.1338 I0.0000 J3.0000
G1 X702.3070 Y684.9838 Z-2.3250
G2 X705.3070 Y687.9838 I3.0000 J0.0000
G1 X697.8070 Y687.9838 Z-2.3250
G2 X694.8070 Y690.9838 I0.0000 J3.0000
G1 X694.8070 Y791.2838 Z-2.3250
G2 X697.8070 Y794.2838 I3.0000 J0.0000
G1 X705.3070 Y794.2838 Z-2.3250
G2 X702.3070 Y797.2838 I0.0000 J3.0000
G1 X702.3070 Y886.4838 Z-2.3250
G2 X705.3070 Y889.4838 I3.0000 J0.0000
G1 X1099.3070 Y889.4838 Z-2.3250
G2 X1102.3070 Y886.4838 I0.0000 J-3.0000
G1 X1102.3070 Y895.7838 Z-2.3250
G2 X1099.3070 Y892.7838 I-3.0000 J0.0000
G1 X705.3070 Y892.7838 Z-2.3250
G2 X702.3070 Y895.7838 I0.0000 J3.0000
G1 X702.3070 Y984.9838 Z-2.3250
G2 X705.3070 Y987.9838 I3.0000 J0.0000
G1 X697.8070 Y987.9838 Z-2.3250
G2 X694.8070 Y990.9838 I0.0000 J3.0000
G1 X694.8070 Y1091.2838 Z-2.3250
G2 X697.8070 Y1094.2838 I3.0000 J0.0000
G1 X705.3070 Y1094.2838 Z-2.3250
G2 X702.3070 Y1097.2838 I0.0000 J3.0000
G1 X702.3070 Y1191.1338 Z-2.3250
G2 X705.3070 Y1194.1338 I3.0000 J0.0000
G1 X1505.3070 Y1194.1338 Z-2.3250
G2 X1508.3070 Y1191.1338 I0.0000 J-3.0000
G1 X1508.3070 Y1097.2838 Z-2.3250
G2 X1505.3070 Y1094.2838 I-3.0000 J0.0000
G1 X1512.8070 Y1094.2838 Z-2.3250
G2 X1515.8070 Y1091.2838 I0.0000 J-3.0000
G1 X1515.8070 Y990.9838 Z-2.3250
G2 X1512.8070 Y987.9838 I-3.0000 J0.0000
G1 X1505.3070 Y987.9838 Z-2.3250
G2 X1508.3070 Y984.9838 I0.0000 J-3.0000
G1 X1508.3070 Y797.2838 Z-2.3250
G2 X1505.3070 Y794.2838 I-3.0000 J0.0000
G1 X1512.8070 Y794.2838 Z-2.3250
G2 X1515.8070 Y791.2838 I0.0000 J-3.0000
G1 X1515.8070 Y690.9838 Z-2.3250
G2 X1512.8070 Y687.9838 I-3.0000 J0.0000
G1 X1505.3070 Y687.9838 Z-2.3250
G2 X1508.3070 Y684.9838 I0.0000 J-3.0000
G1 X1508.3070 Y591.1338 Z-2.3250
G2 X1505.3070 Y588.1338 I-3.0000 J0.0000
G1 X1105.3070 Y588.1338 Z-2.3250
G1 X1105.3070 Y588.1338 Z-4.6500
G1 X705.3070 Y588.1338 Z-4.6500
G2 X702.3070 Y591.1338 I0.0000 J3.0000
G1 X702.3070 Y684.9838 Z-4.6500
G2 X705.3070 Y687.9838 I3.0000 J0.0000
G1 X697.8070 Y687.9838 Z-4.6500
G2 X694.8070 Y690.9838 I0.0000 J3.0000
G1 X694.8070 Y791.2838 Z-4.6500
G2 X697.8070 Y794.2838 I3.0000 J0.0000
G1 X705.3070 Y794.2838 Z-4.6500
G2 X702.3070 Y797.2838 I0.0000 J3.0000
G1 X702.3070 Y886.4838 Z-4.6500
G2 X705.3070 Y889.4838 I3.0000 J0.0000
G1 X1099.3070 Y889.4838 Z-4.6500
G2 X1102.3070 Y886.4838 I0.0000 J-3.0000
G1 X1102.3070 Y895.7838 Z-4.6500
G2 X1099.3070 Y892.7838 I-3.0000 J0.0000
G1 X705.3070 Y892.7838 Z-4.6500
G2 X702.3070 Y895.7838 I0.0000 J3.0000
G1 X702.3070 Y984.9838 Z-4.6500
G2 X705.3070 Y987.9838 I3.0000 J0.0000
G1 X697.8070 Y987.9838 Z-4.6500
G2 X694.8070 Y990.9838 I0.0000 J3.0000
G1 X694.8070 Y1091.2838 Z-4.6500
G2 X697.8070 Y1094.2838 I3.0000 J0.0000
G1 X705.3070 Y1094.2838 Z-4.6500
G2 X702.3070 Y1097.2838 I0.0000 J3.0000
G1 X702.3070 Y1191.1338 Z-4.6500
G2 X705.3070 Y1194.1338 I3.0000 J0.0000
G1 X1505.3070 Y1194.1338 Z-4.6500
G2 X1508.3070 Y1191.1338 I0.0000 J-3.0000
G1 X1508.3070 Y1097.2838 Z-4.6500
G2 X1505.3070 Y1094.2838 I-3.0000 J0.0000
G1 X1512.8070 Y1094.2838 Z-4.6500
G2 X1515.8070 Y1091.2838 I0.0000 J-3.0000
G1 X1515.8070 Y990.9838 Z-4.6500
G2 X1512.8070 Y987.9838 I-3.0000 J0.0000
G1 X1505.3070 Y987.9838 Z-4.6500
G2 X1508.3070 Y984.9838 I0.0000 J-3.0000
G1 X1508.3070 Y797.2838 Z-4.6500
G2 X1505.3070 Y794.2838 I-3.0000 J0.0000
G1 X1512.8070 Y794.2838 Z-4.6500
G2 X1515.8070 Y791.2838 I0.0000 J-3.0000
G1 X1515.8070 Y690.9838 Z-4.6500
G2 X1512.8070 Y687.9838 I-3.0000 J0.0000
G1 X1505.3070 Y687.9838 Z-4.6500
G2 X1508.3070 Y684.9838 I0.0000 J-3.0000
G1 X1508.3070 Y591.1338 Z-4.6500
G2 X1505.3070 Y588.1338 I-3.0000 J0.0000
G1 X1105.3070 Y588.1338 Z-4.6500
G1 X1105.3070 Y588.1338 Z-6.9750
G1 X802.4530 Y588.1338 Z-6.9750
G1 X802.4530 Y588.1338 Z-5.3000
G1 X792.4530 Y588.1338 Z-5.3000
G1 X792.4530 Y588.1338 Z-6.9750
G1 X705.3070 Y588.1338 Z-6.9750
G2 X702.3070 Y591.1338 I0.0000 J3.0000
G1 X702.3070 Y684.9838 Z-6.9750
G2 X705.3070 Y687.9838 I3.0000 J0.0000
G1 X697.8070 Y687.9838 Z-6.9750
G2 X694.8070 Y690.9838 I0.0000 J3.0000
G1 X694.8070 Y791.2838 Z-6.9750
G2 X697.8070 Y794.2838 I3.0000 J0.0000
G1 X705.3070 Y794.2838 Z-6.9750
G2 X702.3070 Y797.2838 I0.0000 J3.0000
G1 X702.3070 Y886.4838 Z-6.9750
G2 X705.3070 Y889.4838 I3.0000 J0.0000
G1 X906.6765 Y889.4838 Z-6.9750
G1 X906.6765 Y889.4838 Z-5.3000
G1 X916.6765 Y889.4838 Z-5.3000
G1 X916.6765 Y889.4838 Z-6.9750
G1 X1099.3070 Y889.4838 Z-6.9750
G2 X1102.3070 Y886.4838 I0.0000 J-3.0000
G1 X1102.3070 Y895.7838 Z-6.9750
G2 X1099.3070 Y892.7838 I-3.0000 J0.0000
G1 X705.3070 Y892.7838 Z-6.9750
G2 X702.3070 Y896.7189 I0.0672 J3.1624
G1 X702.3070 Y896.7189 Z-5.3000
G1 X702.3070 Y906.7189 Z-5.3000
G1 X702.3070 Y906.7189 Z-6.9750
G1 X702.3070 Y984.9838 Z-6.9750
G2 X705.3070 Y987.9838 I3.0000 J0.0000
G1 X697.8070 Y987.9838 Z-6.9750
G2 X694.8070 Y990.9838 I0.0000 J3.0000
G1 X694.8070 Y1091.2838 Z-6.9750
G2 X697.8070 Y1094.2838 I3.0000 J0.0000
G1 X705.3070 Y1094.2838 Z-6.9750
G2 X702.3070 Y1097.2838 I0.0000 J3.0000
G1 X702.3070 Y1191.1338 Z-6.9750
G2 X705.3070 Y1194.1338 I3.0000 J0.0000
G1 X1004.7575 Y1194.1338 Z-6.9750
G1 X1004.7575 Y1194.1338 Z-5.3000
G1 X1014.7575 Y1194.1338 Z-5.3000
G1 X1014.7575 Y1194.1338 Z-6.9750
G1 X1505.3070 Y1194.1338 Z-6.9750
G2 X1508.3070 Y1191.1338 I0.0000 J-3.0000
G1 X1508.3070 Y1097.2838 Z-6.9750
G2 X1505.3070 Y1094.2838 I-3.0000 J0.0000
G1 X1512.8070 Y1094.2838 Z-6.9750
G2 X1515.8070 Y1091.2838 I0.0000 J-3.0000
G1 X1515.8070 Y1086.8965 Z-6.9750
G1 X1515.8070 Y1086.8965 Z-5.3000
G1 X1515.8070 Y1076.8965 Z-5.3000
G1 X1515.8070 Y1076.8965 Z-6.9750
G1 X1515.8070 Y990.9838 Z-6.9750
G2 X1512.8070 Y987.9838 I-3.0000 J0.0000
G1 X1505.3070 Y987.9838 Z-6.9750
G2 X1508.3070 Y984.9838 I0.0000 J-3.0000
G1 X1508.3070 Y797.2838 Z-6.9750
G2 X1505.3070 Y794.2838 I-3.0000 J0.0000
G1 X1512.8070 Y794.2838 Z-6.9750
G2 X1515.8070 Y791.2838 I0.0000 J-3.0000
G1 X1515.8070 Y690.9838 Z-6.9750
G2 X1512.8070 Y687.9838 I-3.0000 J0.0000
G1 X1505.3070 Y687.9838 Z-6.9750
G2 X1508.3070 Y684.9838 I0.0000 J-3.0000
G1 X1508.3070 Y591.1338 Z-6.9750
G2 X1505.3070 Y588.1338 I-3.0000 J0.0000
G1 X1418.1254 Y588.1338 Z-6.9750
G1 X1418.1254 Y588.1338 Z-5.3000
G1 X1408.1254 Y588.1338 Z-5.3000
G1 X1408.1254 Y588.1338 Z-6.9750
G1 X1105.3070 Y588.1338 Z-6.9750
G1 X1105.3070 Y588.1338 Z-9.3000
G1 X802.4530 Y588.1338 Z-9.3000
G1 X802.4530 Y588.1338 Z-5.3000
G1 X792.4530 Y588.1338 Z-5.3000
G1 X792.4530 Y588.1338 Z-9.3000
G1 X705.3070 Y588.1338 Z-9.3000
G2 X702.3070 Y591.1338 I0.0000 J3.0000
G1 X702.3070 Y684.9838 Z-9.3000
G2 X705.3070 Y687.9838 I3.0000 J0.0000
G1 X697.8070 Y687.9838 Z-9.3000
G2 X694.8070 Y690.9838 I0.0000 J3.0000
G1 X694.8070 Y791.2838 Z-9.3000
G2 X697.8070 Y794.2838 I3.0000 J0.0000
G1 X705.3070 Y794.2838 Z-9.3000
G2 X702.3070 Y797.2838 I0.0000 J3.0000
G1 X702.3070 Y886.4838 Z-9.3000
G2 X705.3070 Y889.4838 I3.0000 J0.0000
G1 X906.6765 Y889.4838 Z-9.3000
G1 X906.6765 Y889.4838 Z-5.3000
G1 X916.6765 Y889.4838 Z-5.3000
G1 X916.6765 Y889.4838 Z-9.3000
G1 X1099.3070 Y889.4838 Z-9.3000
G2 X1102.3070 Y886.4838 I0.0000 J-3.0000
G1 X1102.3070 Y895.7838 Z-9.3000
G2 X1099.3070 Y892.7838 I-3.0000 J0.0000
G1 X705.3070 Y892.7838 Z-9.3000
G2 X702.3070 Y896.7189 I0.0672 J3.1624
G1 X702.3070 Y896.7189 Z-5.3000
G1 X702.3070 Y906.7189 Z-5.3000
G1 X702.3070 Y906.7189 Z-9.3000
G1 X702.3070 Y984.9838 Z-9.3000
G2 X705.3070 Y987.9838 I3.0000 J0.0000
G1 X697.8070 Y987.9838 Z-9.3000
G2 X694.8070 Y990.9838 I0.0000 J3.0000
G1 X694.8070 Y1091.2838 Z-9.3000
G2 X697.8070 Y1094.2838 I3.0000 J0.0000
G1 X705.3070 Y1094.2838 Z-9.3000
G2 X702.3070 Y1097.2838 I0.0000 J3.0000
G1 X702.3070 Y1191.1338 Z-9.3000
G2 X705.3070 Y1194.1338 I3.0000 J0.0000
G1 X1004.7575 Y1194.1338 Z-9.3000
G1 X1004.7575 Y1194.1338 Z-5.3000
G1 X1014.7575 Y1194.1338 Z-5.3000
G1 X1014.7575 Y1194.1338 Z-9.3000
G1 X1505.3070 Y1194.1338 Z-9.3000
G2 X1508.3070 Y1191.1338 I0.0000 J-3.0000
G1 X1508.3070 Y1097.2838 Z-9.3000
G2 X1505.3070 Y1094.2838 I-3.0000 J0.0000
G1 X1512.8070 Y1094.2838 Z-9.3000
G2 X1515.8070 Y1091.2838 I0.0000 J-3.0000
G1 X1515.8070 Y1086.8965 Z-9.3000
G1 X1515.8070 Y1086.8965 Z-5.3000
G1 X1515.8070 Y1076.8965 Z-5.3000
G1 X1515.8070 Y1076.8965 Z-9.3000
G1 X1515.8070 Y990.9838 Z-9.3000
G2 X1512.8070 Y987.9838 I-3.0000 J0.0000
G1 X1505.3070 Y987.9838 Z-9.3000
G2 X1508.3070 Y984.9838 I0.0000 J-3.0000
G1 X1508.3070 Y797.2838 Z-9.3000
G2 X1505.3070 Y794.2838 I-3.0000 J0.0000
G1 X1512.8070 Y794.2838 Z-9.3000
G2 X1515.8070 Y791.2838 I0.0000 J-3.0000
G1 X1515.8070 Y690.9838 Z-9.3000
G2 X1512.8070 Y687.9838 I-3.0000 J0.0000
G1 X1505.3070 Y687.9838 Z-9.3000
G2 X1508.3070 Y684.9838 I0.0000 J-3.0000
G1 X1508.3070 Y591.1338 Z-9.3000
G2 X1505.3070 Y588.1338 I-3.0000 J0.0000
G1 X1418.1254 Y588.1338 Z-9.3000
G1 X1418.1254 Y588.1338 Z-5.3000
G1 X1408.1254 Y588.1338 Z-5.3000
G1 X1408.1254 Y588.1338 Z-9.3000
G1 X1105.3070 Y588.1338 Z-9.3000
G0 Z20.0000
G0 X1105.3070 Y588.1338
M9
M5
M30
(--THE END - THANK YOU FOR USING THIS AWESOME POSTPROCESSOR---)
