(01-00-Screws-6mmFlat.nc)
(----------------------------------------------------------------)
( Generated for RhinoCam to export for CNC-STEP models Raptor X-SL3000s20 / T-Rex1215 )
( Postprocessor written at FabLab BCN/IaaC by eduardo.chamorro@iaac.net )
( Last edit : 22 January - 2019 )
(----------------------------------------------------------------)
(Stock Size X = 2500.0000, Y =  1250.0000, Z = 15.0000)
(Home Origin X =  0, Y = 0, Z = 0)
(Units = MM, Spindle Speed = 18000)
(Max cut depth = Z-15.0000)
(Tool dia= 6.0 mm, Tool length= 90.0 mm)(WARNING!-CHECK YOUR TOOL)
(-------------------------------------------------------------)
%
G90
G64
M7
M8
T1
S20000
M3
G0 Z20.0000
G0 X51.2503 Y56.6203
G1 X51.2503 Y56.6203 Z-3.0000 F3000.
G0 Z20.0000
G0 X51.2503 Y56.6203
G0 Z20.0000
G0 X49.2772 Y613.0400
G1 X49.2772 Y613.0400 Z-3.0000 F3000.
G0 Z20.0000
G0 X49.2772 Y613.0400
G0 Z20.0000
G0 X43.3578 Y1191.1640
G1 X43.3578 Y1191.1640 Z-3.0000 F3000.
G0 Z20.0000
G0 X43.3578 Y1191.1640
G0 Z20.0000
G0 X627.4012 Y1187.2178
G1 X627.4012 Y1187.2178 Z-3.0000 F3000.
G0 Z20.0000
G0 X627.4012 Y1187.2178
G0 Z20.0000
G0 X1033.4693 Y838.7093
G1 X1033.4693 Y838.7093 Z-3.0000 F3000.
G0 Z20.0000
G0 X1033.4693 Y838.7093
G0 Z20.0000
G0 X1093.9755 Y770.7605
G1 X1093.9755 Y770.7605 Z-3.0000 F3000.
G0 Z20.0000
G0 X1093.9755 Y770.7605
G0 Z20.0000
G0 X1235.1220 Y636.7174
G1 X1235.1220 Y636.7174 Z-3.0000 F3000.
G0 Z20.0000
G0 X1235.1220 Y636.7174
G0 Z20.0000
G0 X1223.2833 Y1187.2178
G1 X1223.2833 Y1187.2178 Z-3.0000 F3000.
G0 Z20.0000
G0 X1223.2833 Y1187.2178
G0 Z20.0000
G0 X627.4012 Y620.9325
G1 X627.4012 Y620.9325 Z-3.0000 F3000.
G0 Z20.0000
G0 X627.4012 Y620.9325
G0 Z20.0000
G0 X623.4550 Y84.2439
G1 X623.4550 Y84.2439 Z-3.0000 F3000.
G0 Z20.0000
G0 X623.4550 Y84.2439
G0 Z20.0000
G0 X1274.5844 Y74.3783
G1 X1274.5844 Y74.3783 Z-3.0000 F3000.
G0 Z20.0000
G0 X1274.5844 Y74.3783
G0 Z20.0000
G0 X1896.1171 Y105.9483
G1 X1896.1171 Y105.9483 Z-3.0000 F3000.
G0 Z20.0000
G0 X1896.1171 Y105.9483
G0 Z20.0000
G0 X1872.4397 Y528.1958
G1 X1872.4397 Y528.1958 Z-3.0000 F3000.
G0 Z20.0000
G0 X1872.4397 Y528.1958
M9
M5
M30
(--THE END - THANK YOU FOR USING THIS AWESOME POSTPROCESSOR---)
