(01-01-Cut6mmFlat.nc)
(----------------------------------------------------------------)
( Generated for RhinoCam to export for CNC-STEP models Raptor X-SL3000s20 / T-Rex1215 )
( Postprocessor written at FabLab BCN/IaaC by eduardo.chamorro@iaac.net )
( Last edit : 22 January - 2019 )
(----------------------------------------------------------------)
(Stock Size X = 2500.0000, Y =  1250.0000, Z = 15.0000)
(Home Origin X =  0, Y = 0, Z = 0)
(Units = MM, Spindle Speed = 18000)
(Max cut depth = Z-15.0000)
(Tool dia= 6.0 mm, Tool length= 90.0 mm)(WARNING!-CHECK YOUR TOOL)
(-------------------------------------------------------------)
%
G90
G64
M7
M8
T1
S20000
M3
G0 Z10.0000
G0 X120.5975 Y316.1128
G1 X120.5975 Y316.1128 Z-1.8600 F3000.
G1 X120.5975 Y316.1128 Z-2.4600
G1 X120.5975 Y312.7100 Z-3.0600
G1 X120.6095 Y312.7104 Z-3.0600 F4000.
G2 X123.6095 Y315.7018 I3.0000 J-0.0086
G1 X212.0856 Y315.7018 Z-3.0600
G2 X215.0975 Y312.7100 I-0.0086 J-3.0206
G1 X215.0975 Y321.9937 Z-3.0600
G1 X215.0856 Y321.9933 Z-3.0600
G2 X212.0856 Y319.0018 I-3.0000 J0.0085
G1 X123.6095 Y319.0018 Z-3.0600
G2 X120.5975 Y321.9937 I0.0085 J3.0206
G1 X120.5975 Y312.7100 Z-3.0600
G1 X120.5975 Y312.7100 Z-6.1200
G1 X120.6095 Y312.7104 Z-6.1200
G2 X123.6095 Y315.7018 I3.0000 J-0.0086
G1 X212.0856 Y315.7018 Z-6.1200
G2 X215.0975 Y312.7100 I-0.0086 J-3.0206
G1 X215.0975 Y321.9937 Z-6.1200
G1 X215.0856 Y321.9933 Z-6.1200
G2 X212.0856 Y319.0018 I-3.0000 J0.0085
G1 X123.6095 Y319.0018 Z-6.1200
G2 X120.5975 Y321.9937 I0.0085 J3.0206
G1 X120.5975 Y312.7100 Z-6.1200
G1 X120.5975 Y312.7100 Z-9.1800
G1 X120.6095 Y312.7104 Z-9.1800
G2 X123.6095 Y315.7018 I3.0000 J-0.0086
G1 X212.0856 Y315.7018 Z-9.1800
G2 X215.0975 Y312.7100 I-0.0086 J-3.0206
G1 X215.0975 Y321.9937 Z-9.1800
G1 X215.0856 Y321.9933 Z-9.1800
G2 X212.0856 Y319.0018 I-3.0000 J0.0085
G1 X123.6095 Y319.0018 Z-9.1800
G2 X120.5975 Y321.9937 I0.0085 J3.0206
G1 X120.5975 Y312.7100 Z-9.1800
G1 X120.5975 Y312.7100 Z-12.2400
G1 X120.6095 Y312.7104 Z-12.2400
G2 X123.6095 Y315.7018 I3.0000 J-0.0086
G1 X212.0856 Y315.7018 Z-12.2400
G2 X215.0975 Y312.7100 I-0.0086 J-3.0206
G1 X215.0975 Y321.9937 Z-12.2400
G1 X215.0856 Y321.9933 Z-12.2400
G2 X212.0856 Y319.0018 I-3.0000 J0.0085
G1 X123.6095 Y319.0018 Z-12.2400
G2 X120.5975 Y321.9937 I0.0085 J3.0206
G1 X120.5975 Y312.7100 Z-12.2400
G1 X120.5975 Y312.7100 Z-15.3000
G1 X120.6095 Y312.7104 Z-15.3000
G2 X123.6095 Y315.7018 I3.0000 J-0.0086
G1 X212.0856 Y315.7018 Z-15.3000
G2 X215.0975 Y312.7100 I-0.0086 J-3.0206
G1 X215.0975 Y321.9937 Z-15.3000
G1 X215.0856 Y321.9933 Z-15.3000
G2 X212.0856 Y319.0018 I-3.0000 J0.0085
G1 X123.6095 Y319.0018 Z-15.3000
G2 X120.5975 Y321.9937 I0.0085 J3.0206
G1 X120.5975 Y312.7100 Z-15.3000
G1 X120.5975 Y312.7100 Z-14.7000
G0 Z10.0000
G0 X120.5975 Y312.7100
G0 Z10.0000
G0 X316.6085 Y514.6018
G1 X316.6085 Y514.6018 Z-1.8600 F3000.
G1 X316.6085 Y514.6018 Z-2.4600
G1 X313.2057 Y514.6018 Z-3.0600
G1 X313.2060 Y514.5899 Z-3.0600 F4000.
G2 X316.1975 Y511.5899 I-0.0085 J-3.0000
G1 X316.1975 Y423.1138 Z-3.0600
G2 X313.2057 Y420.1018 I-3.0206 J0.0085
G1 X322.4894 Y420.1018 Z-3.0600
G1 X322.4890 Y420.1138 Z-3.0600
G2 X319.4975 Y423.1138 I0.0085 J3.0000
G1 X319.4975 Y511.5899 Z-3.0600
G2 X322.4894 Y514.6018 I3.0206 J-0.0085
G1 X313.2057 Y514.6018 Z-3.0600
G1 X313.2057 Y514.6018 Z-6.1200
G1 X313.2060 Y514.5899 Z-6.1200
G2 X316.1975 Y511.5899 I-0.0085 J-3.0000
G1 X316.1975 Y423.1138 Z-6.1200
G2 X313.2057 Y420.1018 I-3.0206 J0.0085
G1 X322.4894 Y420.1018 Z-6.1200
G1 X322.4890 Y420.1138 Z-6.1200
G2 X319.4975 Y423.1138 I0.0085 J3.0000
G1 X319.4975 Y511.5899 Z-6.1200
G2 X322.4894 Y514.6018 I3.0206 J-0.0085
G1 X313.2057 Y514.6018 Z-6.1200
G1 X313.2057 Y514.6018 Z-9.1800
G1 X313.2060 Y514.5899 Z-9.1800
G2 X316.1975 Y511.5899 I-0.0085 J-3.0000
G1 X316.1975 Y423.1138 Z-9.1800
G2 X313.2057 Y420.1018 I-3.0206 J0.0085
G1 X322.4894 Y420.1018 Z-9.1800
G1 X322.4890 Y420.1138 Z-9.1800
G2 X319.4975 Y423.1138 I0.0085 J3.0000
G1 X319.4975 Y511.5899 Z-9.1800
G2 X322.4894 Y514.6018 I3.0206 J-0.0085
G1 X313.2057 Y514.6018 Z-9.1800
G1 X313.2057 Y514.6018 Z-12.2400
G1 X313.2060 Y514.5899 Z-12.2400
G2 X316.1975 Y511.5899 I-0.0085 J-3.0000
G1 X316.1975 Y423.1138 Z-12.2400
G2 X313.2057 Y420.1018 I-3.0206 J0.0085
G1 X322.4894 Y420.1018 Z-12.2400
G1 X322.4890 Y420.1138 Z-12.2400
G2 X319.4975 Y423.1138 I0.0085 J3.0000
G1 X319.4975 Y511.5899 Z-12.2400
G2 X322.4894 Y514.6018 I3.0206 J-0.0085
G1 X313.2057 Y514.6018 Z-12.2400
G1 X313.2057 Y514.6018 Z-15.3000
G1 X313.2060 Y514.5899 Z-15.3000
G2 X316.1975 Y511.5899 I-0.0085 J-3.0000
G1 X316.1975 Y423.1138 Z-15.3000
G2 X313.2057 Y420.1018 I-3.0206 J0.0085
G1 X322.4894 Y420.1018 Z-15.3000
G1 X322.4890 Y420.1138 Z-15.3000
G2 X319.4975 Y423.1138 I0.0085 J3.0000
G1 X319.4975 Y511.5899 Z-15.3000
G2 X322.4894 Y514.6018 I3.0206 J-0.0085
G1 X313.2057 Y514.6018 Z-15.3000
G1 X313.2057 Y514.6018 Z-14.7000
G0 Z10.0000
G0 X313.2057 Y514.6018
G0 Z10.0000
G0 X319.0866 Y732.1018
G1 X319.0866 Y732.1018 Z-1.8600 F3000.
G1 X319.0866 Y732.1018 Z-2.4600
G1 X322.4894 Y732.1018 Z-3.0600
G1 X322.4890 Y732.1138 Z-3.0600 F4000.
G2 X319.4975 Y735.1138 I0.0085 J3.0000
G1 X319.4975 Y823.5899 Z-3.0600
G2 X322.4894 Y826.6018 I3.0206 J-0.0085
G1 X313.2057 Y826.6018 Z-3.0600
G1 X313.2060 Y826.5899 Z-3.0600
G2 X316.1975 Y823.5899 I-0.0085 J-3.0000
G1 X316.1975 Y735.1138 Z-3.0600
G2 X313.2057 Y732.1018 I-3.0206 J0.0085
G1 X322.4894 Y732.1018 Z-3.0600
G1 X322.4894 Y732.1018 Z-6.1200
G1 X322.4890 Y732.1138 Z-6.1200
G2 X319.4975 Y735.1138 I0.0085 J3.0000
G1 X319.4975 Y823.5899 Z-6.1200
G2 X322.4894 Y826.6018 I3.0206 J-0.0085
G1 X313.2057 Y826.6018 Z-6.1200
G1 X313.2060 Y826.5899 Z-6.1200
G2 X316.1975 Y823.5899 I-0.0085 J-3.0000
G1 X316.1975 Y735.1138 Z-6.1200
G2 X313.2057 Y732.1018 I-3.0206 J0.0085
G1 X322.4894 Y732.1018 Z-6.1200
G1 X322.4894 Y732.1018 Z-9.1800
G1 X322.4890 Y732.1138 Z-9.1800
G2 X319.4975 Y735.1138 I0.0085 J3.0000
G1 X319.4975 Y823.5899 Z-9.1800
G2 X322.4894 Y826.6018 I3.0206 J-0.0085
G1 X313.2057 Y826.6018 Z-9.1800
G1 X313.2060 Y826.5899 Z-9.1800
G2 X316.1975 Y823.5899 I-0.0085 J-3.0000
G1 X316.1975 Y735.1138 Z-9.1800
G2 X313.2057 Y732.1018 I-3.0206 J0.0085
G1 X322.4894 Y732.1018 Z-9.1800
G1 X322.4894 Y732.1018 Z-12.2400
G1 X322.4890 Y732.1138 Z-12.2400
G2 X319.4975 Y735.1138 I0.0085 J3.0000
G1 X319.4975 Y823.5899 Z-12.2400
G2 X322.4894 Y826.6018 I3.0206 J-0.0085
G1 X313.2057 Y826.6018 Z-12.2400
G1 X313.2060 Y826.5899 Z-12.2400
G2 X316.1975 Y823.5899 I-0.0085 J-3.0000
G1 X316.1975 Y735.1138 Z-12.2400
G2 X313.2057 Y732.1018 I-3.0206 J0.0085
G1 X322.4894 Y732.1018 Z-12.2400
G1 X322.4894 Y732.1018 Z-15.3000
G1 X322.4890 Y732.1138 Z-15.3000
G2 X319.4975 Y735.1138 I0.0085 J3.0000
G1 X319.4975 Y823.5899 Z-15.3000
G2 X322.4894 Y826.6018 I3.0206 J-0.0085
G1 X313.2057 Y826.6018 Z-15.3000
G1 X313.2060 Y826.5899 Z-15.3000
G2 X316.1975 Y823.5899 I-0.0085 J-3.0000
G1 X316.1975 Y735.1138 Z-15.3000
G2 X313.2057 Y732.1018 I-3.0206 J0.0085
G1 X322.4894 Y732.1018 Z-15.3000
G1 X322.4894 Y732.1018 Z-14.7000
G0 Z10.0000
G0 X322.4894 Y732.1018
G0 Z10.0000
G0 X515.0975 Y930.5909
G1 X515.0975 Y930.5909 Z-1.8600 F3000.
G1 X515.0975 Y930.5909 Z-2.4600
G1 X515.0975 Y933.9937 Z-3.0600
G1 X515.0856 Y933.9933 Z-3.0600 F4000.
G2 X512.0856 Y931.0018 I-3.0000 J0.0085
G1 X423.6095 Y931.0018 Z-3.0600
G2 X420.5975 Y933.9937 I0.0085 J3.0206
G1 X420.5975 Y924.7100 Z-3.0600
G1 X420.6095 Y924.7104 Z-3.0600
G2 X423.6095 Y927.7018 I3.0000 J-0.0086
G1 X512.0856 Y927.7018 Z-3.0600
G2 X515.0975 Y924.7100 I-0.0086 J-3.0206
G1 X515.0975 Y933.9937 Z-3.0600
G1 X515.0975 Y933.9937 Z-6.1200
G1 X515.0856 Y933.9933 Z-6.1200
G2 X512.0856 Y931.0018 I-3.0000 J0.0085
G1 X423.6095 Y931.0018 Z-6.1200
G2 X420.5975 Y933.9937 I0.0085 J3.0206
G1 X420.5975 Y924.7100 Z-6.1200
G1 X420.6095 Y924.7104 Z-6.1200
G2 X423.6095 Y927.7018 I3.0000 J-0.0086
G1 X512.0856 Y927.7018 Z-6.1200
G2 X515.0975 Y924.7100 I-0.0086 J-3.0206
G1 X515.0975 Y933.9937 Z-6.1200
G1 X515.0975 Y933.9937 Z-9.1800
G1 X515.0856 Y933.9933 Z-9.1800
G2 X512.0856 Y931.0018 I-3.0000 J0.0085
G1 X423.6095 Y931.0018 Z-9.1800
G2 X420.5975 Y933.9937 I0.0085 J3.0206
G1 X420.5975 Y924.7100 Z-9.1800
G1 X420.6095 Y924.7104 Z-9.1800
G2 X423.6095 Y927.7018 I3.0000 J-0.0086
G1 X512.0856 Y927.7018 Z-9.1800
G2 X515.0975 Y924.7100 I-0.0086 J-3.0206
G1 X515.0975 Y933.9937 Z-9.1800
G1 X515.0975 Y933.9937 Z-12.2400
G1 X515.0856 Y933.9933 Z-12.2400
G2 X512.0856 Y931.0018 I-3.0000 J0.0085
G1 X423.6095 Y931.0018 Z-12.2400
G2 X420.5975 Y933.9937 I0.0085 J3.0206
G1 X420.5975 Y924.7100 Z-12.2400
G1 X420.6095 Y924.7104 Z-12.2400
G2 X423.6095 Y927.7018 I3.0000 J-0.0086
G1 X512.0856 Y927.7018 Z-12.2400
G2 X515.0975 Y924.7100 I-0.0086 J-3.0206
G1 X515.0975 Y933.9937 Z-12.2400
G1 X515.0975 Y933.9937 Z-15.3000
G1 X515.0856 Y933.9933 Z-15.3000
G2 X512.0856 Y931.0018 I-3.0000 J0.0085
G1 X423.6095 Y931.0018 Z-15.3000
G2 X420.5975 Y933.9937 I0.0085 J3.0206
G1 X420.5975 Y924.7100 Z-15.3000
G1 X420.6095 Y924.7104 Z-15.3000
G2 X423.6095 Y927.7018 I3.0000 J-0.0086
G1 X512.0856 Y927.7018 Z-15.3000
G2 X515.0975 Y924.7100 I-0.0086 J-3.0206
G1 X515.0975 Y933.9937 Z-15.3000
G1 X515.0975 Y933.9937 Z-14.7000
G0 Z10.0000
G0 X515.0975 Y933.9937
G0 Z10.0000
G0 X736.8099 Y928.1128
G1 X736.8099 Y928.1128 Z-1.8600 F3000.
G1 X736.8099 Y928.1128 Z-2.4600
G1 X736.8099 Y924.7100 Z-3.0600
G1 X736.8218 Y924.7104 Z-3.0600 F4000.
G2 X739.8218 Y927.7018 I3.0000 J-0.0086
G1 X828.2979 Y927.7018 Z-3.0600
G2 X831.3099 Y924.7100 I-0.0085 J-3.0206
G1 X831.3099 Y933.9937 Z-3.0600
G1 X831.2979 Y933.9933 Z-3.0600
G2 X828.2979 Y931.0018 I-3.0000 J0.0085
G1 X739.8218 Y931.0018 Z-3.0600
G2 X736.8099 Y933.9937 I0.0086 J3.0206
G1 X736.8099 Y924.7100 Z-3.0600
G1 X736.8099 Y924.7100 Z-6.1200
G1 X736.8218 Y924.7104 Z-6.1200
G2 X739.8218 Y927.7018 I3.0000 J-0.0086
G1 X828.2979 Y927.7018 Z-6.1200
G2 X831.3099 Y924.7100 I-0.0085 J-3.0206
G1 X831.3099 Y933.9937 Z-6.1200
G1 X831.2979 Y933.9933 Z-6.1200
G2 X828.2979 Y931.0018 I-3.0000 J0.0085
G1 X739.8218 Y931.0018 Z-6.1200
G2 X736.8099 Y933.9937 I0.0086 J3.0206
G1 X736.8099 Y924.7100 Z-6.1200
G1 X736.8099 Y924.7100 Z-9.1800
G1 X736.8218 Y924.7104 Z-9.1800
G2 X739.8218 Y927.7018 I3.0000 J-0.0086
G1 X828.2979 Y927.7018 Z-9.1800
G2 X831.3099 Y924.7100 I-0.0085 J-3.0206
G1 X831.3099 Y933.9937 Z-9.1800
G1 X831.2979 Y933.9933 Z-9.1800
G2 X828.2979 Y931.0018 I-3.0000 J0.0085
G1 X739.8218 Y931.0018 Z-9.1800
G2 X736.8099 Y933.9937 I0.0086 J3.0206
G1 X736.8099 Y924.7100 Z-9.1800
G1 X736.8099 Y924.7100 Z-12.2400
G1 X736.8218 Y924.7104 Z-12.2400
G2 X739.8218 Y927.7018 I3.0000 J-0.0086
G1 X828.2979 Y927.7018 Z-12.2400
G2 X831.3099 Y924.7100 I-0.0085 J-3.0206
G1 X831.3099 Y933.9937 Z-12.2400
G1 X831.2979 Y933.9933 Z-12.2400
G2 X828.2979 Y931.0018 I-3.0000 J0.0085
G1 X739.8218 Y931.0018 Z-12.2400
G2 X736.8099 Y933.9937 I0.0086 J3.0206
G1 X736.8099 Y924.7100 Z-12.2400
G1 X736.8099 Y924.7100 Z-15.3000
G1 X736.8218 Y924.7104 Z-15.3000
G2 X739.8218 Y927.7018 I3.0000 J-0.0086
G1 X828.2979 Y927.7018 Z-15.3000
G2 X831.3099 Y924.7100 I-0.0085 J-3.0206
G1 X831.3099 Y933.9937 Z-15.3000
G1 X831.2979 Y933.9933 Z-15.3000
G2 X828.2979 Y931.0018 I-3.0000 J0.0085
G1 X739.8218 Y931.0018 Z-15.3000
G2 X736.8099 Y933.9937 I0.0086 J3.0206
G1 X736.8099 Y924.7100 Z-15.3000
G1 X736.8099 Y924.7100 Z-14.7000
G0 Z10.0000
G0 X736.8099 Y924.7100
G0 Z10.0000
G0 X935.2989 Y732.1018
G1 X935.2989 Y732.1018 Z-1.8600 F3000.
G1 X935.2989 Y732.1018 Z-2.4600
G1 X938.7017 Y732.1018 Z-3.0600
G1 X938.7014 Y732.1138 Z-3.0600 F4000.
G2 X935.7099 Y735.1138 I0.0085 J3.0000
G1 X935.7099 Y823.5899 Z-3.0600
G2 X938.7017 Y826.6018 I3.0206 J-0.0085
G1 X929.4180 Y826.6018 Z-3.0600
G1 X929.4184 Y826.5899 Z-3.0600
G2 X932.4099 Y823.5899 I-0.0085 J-3.0000
G1 X932.4099 Y735.1138 Z-3.0600
G2 X929.4180 Y732.1018 I-3.0206 J0.0085
G1 X938.7017 Y732.1018 Z-3.0600
G1 X938.7017 Y732.1018 Z-6.1200
G1 X938.7014 Y732.1138 Z-6.1200
G2 X935.7099 Y735.1138 I0.0085 J3.0000
G1 X935.7099 Y823.5899 Z-6.1200
G2 X938.7017 Y826.6018 I3.0206 J-0.0085
G1 X929.4180 Y826.6018 Z-6.1200
G1 X929.4184 Y826.5899 Z-6.1200
G2 X932.4099 Y823.5899 I-0.0085 J-3.0000
G1 X932.4099 Y735.1138 Z-6.1200
G2 X929.4180 Y732.1018 I-3.0206 J0.0085
G1 X938.7017 Y732.1018 Z-6.1200
G1 X938.7017 Y732.1018 Z-9.1800
G1 X938.7014 Y732.1138 Z-9.1800
G2 X935.7099 Y735.1138 I0.0085 J3.0000
G1 X935.7099 Y823.5899 Z-9.1800
G2 X938.7017 Y826.6018 I3.0206 J-0.0085
G1 X929.4180 Y826.6018 Z-9.1800
G1 X929.4184 Y826.5899 Z-9.1800
G2 X932.4099 Y823.5899 I-0.0085 J-3.0000
G1 X932.4099 Y735.1138 Z-9.1800
G2 X929.4180 Y732.1018 I-3.0206 J0.0085
G1 X938.7017 Y732.1018 Z-9.1800
G1 X938.7017 Y732.1018 Z-12.2400
G1 X938.7014 Y732.1138 Z-12.2400
G2 X935.7099 Y735.1138 I0.0085 J3.0000
G1 X935.7099 Y823.5899 Z-12.2400
G2 X938.7017 Y826.6018 I3.0206 J-0.0085
G1 X929.4180 Y826.6018 Z-12.2400
G1 X929.4184 Y826.5899 Z-12.2400
G2 X932.4099 Y823.5899 I-0.0085 J-3.0000
G1 X932.4099 Y735.1138 Z-12.2400
G2 X929.4180 Y732.1018 I-3.0206 J0.0085
G1 X938.7017 Y732.1018 Z-12.2400
G1 X938.7017 Y732.1018 Z-15.3000
G1 X938.7014 Y732.1138 Z-15.3000
G2 X935.7099 Y735.1138 I0.0085 J3.0000
G1 X935.7099 Y823.5899 Z-15.3000
G2 X938.7017 Y826.6018 I3.0206 J-0.0085
G1 X929.4180 Y826.6018 Z-15.3000
G1 X929.4184 Y826.5899 Z-15.3000
G2 X932.4099 Y823.5899 I-0.0085 J-3.0000
G1 X932.4099 Y735.1138 Z-15.3000
G2 X929.4180 Y732.1018 I-3.0206 J0.0085
G1 X938.7017 Y732.1018 Z-15.3000
G1 X938.7017 Y732.1018 Z-14.7000
G0 Z10.0000
G0 X938.7017 Y732.1018
G0 Z10.0000
G0 X932.8208 Y514.6018
G1 X932.8208 Y514.6018 Z-1.8600 F3000.
G1 X932.8208 Y514.6018 Z-2.4600
G1 X929.4180 Y514.6018 Z-3.0600
G1 X929.4184 Y514.5899 Z-3.0600 F4000.
G2 X932.4099 Y511.5899 I-0.0085 J-3.0000
G1 X932.4099 Y423.1138 Z-3.0600
G2 X929.4180 Y420.1018 I-3.0206 J0.0085
G1 X938.7017 Y420.1018 Z-3.0600
G1 X938.7014 Y420.1138 Z-3.0600
G2 X935.7099 Y423.1138 I0.0085 J3.0000
G1 X935.7099 Y511.5899 Z-3.0600
G2 X938.7017 Y514.6018 I3.0206 J-0.0085
G1 X929.4180 Y514.6018 Z-3.0600
G1 X929.4180 Y514.6018 Z-6.1200
G1 X929.4184 Y514.5899 Z-6.1200
G2 X932.4099 Y511.5899 I-0.0085 J-3.0000
G1 X932.4099 Y423.1138 Z-6.1200
G2 X929.4180 Y420.1018 I-3.0206 J0.0085
G1 X938.7017 Y420.1018 Z-6.1200
G1 X938.7014 Y420.1138 Z-6.1200
G2 X935.7099 Y423.1138 I0.0085 J3.0000
G1 X935.7099 Y511.5899 Z-6.1200
G2 X938.7017 Y514.6018 I3.0206 J-0.0085
G1 X929.4180 Y514.6018 Z-6.1200
G1 X929.4180 Y514.6018 Z-9.1800
G1 X929.4184 Y514.5899 Z-9.1800
G2 X932.4099 Y511.5899 I-0.0085 J-3.0000
G1 X932.4099 Y423.1138 Z-9.1800
G2 X929.4180 Y420.1018 I-3.0206 J0.0085
G1 X938.7017 Y420.1018 Z-9.1800
G1 X938.7014 Y420.1138 Z-9.1800
G2 X935.7099 Y423.1138 I0.0085 J3.0000
G1 X935.7099 Y511.5899 Z-9.1800
G2 X938.7017 Y514.6018 I3.0206 J-0.0085
G1 X929.4180 Y514.6018 Z-9.1800
G1 X929.4180 Y514.6018 Z-12.2400
G1 X929.4184 Y514.5899 Z-12.2400
G2 X932.4099 Y511.5899 I-0.0085 J-3.0000
G1 X932.4099 Y423.1138 Z-12.2400
G2 X929.4180 Y420.1018 I-3.0206 J0.0085
G1 X938.7017 Y420.1018 Z-12.2400
G1 X938.7014 Y420.1138 Z-12.2400
G2 X935.7099 Y423.1138 I0.0085 J3.0000
G1 X935.7099 Y511.5899 Z-12.2400
G2 X938.7017 Y514.6018 I3.0206 J-0.0085
G1 X929.4180 Y514.6018 Z-12.2400
G1 X929.4180 Y514.6018 Z-15.3000
G1 X929.4184 Y514.5899 Z-15.3000
G2 X932.4099 Y511.5899 I-0.0085 J-3.0000
G1 X932.4099 Y423.1138 Z-15.3000
G2 X929.4180 Y420.1018 I-3.0206 J0.0085
G1 X938.7017 Y420.1018 Z-15.3000
G1 X938.7014 Y420.1138 Z-15.3000
G2 X935.7099 Y423.1138 I0.0085 J3.0000
G1 X935.7099 Y511.5899 Z-15.3000
G2 X938.7017 Y514.6018 I3.0206 J-0.0085
G1 X929.4180 Y514.6018 Z-15.3000
G1 X929.4180 Y514.6018 Z-14.7000
G0 Z10.0000
G0 X929.4180 Y514.6018
G0 Z10.0000
G0 X736.8099 Y316.1128
G1 X736.8099 Y316.1128 Z-1.8600 F3000.
G1 X736.8099 Y316.1128 Z-2.4600
G1 X736.8099 Y312.7100 Z-3.0600
G1 X736.8218 Y312.7104 Z-3.0600 F4000.
G2 X739.8218 Y315.7018 I3.0000 J-0.0086
G1 X828.2979 Y315.7018 Z-3.0600
G2 X831.3099 Y312.7100 I-0.0085 J-3.0206
G1 X831.3099 Y321.9937 Z-3.0600
G1 X831.2979 Y321.9933 Z-3.0600
G2 X828.2979 Y319.0018 I-3.0000 J0.0085
G1 X739.8218 Y319.0018 Z-3.0600
G2 X736.8099 Y321.9937 I0.0086 J3.0206
G1 X736.8099 Y312.7100 Z-3.0600
G1 X736.8099 Y312.7100 Z-6.1200
G1 X736.8218 Y312.7104 Z-6.1200
G2 X739.8218 Y315.7018 I3.0000 J-0.0086
G1 X828.2979 Y315.7018 Z-6.1200
G2 X831.3099 Y312.7100 I-0.0085 J-3.0206
G1 X831.3099 Y321.9937 Z-6.1200
G1 X831.2979 Y321.9933 Z-6.1200
G2 X828.2979 Y319.0018 I-3.0000 J0.0085
G1 X739.8218 Y319.0018 Z-6.1200
G2 X736.8099 Y321.9937 I0.0086 J3.0206
G1 X736.8099 Y312.7100 Z-6.1200
G1 X736.8099 Y312.7100 Z-9.1800
G1 X736.8218 Y312.7104 Z-9.1800
G2 X739.8218 Y315.7018 I3.0000 J-0.0086
G1 X828.2979 Y315.7018 Z-9.1800
G2 X831.3099 Y312.7100 I-0.0085 J-3.0206
G1 X831.3099 Y321.9937 Z-9.1800
G1 X831.2979 Y321.9933 Z-9.1800
G2 X828.2979 Y319.0018 I-3.0000 J0.0085
G1 X739.8218 Y319.0018 Z-9.1800
G2 X736.8099 Y321.9937 I0.0086 J3.0206
G1 X736.8099 Y312.7100 Z-9.1800
G1 X736.8099 Y312.7100 Z-12.2400
G1 X736.8218 Y312.7104 Z-12.2400
G2 X739.8218 Y315.7018 I3.0000 J-0.0086
G1 X828.2979 Y315.7018 Z-12.2400
G2 X831.3099 Y312.7100 I-0.0085 J-3.0206
G1 X831.3099 Y321.9937 Z-12.2400
G1 X831.2979 Y321.9933 Z-12.2400
G2 X828.2979 Y319.0018 I-3.0000 J0.0085
G1 X739.8218 Y319.0018 Z-12.2400
G2 X736.8099 Y321.9937 I0.0086 J3.0206
G1 X736.8099 Y312.7100 Z-12.2400
G1 X736.8099 Y312.7100 Z-15.3000
G1 X736.8218 Y312.7104 Z-15.3000
G2 X739.8218 Y315.7018 I3.0000 J-0.0086
G1 X828.2979 Y315.7018 Z-15.3000
G2 X831.3099 Y312.7100 I-0.0085 J-3.0206
G1 X831.3099 Y321.9937 Z-15.3000
G1 X831.2979 Y321.9933 Z-15.3000
G2 X828.2979 Y319.0018 I-3.0000 J0.0085
G1 X739.8218 Y319.0018 Z-15.3000
G2 X736.8099 Y321.9937 I0.0086 J3.0206
G1 X736.8099 Y312.7100 Z-15.3000
G1 X736.8099 Y312.7100 Z-14.7000
G0 Z10.0000
G0 X736.8099 Y312.7100
G0 Z10.0000
G0 X515.0975 Y318.5909
G1 X515.0975 Y318.5909 Z-1.8600 F3000.
G1 X515.0975 Y318.5909 Z-2.4600
G1 X515.0975 Y321.9937 Z-3.0600
G1 X515.0856 Y321.9933 Z-3.0600 F4000.
G2 X512.0856 Y319.0018 I-3.0000 J0.0085
G1 X423.6095 Y319.0018 Z-3.0600
G2 X420.5975 Y321.9937 I0.0085 J3.0206
G1 X420.5975 Y312.7100 Z-3.0600
G1 X420.6095 Y312.7104 Z-3.0600
G2 X423.6095 Y315.7018 I3.0000 J-0.0086
G1 X512.0856 Y315.7018 Z-3.0600
G2 X515.0975 Y312.7100 I-0.0086 J-3.0206
G1 X515.0975 Y321.9937 Z-3.0600
G1 X515.0975 Y321.9937 Z-6.1200
G1 X515.0856 Y321.9933 Z-6.1200
G2 X512.0856 Y319.0018 I-3.0000 J0.0085
G1 X423.6095 Y319.0018 Z-6.1200
G2 X420.5975 Y321.9937 I0.0085 J3.0206
G1 X420.5975 Y312.7100 Z-6.1200
G1 X420.6095 Y312.7104 Z-6.1200
G2 X423.6095 Y315.7018 I3.0000 J-0.0086
G1 X512.0856 Y315.7018 Z-6.1200
G2 X515.0975 Y312.7100 I-0.0086 J-3.0206
G1 X515.0975 Y321.9937 Z-6.1200
G1 X515.0975 Y321.9937 Z-9.1800
G1 X515.0856 Y321.9933 Z-9.1800
G2 X512.0856 Y319.0018 I-3.0000 J0.0085
G1 X423.6095 Y319.0018 Z-9.1800
G2 X420.5975 Y321.9937 I0.0085 J3.0206
G1 X420.5975 Y312.7100 Z-9.1800
G1 X420.6095 Y312.7104 Z-9.1800
G2 X423.6095 Y315.7018 I3.0000 J-0.0086
G1 X512.0856 Y315.7018 Z-9.1800
G2 X515.0975 Y312.7100 I-0.0086 J-3.0206
G1 X515.0975 Y321.9937 Z-9.1800
G1 X515.0975 Y321.9937 Z-12.2400
G1 X515.0856 Y321.9933 Z-12.2400
G2 X512.0856 Y319.0018 I-3.0000 J0.0085
G1 X423.6095 Y319.0018 Z-12.2400
G2 X420.5975 Y321.9937 I0.0085 J3.0206
G1 X420.5975 Y312.7100 Z-12.2400
G1 X420.6095 Y312.7104 Z-12.2400
G2 X423.6095 Y315.7018 I3.0000 J-0.0086
G1 X512.0856 Y315.7018 Z-12.2400
G2 X515.0975 Y312.7100 I-0.0086 J-3.0206
G1 X515.0975 Y321.9937 Z-12.2400
G1 X515.0975 Y321.9937 Z-15.3000
G1 X515.0856 Y321.9933 Z-15.3000
G2 X512.0856 Y319.0018 I-3.0000 J0.0085
G1 X423.6095 Y319.0018 Z-15.3000
G2 X420.5975 Y321.9937 I0.0085 J3.0206
G1 X420.5975 Y312.7100 Z-15.3000
G1 X420.6095 Y312.7104 Z-15.3000
G2 X423.6095 Y315.7018 I3.0000 J-0.0086
G1 X512.0856 Y315.7018 Z-15.3000
G2 X515.0975 Y312.7100 I-0.0086 J-3.0206
G1 X515.0975 Y321.9937 Z-15.3000
G1 X515.0975 Y321.9937 Z-14.7000
G0 Z10.0000
G0 X515.0975 Y321.9937
G0 Z10.0000
G0 X319.0866 Y120.1018
G1 X319.0866 Y120.1018 Z-1.8600 F3000.
G1 X319.0866 Y120.1018 Z-2.4600
G1 X322.4894 Y120.1018 Z-3.0600
G1 X322.4890 Y120.1138 Z-3.0600 F4000.
G2 X319.4975 Y123.1138 I0.0085 J3.0000
G1 X319.4975 Y211.5899 Z-3.0600
G2 X322.4894 Y214.6018 I3.0206 J-0.0085
G1 X313.2057 Y214.6018 Z-3.0600
G1 X313.2060 Y214.5899 Z-3.0600
G2 X316.1975 Y211.5899 I-0.0085 J-3.0000
G1 X316.1975 Y123.1138 Z-3.0600
G2 X313.2057 Y120.1018 I-3.0206 J0.0085
G1 X322.4894 Y120.1018 Z-3.0600
G1 X322.4894 Y120.1018 Z-6.1200
G1 X322.4890 Y120.1138 Z-6.1200
G2 X319.4975 Y123.1138 I0.0085 J3.0000
G1 X319.4975 Y211.5899 Z-6.1200
G2 X322.4894 Y214.6018 I3.0206 J-0.0085
G1 X313.2057 Y214.6018 Z-6.1200
G1 X313.2060 Y214.5899 Z-6.1200
G2 X316.1975 Y211.5899 I-0.0085 J-3.0000
G1 X316.1975 Y123.1138 Z-6.1200
G2 X313.2057 Y120.1018 I-3.0206 J0.0085
G1 X322.4894 Y120.1018 Z-6.1200
G1 X322.4894 Y120.1018 Z-9.1800
G1 X322.4890 Y120.1138 Z-9.1800
G2 X319.4975 Y123.1138 I0.0085 J3.0000
G1 X319.4975 Y211.5899 Z-9.1800
G2 X322.4894 Y214.6018 I3.0206 J-0.0085
G1 X313.2057 Y214.6018 Z-9.1800
G1 X313.2060 Y214.5899 Z-9.1800
G2 X316.1975 Y211.5899 I-0.0085 J-3.0000
G1 X316.1975 Y123.1138 Z-9.1800
G2 X313.2057 Y120.1018 I-3.0206 J0.0085
G1 X322.4894 Y120.1018 Z-9.1800
G1 X322.4894 Y120.1018 Z-12.2400
G1 X322.4890 Y120.1138 Z-12.2400
G2 X319.4975 Y123.1138 I0.0085 J3.0000
G1 X319.4975 Y211.5899 Z-12.2400
G2 X322.4894 Y214.6018 I3.0206 J-0.0085
G1 X313.2057 Y214.6018 Z-12.2400
G1 X313.2060 Y214.5899 Z-12.2400
G2 X316.1975 Y211.5899 I-0.0085 J-3.0000
G1 X316.1975 Y123.1138 Z-12.2400
G2 X313.2057 Y120.1018 I-3.0206 J0.0085
G1 X322.4894 Y120.1018 Z-12.2400
G1 X322.4894 Y120.1018 Z-15.3000
G1 X322.4890 Y120.1138 Z-15.3000
G2 X319.4975 Y123.1138 I0.0085 J3.0000
G1 X319.4975 Y211.5899 Z-15.3000
G2 X322.4894 Y214.6018 I3.0206 J-0.0085
G1 X313.2057 Y214.6018 Z-15.3000
G1 X313.2060 Y214.5899 Z-15.3000
G2 X316.1975 Y211.5899 I-0.0085 J-3.0000
G1 X316.1975 Y123.1138 Z-15.3000
G2 X313.2057 Y120.1018 I-3.0206 J0.0085
G1 X322.4894 Y120.1018 Z-15.3000
G1 X322.4894 Y120.1018 Z-14.7000
G0 Z10.0000
G0 X322.4894 Y120.1018
G0 Z10.0000
G0 X935.2989 Y120.1018
G1 X935.2989 Y120.1018 Z-1.8600 F3000.
G1 X935.2989 Y120.1018 Z-2.4600
G1 X938.7017 Y120.1018 Z-3.0600
G1 X938.7014 Y120.1138 Z-3.0600 F4000.
G2 X935.7099 Y123.1138 I0.0085 J3.0000
G1 X935.7099 Y211.5899 Z-3.0600
G2 X938.7017 Y214.6018 I3.0206 J-0.0085
G1 X929.4180 Y214.6018 Z-3.0600
G1 X929.4184 Y214.5899 Z-3.0600
G2 X932.4099 Y211.5899 I-0.0085 J-3.0000
G1 X932.4099 Y123.1138 Z-3.0600
G2 X929.4180 Y120.1018 I-3.0206 J0.0085
G1 X938.7017 Y120.1018 Z-3.0600
G1 X938.7017 Y120.1018 Z-6.1200
G1 X938.7014 Y120.1138 Z-6.1200
G2 X935.7099 Y123.1138 I0.0085 J3.0000
G1 X935.7099 Y211.5899 Z-6.1200
G2 X938.7017 Y214.6018 I3.0206 J-0.0085
G1 X929.4180 Y214.6018 Z-6.1200
G1 X929.4184 Y214.5899 Z-6.1200
G2 X932.4099 Y211.5899 I-0.0085 J-3.0000
G1 X932.4099 Y123.1138 Z-6.1200
G2 X929.4180 Y120.1018 I-3.0206 J0.0085
G1 X938.7017 Y120.1018 Z-6.1200
G1 X938.7017 Y120.1018 Z-9.1800
G1 X938.7014 Y120.1138 Z-9.1800
G2 X935.7099 Y123.1138 I0.0085 J3.0000
G1 X935.7099 Y211.5899 Z-9.1800
G2 X938.7017 Y214.6018 I3.0206 J-0.0085
G1 X929.4180 Y214.6018 Z-9.1800
G1 X929.4184 Y214.5899 Z-9.1800
G2 X932.4099 Y211.5899 I-0.0085 J-3.0000
G1 X932.4099 Y123.1138 Z-9.1800
G2 X929.4180 Y120.1018 I-3.0206 J0.0085
G1 X938.7017 Y120.1018 Z-9.1800
G1 X938.7017 Y120.1018 Z-12.2400
G1 X938.7014 Y120.1138 Z-12.2400
G2 X935.7099 Y123.1138 I0.0085 J3.0000
G1 X935.7099 Y211.5899 Z-12.2400
G2 X938.7017 Y214.6018 I3.0206 J-0.0085
G1 X929.4180 Y214.6018 Z-12.2400
G1 X929.4184 Y214.5899 Z-12.2400
G2 X932.4099 Y211.5899 I-0.0085 J-3.0000
G1 X932.4099 Y123.1138 Z-12.2400
G2 X929.4180 Y120.1018 I-3.0206 J0.0085
G1 X938.7017 Y120.1018 Z-12.2400
G1 X938.7017 Y120.1018 Z-15.3000
G1 X938.7014 Y120.1138 Z-15.3000
G2 X935.7099 Y123.1138 I0.0085 J3.0000
G1 X935.7099 Y211.5899 Z-15.3000
G2 X938.7017 Y214.6018 I3.0206 J-0.0085
G1 X929.4180 Y214.6018 Z-15.3000
G1 X929.4184 Y214.5899 Z-15.3000
G2 X932.4099 Y211.5899 I-0.0085 J-3.0000
G1 X932.4099 Y123.1138 Z-15.3000
G2 X929.4180 Y120.1018 I-3.0206 J0.0085
G1 X938.7017 Y120.1018 Z-15.3000
G1 X938.7017 Y120.1018 Z-14.7000
G0 Z10.0000
G0 X938.7017 Y120.1018
G0 Z10.0000
G0 X1131.3099 Y318.5909
G1 X1131.3099 Y318.5909 Z-1.8600 F3000.
G1 X1131.3099 Y318.5909 Z-2.4600
G1 X1131.3099 Y321.9937 Z-3.0600
G1 X1131.2979 Y321.9933 Z-3.0600 F4000.
G2 X1128.2979 Y319.0018 I-3.0000 J0.0085
G1 X1039.8218 Y319.0018 Z-3.0600
G2 X1036.8099 Y321.9937 I0.0086 J3.0206
G1 X1036.8099 Y312.7100 Z-3.0600
G1 X1036.8218 Y312.7104 Z-3.0600
G2 X1039.8218 Y315.7018 I3.0000 J-0.0086
G1 X1128.2979 Y315.7018 Z-3.0600
G2 X1131.3099 Y312.7100 I-0.0085 J-3.0206
G1 X1131.3099 Y321.9937 Z-3.0600
G1 X1131.3099 Y321.9937 Z-6.1200
G1 X1131.2979 Y321.9933 Z-6.1200
G2 X1128.2979 Y319.0018 I-3.0000 J0.0085
G1 X1039.8218 Y319.0018 Z-6.1200
G2 X1036.8099 Y321.9937 I0.0086 J3.0206
G1 X1036.8099 Y312.7100 Z-6.1200
G1 X1036.8218 Y312.7104 Z-6.1200
G2 X1039.8218 Y315.7018 I3.0000 J-0.0086
G1 X1128.2979 Y315.7018 Z-6.1200
G2 X1131.3099 Y312.7100 I-0.0085 J-3.0206
G1 X1131.3099 Y321.9937 Z-6.1200
G1 X1131.3099 Y321.9937 Z-9.1800
G1 X1131.2979 Y321.9933 Z-9.1800
G2 X1128.2979 Y319.0018 I-3.0000 J0.0085
G1 X1039.8218 Y319.0018 Z-9.1800
G2 X1036.8099 Y321.9937 I0.0086 J3.0206
G1 X1036.8099 Y312.7100 Z-9.1800
G1 X1036.8218 Y312.7104 Z-9.1800
G2 X1039.8218 Y315.7018 I3.0000 J-0.0086
G1 X1128.2979 Y315.7018 Z-9.1800
G2 X1131.3099 Y312.7100 I-0.0085 J-3.0206
G1 X1131.3099 Y321.9937 Z-9.1800
G1 X1131.3099 Y321.9937 Z-12.2400
G1 X1131.2979 Y321.9933 Z-12.2400
G2 X1128.2979 Y319.0018 I-3.0000 J0.0085
G1 X1039.8218 Y319.0018 Z-12.2400
G2 X1036.8099 Y321.9937 I0.0086 J3.0206
G1 X1036.8099 Y312.7100 Z-12.2400
G1 X1036.8218 Y312.7104 Z-12.2400
G2 X1039.8218 Y315.7018 I3.0000 J-0.0086
G1 X1128.2979 Y315.7018 Z-12.2400
G2 X1131.3099 Y312.7100 I-0.0085 J-3.0206
G1 X1131.3099 Y321.9937 Z-12.2400
G1 X1131.3099 Y321.9937 Z-15.3000
G1 X1131.2979 Y321.9933 Z-15.3000
G2 X1128.2979 Y319.0018 I-3.0000 J0.0085
G1 X1039.8218 Y319.0018 Z-15.3000
G2 X1036.8099 Y321.9937 I0.0086 J3.0206
G1 X1036.8099 Y312.7100 Z-15.3000
G1 X1036.8218 Y312.7104 Z-15.3000
G2 X1039.8218 Y315.7018 I3.0000 J-0.0086
G1 X1128.2979 Y315.7018 Z-15.3000
G2 X1131.3099 Y312.7100 I-0.0085 J-3.0206
G1 X1131.3099 Y321.9937 Z-15.3000
G1 X1131.3099 Y321.9937 Z-14.7000
G0 Z10.0000
G0 X1131.3099 Y321.9937
G0 Z10.0000
G0 X1358.6959 Y314.8182
G1 X1358.6959 Y314.8182 Z-1.8600 F3000.
G1 X1358.6959 Y314.8182 Z-2.4600
G1 X1358.6959 Y311.4154 Z-3.0600
G1 X1358.7079 Y311.4158 Z-3.0600 F4000.
G2 X1361.7079 Y314.4073 I3.0000 J-0.0085
G1 X1450.1840 Y314.4073 Z-3.0600
G2 X1453.1959 Y311.4154 I-0.0086 J-3.0206
G1 X1453.1959 Y320.6991 Z-3.0600
G1 X1453.1839 Y320.6988 Z-3.0600
G2 X1450.1840 Y317.7073 I-2.9999 J0.0085
G1 X1361.7079 Y317.7073 Z-3.0600
G2 X1358.6959 Y320.6991 I0.0085 J3.0206
G1 X1358.6959 Y311.4154 Z-3.0600
G1 X1358.6959 Y311.4154 Z-6.1200
G1 X1358.7079 Y311.4158 Z-6.1200
G2 X1361.7079 Y314.4073 I3.0000 J-0.0085
G1 X1450.1840 Y314.4073 Z-6.1200
G2 X1453.1959 Y311.4154 I-0.0086 J-3.0206
G1 X1453.1959 Y320.6991 Z-6.1200
G1 X1453.1839 Y320.6988 Z-6.1200
G2 X1450.1840 Y317.7073 I-2.9999 J0.0085
G1 X1361.7079 Y317.7073 Z-6.1200
G2 X1358.6959 Y320.6991 I0.0085 J3.0206
G1 X1358.6959 Y311.4154 Z-6.1200
G1 X1358.6959 Y311.4154 Z-9.1800
G1 X1358.7079 Y311.4158 Z-9.1800
G2 X1361.7079 Y314.4073 I3.0000 J-0.0085
G1 X1450.1840 Y314.4073 Z-9.1800
G2 X1453.1959 Y311.4154 I-0.0086 J-3.0206
G1 X1453.1959 Y320.6991 Z-9.1800
G1 X1453.1839 Y320.6988 Z-9.1800
G2 X1450.1840 Y317.7073 I-2.9999 J0.0085
G1 X1361.7079 Y317.7073 Z-9.1800
G2 X1358.6959 Y320.6991 I0.0085 J3.0206
G1 X1358.6959 Y311.4154 Z-9.1800
G1 X1358.6959 Y311.4154 Z-12.2400
G1 X1358.7079 Y311.4158 Z-12.2400
G2 X1361.7079 Y314.4073 I3.0000 J-0.0085
G1 X1450.1840 Y314.4073 Z-12.2400
G2 X1453.1959 Y311.4154 I-0.0086 J-3.0206
G1 X1453.1959 Y320.6991 Z-12.2400
G1 X1453.1839 Y320.6988 Z-12.2400
G2 X1450.1840 Y317.7073 I-2.9999 J0.0085
G1 X1361.7079 Y317.7073 Z-12.2400
G2 X1358.6959 Y320.6991 I0.0085 J3.0206
G1 X1358.6959 Y311.4154 Z-12.2400
G1 X1358.6959 Y311.4154 Z-15.3000
G1 X1358.7079 Y311.4158 Z-15.3000
G2 X1361.7079 Y314.4073 I3.0000 J-0.0085
G1 X1450.1840 Y314.4073 Z-15.3000
G2 X1453.1959 Y311.4154 I-0.0086 J-3.0206
G1 X1453.1959 Y320.6991 Z-15.3000
G1 X1453.1839 Y320.6988 Z-15.3000
G2 X1450.1840 Y317.7073 I-2.9999 J0.0085
G1 X1361.7079 Y317.7073 Z-15.3000
G2 X1358.6959 Y320.6991 I0.0085 J3.0206
G1 X1358.6959 Y311.4154 Z-15.3000
G1 X1358.6959 Y311.4154 Z-14.7000
G0 Z10.0000
G0 X1358.6959 Y311.4154
G0 Z10.0000
G0 X1557.1850 Y118.8073
G1 X1557.1850 Y118.8073 Z-1.8600 F3000.
G1 X1557.1850 Y118.8073 Z-2.4600
G1 X1560.5878 Y118.8073 Z-3.0600
G1 X1560.5874 Y118.8193 Z-3.0600 F4000.
G2 X1557.5959 Y121.8192 I0.0085 J2.9999
G1 X1557.5959 Y210.2953 Z-3.0600
G2 X1560.5878 Y213.3073 I3.0206 J-0.0085
G1 X1551.3041 Y213.3073 Z-3.0600
G1 X1551.3044 Y213.2953 Z-3.0600
G2 X1554.2959 Y210.2953 I-0.0085 J-3.0000
G1 X1554.2959 Y121.8192 Z-3.0600
G2 X1551.3041 Y118.8073 I-3.0206 J0.0086
G1 X1560.5878 Y118.8073 Z-3.0600
G1 X1560.5878 Y118.8073 Z-6.1200
G1 X1560.5874 Y118.8193 Z-6.1200
G2 X1557.5959 Y121.8192 I0.0085 J2.9999
G1 X1557.5959 Y210.2953 Z-6.1200
G2 X1560.5878 Y213.3073 I3.0206 J-0.0085
G1 X1551.3041 Y213.3073 Z-6.1200
G1 X1551.3044 Y213.2953 Z-6.1200
G2 X1554.2959 Y210.2953 I-0.0085 J-3.0000
G1 X1554.2959 Y121.8192 Z-6.1200
G2 X1551.3041 Y118.8073 I-3.0206 J0.0086
G1 X1560.5878 Y118.8073 Z-6.1200
G1 X1560.5878 Y118.8073 Z-9.1800
G1 X1560.5874 Y118.8193 Z-9.1800
G2 X1557.5959 Y121.8192 I0.0085 J2.9999
G1 X1557.5959 Y210.2953 Z-9.1800
G2 X1560.5878 Y213.3073 I3.0206 J-0.0085
G1 X1551.3041 Y213.3073 Z-9.1800
G1 X1551.3044 Y213.2953 Z-9.1800
G2 X1554.2959 Y210.2953 I-0.0085 J-3.0000
G1 X1554.2959 Y121.8192 Z-9.1800
G2 X1551.3041 Y118.8073 I-3.0206 J0.0086
G1 X1560.5878 Y118.8073 Z-9.1800
G1 X1560.5878 Y118.8073 Z-12.2400
G1 X1560.5874 Y118.8193 Z-12.2400
G2 X1557.5959 Y121.8192 I0.0085 J2.9999
G1 X1557.5959 Y210.2953 Z-12.2400
G2 X1560.5878 Y213.3073 I3.0206 J-0.0085
G1 X1551.3041 Y213.3073 Z-12.2400
G1 X1551.3044 Y213.2953 Z-12.2400
G2 X1554.2959 Y210.2953 I-0.0085 J-3.0000
G1 X1554.2959 Y121.8192 Z-12.2400
G2 X1551.3041 Y118.8073 I-3.0206 J0.0086
G1 X1560.5878 Y118.8073 Z-12.2400
G1 X1560.5878 Y118.8073 Z-15.3000
G1 X1560.5874 Y118.8193 Z-15.3000
G2 X1557.5959 Y121.8192 I0.0085 J2.9999
G1 X1557.5959 Y210.2953 Z-15.3000
G2 X1560.5878 Y213.3073 I3.0206 J-0.0085
G1 X1551.3041 Y213.3073 Z-15.3000
G1 X1551.3044 Y213.2953 Z-15.3000
G2 X1554.2959 Y210.2953 I-0.0085 J-3.0000
G1 X1554.2959 Y121.8192 Z-15.3000
G2 X1551.3041 Y118.8073 I-3.0206 J0.0086
G1 X1560.5878 Y118.8073 Z-15.3000
G1 X1560.5878 Y118.8073 Z-14.7000
G0 Z10.0000
G0 X1560.5878 Y118.8073
G0 Z10.0000
G0 X1649.4122 Y237.4524
G1 X1649.4122 Y237.4524 Z-1.8600 F3000.
G1 X1649.4122 Y237.4524 Z-2.4600
G1 X1649.2562 Y237.5424 Z-2.4918
G1 X1649.1771 Y237.5681 Z-2.5064
G1 X1648.5567 Y237.6333 Z-2.6164
G1 X1648.4740 Y237.6246 Z-2.6311
G1 X1647.8808 Y237.4319 Z-2.7411
G1 X1647.8088 Y237.3903 Z-2.7557
G1 X1647.3453 Y236.9730 Z-2.8657
G1 X1647.2964 Y236.9057 Z-2.8804
G1 X1647.0427 Y236.3359 Z-2.9903
G1 X1647.0254 Y236.2545 Z-3.0050
G1 X1647.0254 Y235.9426 Z-3.0600
G1 X1648.4926 Y235.9426 Z-3.0600
G3 X1648.8926 Y235.9426 I0.2000 J0.0000 F4000.
G3 X1648.4926 Y235.9426 I-0.2000 J0.0000
G1 X1646.0926 Y235.9426 Z-3.0600
G3 X1651.2926 Y235.9426 I2.6000 J0.0000
G3 X1646.0926 Y235.9426 I-2.6000 J0.0000
G1 X1643.6926 Y235.9426 Z-3.0600
G3 X1653.6926 Y235.9426 I5.0000 J0.0000
G3 X1643.6926 Y235.9426 I-5.0000 J0.0000
G1 X1641.2926 Y235.9426 Z-3.0600
G3 X1656.0926 Y235.9426 I7.4000 J0.0000
G3 X1641.2926 Y235.9426 I-7.4000 J0.0000
G1 X1638.8926 Y235.9426 Z-3.0600
G3 X1658.4926 Y235.9426 I9.8000 J0.0000
G3 X1638.8926 Y235.9426 I-9.8000 J0.0000
G1 X1636.4926 Y235.9426 Z-3.0600
G3 X1660.8926 Y235.9426 I12.2000 J0.0000
G3 X1636.4926 Y235.9426 I-12.2000 J0.0000
G1 X1634.0926 Y235.9426 Z-3.0600
G3 X1663.2926 Y235.9426 I14.6000 J0.0000
G3 X1634.0926 Y235.9426 I-14.6000 J0.0000
G1 X1631.6926 Y235.9426 Z-3.0600
G3 X1665.6926 Y235.9426 I17.0000 J0.0000
G3 X1631.6926 Y235.9426 I-17.0000 J0.0000
G0 Z10.0000
G0 X1631.6926 Y235.9426
G0 Z10.0000
G0 X1648.4926 Y235.9426
G1 X1648.4926 Y235.9426 Z-6.1200 F3000.
G3 X1648.8926 Y235.9426 I0.2000 J0.0000 F4000.
G3 X1648.4926 Y235.9426 I-0.2000 J0.0000
G1 X1646.0926 Y235.9426 Z-6.1200
G3 X1651.2926 Y235.9426 I2.6000 J0.0000
G3 X1646.0926 Y235.9426 I-2.6000 J0.0000
G1 X1643.6926 Y235.9426 Z-6.1200
G3 X1653.6926 Y235.9426 I5.0000 J0.0000
G3 X1643.6926 Y235.9426 I-5.0000 J0.0000
G1 X1641.2926 Y235.9426 Z-6.1200
G3 X1656.0926 Y235.9426 I7.4000 J0.0000
G3 X1641.2926 Y235.9426 I-7.4000 J0.0000
G1 X1638.8926 Y235.9426 Z-6.1200
G3 X1658.4926 Y235.9426 I9.8000 J0.0000
G3 X1638.8926 Y235.9426 I-9.8000 J0.0000
G1 X1636.4926 Y235.9426 Z-6.1200
G3 X1660.8926 Y235.9426 I12.2000 J0.0000
G3 X1636.4926 Y235.9426 I-12.2000 J0.0000
G1 X1634.0926 Y235.9426 Z-6.1200
G3 X1663.2926 Y235.9426 I14.6000 J0.0000
G3 X1634.0926 Y235.9426 I-14.6000 J0.0000
G1 X1631.6926 Y235.9426 Z-6.1200
G3 X1665.6926 Y235.9426 I17.0000 J0.0000
G3 X1631.6926 Y235.9426 I-17.0000 J0.0000
G0 Z10.0000
G0 X1631.6926 Y235.9426
G0 Z10.0000
G0 X1648.4926 Y235.9426
G1 X1648.4926 Y235.9426 Z-9.1800 F3000.
G3 X1648.8926 Y235.9426 I0.2000 J0.0000 F4000.
G3 X1648.4926 Y235.9426 I-0.2000 J0.0000
G1 X1646.0926 Y235.9426 Z-9.1800
G3 X1651.2926 Y235.9426 I2.6000 J0.0000
G3 X1646.0926 Y235.9426 I-2.6000 J0.0000
G1 X1643.6926 Y235.9426 Z-9.1800
G3 X1653.6926 Y235.9426 I5.0000 J0.0000
G3 X1643.6926 Y235.9426 I-5.0000 J0.0000
G1 X1641.2926 Y235.9426 Z-9.1800
G3 X1656.0926 Y235.9426 I7.4000 J0.0000
G3 X1641.2926 Y235.9426 I-7.4000 J0.0000
G1 X1638.8926 Y235.9426 Z-9.1800
G3 X1658.4926 Y235.9426 I9.8000 J0.0000
G3 X1638.8926 Y235.9426 I-9.8000 J0.0000
G1 X1636.4926 Y235.9426 Z-9.1800
G3 X1660.8926 Y235.9426 I12.2000 J0.0000
G3 X1636.4926 Y235.9426 I-12.2000 J0.0000
G1 X1634.0926 Y235.9426 Z-9.1800
G3 X1663.2926 Y235.9426 I14.6000 J0.0000
G3 X1634.0926 Y235.9426 I-14.6000 J0.0000
G1 X1631.6926 Y235.9426 Z-9.1800
G3 X1665.6926 Y235.9426 I17.0000 J0.0000
G3 X1631.6926 Y235.9426 I-17.0000 J0.0000
G0 Z10.0000
G0 X1631.6926 Y235.9426
G0 Z10.0000
G0 X1648.4926 Y235.9426
G1 X1648.4926 Y235.9426 Z-12.2400 F3000.
G3 X1648.8926 Y235.9426 I0.2000 J0.0000 F4000.
G3 X1648.4926 Y235.9426 I-0.2000 J0.0000
G1 X1646.0926 Y235.9426 Z-12.2400
G3 X1651.2926 Y235.9426 I2.6000 J0.0000
G3 X1646.0926 Y235.9426 I-2.6000 J0.0000
G1 X1643.6926 Y235.9426 Z-12.2400
G3 X1653.6926 Y235.9426 I5.0000 J0.0000
G3 X1643.6926 Y235.9426 I-5.0000 J0.0000
G1 X1641.2926 Y235.9426 Z-12.2400
G3 X1656.0926 Y235.9426 I7.4000 J0.0000
G3 X1641.2926 Y235.9426 I-7.4000 J0.0000
G1 X1638.8926 Y235.9426 Z-12.2400
G3 X1658.4926 Y235.9426 I9.8000 J0.0000
G3 X1638.8926 Y235.9426 I-9.8000 J0.0000
G1 X1636.4926 Y235.9426 Z-12.2400
G3 X1660.8926 Y235.9426 I12.2000 J0.0000
G3 X1636.4926 Y235.9426 I-12.2000 J0.0000
G1 X1634.0926 Y235.9426 Z-12.2400
G3 X1663.2926 Y235.9426 I14.6000 J0.0000
G3 X1634.0926 Y235.9426 I-14.6000 J0.0000
G1 X1631.6926 Y235.9426 Z-12.2400
G3 X1665.6926 Y235.9426 I17.0000 J0.0000
G3 X1631.6926 Y235.9426 I-17.0000 J0.0000
G0 Z10.0000
G0 X1631.6926 Y235.9426
G0 Z10.0000
G0 X1648.4926 Y235.9426
G1 X1648.4926 Y235.9426 Z-15.3000 F3000.
G3 X1648.8926 Y235.9426 I0.2000 J0.0000 F4000.
G3 X1648.4926 Y235.9426 I-0.2000 J0.0000
G1 X1646.0926 Y235.9426 Z-15.3000
G3 X1651.2926 Y235.9426 I2.6000 J0.0000
G3 X1646.0926 Y235.9426 I-2.6000 J0.0000
G1 X1643.6926 Y235.9426 Z-15.3000
G3 X1653.6926 Y235.9426 I5.0000 J0.0000
G3 X1643.6926 Y235.9426 I-5.0000 J0.0000
G1 X1641.2926 Y235.9426 Z-15.3000
G3 X1656.0926 Y235.9426 I7.4000 J0.0000
G3 X1641.2926 Y235.9426 I-7.4000 J0.0000
G1 X1638.8926 Y235.9426 Z-15.3000
G3 X1658.4926 Y235.9426 I9.8000 J0.0000
G3 X1638.8926 Y235.9426 I-9.8000 J0.0000
G1 X1636.4926 Y235.9426 Z-15.3000
G3 X1660.8926 Y235.9426 I12.2000 J0.0000
G3 X1636.4926 Y235.9426 I-12.2000 J0.0000
G1 X1634.0926 Y235.9426 Z-15.3000
G3 X1663.2926 Y235.9426 I14.6000 J0.0000
G3 X1634.0926 Y235.9426 I-14.6000 J0.0000
G1 X1631.6926 Y235.9426 Z-15.3000
G3 X1665.6926 Y235.9426 I17.0000 J0.0000
G3 X1631.6926 Y235.9426 I-17.0000 J0.0000
G1 X1632.2230 Y236.8612 Z-14.2393
G1 X1632.2230 Y236.8612 Z-13.6393
G0 Z10.0000
G0 X1632.2230 Y236.8612
G0 Z10.0000
G0 X1717.2731 Y182.1507
G1 X1717.2731 Y182.1507 Z-1.8600 F3000.
G1 X1717.2731 Y182.1507 Z-2.4600
G1 X1717.6480 Y182.1304 Z-2.5262
G1 X1718.0748 Y182.2003 Z-2.6025
G1 X1718.4765 Y182.3604 Z-2.6787
G1 X1718.8345 Y182.6031 Z-2.7550
G1 X1719.1319 Y182.9171 Z-2.8312
G1 X1719.3549 Y183.2876 Z-2.9075
G1 X1719.4929 Y183.6975 Z-2.9837
G1 X1719.5397 Y184.1274 Z-3.0600
G3 X1715.5397 Y184.1274 I-2.0000 J0.0000 F4000.
G3 X1719.5397 Y184.1274 I2.0000 J0.0000
G1 X1719.5397 Y184.1274 Z-6.1200
G3 X1715.5397 Y184.1274 I-2.0000 J0.0000
G3 X1719.5397 Y184.1274 I2.0000 J0.0000
G1 X1719.5397 Y184.1274 Z-9.1800
G3 X1715.5397 Y184.1274 I-2.0000 J0.0000
G3 X1719.5397 Y184.1274 I2.0000 J0.0000
G1 X1719.5397 Y184.1274 Z-12.2400
G3 X1715.5397 Y184.1274 I-2.0000 J0.0000
G3 X1719.5397 Y184.1274 I2.0000 J0.0000
G1 X1719.5397 Y184.1274 Z-15.3000
G3 X1715.5397 Y184.1274 I-2.0000 J0.0000
G3 X1719.5397 Y184.1274 I2.0000 J0.0000
G1 X1718.6211 Y183.5971 Z-14.2393
G1 X1718.6211 Y183.5971 Z-13.6393
G0 Z10.0000
G0 X1718.6211 Y183.5971
G0 Z10.0000
G0 X1753.1959 Y317.2964
G1 X1753.1959 Y317.2964 Z-1.8600 F3000.
G1 X1753.1959 Y317.2964 Z-2.4600
G1 X1753.1959 Y320.6991 Z-3.0600
G1 X1753.1839 Y320.6988 Z-3.0600 F4000.
G2 X1750.1840 Y317.7073 I-2.9999 J0.0085
G1 X1661.7079 Y317.7073 Z-3.0600
G2 X1658.6959 Y320.6991 I0.0085 J3.0206
G1 X1658.6959 Y311.4154 Z-3.0600
G1 X1658.7079 Y311.4158 Z-3.0600
G2 X1661.7079 Y314.4073 I3.0000 J-0.0085
G1 X1750.1840 Y314.4073 Z-3.0600
G2 X1753.1959 Y311.4154 I-0.0086 J-3.0206
G1 X1753.1959 Y320.6991 Z-3.0600
G1 X1753.1959 Y320.6991 Z-6.1200
G1 X1753.1839 Y320.6988 Z-6.1200
G2 X1750.1840 Y317.7073 I-2.9999 J0.0085
G1 X1661.7079 Y317.7073 Z-6.1200
G2 X1658.6959 Y320.6991 I0.0085 J3.0206
G1 X1658.6959 Y311.4154 Z-6.1200
G1 X1658.7079 Y311.4158 Z-6.1200
G2 X1661.7079 Y314.4073 I3.0000 J-0.0085
G1 X1750.1840 Y314.4073 Z-6.1200
G2 X1753.1959 Y311.4154 I-0.0086 J-3.0206
G1 X1753.1959 Y320.6991 Z-6.1200
G1 X1753.1959 Y320.6991 Z-9.1800
G1 X1753.1839 Y320.6988 Z-9.1800
G2 X1750.1840 Y317.7073 I-2.9999 J0.0085
G1 X1661.7079 Y317.7073 Z-9.1800
G2 X1658.6959 Y320.6991 I0.0085 J3.0206
G1 X1658.6959 Y311.4154 Z-9.1800
G1 X1658.7079 Y311.4158 Z-9.1800
G2 X1661.7079 Y314.4073 I3.0000 J-0.0085
G1 X1750.1840 Y314.4073 Z-9.1800
G2 X1753.1959 Y311.4154 I-0.0086 J-3.0206
G1 X1753.1959 Y320.6991 Z-9.1800
G1 X1753.1959 Y320.6991 Z-12.2400
G1 X1753.1839 Y320.6988 Z-12.2400
G2 X1750.1840 Y317.7073 I-2.9999 J0.0085
G1 X1661.7079 Y317.7073 Z-12.2400
G2 X1658.6959 Y320.6991 I0.0085 J3.0206
G1 X1658.6959 Y311.4154 Z-12.2400
G1 X1658.7079 Y311.4158 Z-12.2400
G2 X1661.7079 Y314.4073 I3.0000 J-0.0085
G1 X1750.1840 Y314.4073 Z-12.2400
G2 X1753.1959 Y311.4154 I-0.0086 J-3.0206
G1 X1753.1959 Y320.6991 Z-12.2400
G1 X1753.1959 Y320.6991 Z-15.3000
G1 X1753.1839 Y320.6988 Z-15.3000
G2 X1750.1840 Y317.7073 I-2.9999 J0.0085
G1 X1661.7079 Y317.7073 Z-15.3000
G2 X1658.6959 Y320.6991 I0.0085 J3.0206
G1 X1658.6959 Y311.4154 Z-15.3000
G1 X1658.7079 Y311.4158 Z-15.3000
G2 X1661.7079 Y314.4073 I3.0000 J-0.0085
G1 X1750.1840 Y314.4073 Z-15.3000
G2 X1753.1959 Y311.4154 I-0.0086 J-3.0206
G1 X1753.1959 Y320.6991 Z-15.3000
G1 X1753.1959 Y320.6991 Z-14.7000
G0 Z10.0000
G0 X1753.1959 Y320.6991
G0 Z10.0000
G0 X1554.7068 Y513.3073
G1 X1554.7068 Y513.3073 Z-1.8600 F3000.
G1 X1554.7068 Y513.3073 Z-2.4600
G1 X1551.3041 Y513.3073 Z-3.0600
G1 X1551.3044 Y513.2953 Z-3.0600 F4000.
G2 X1554.2959 Y510.2953 I-0.0085 J-3.0000
G1 X1554.2959 Y421.8192 Z-3.0600
G2 X1551.3041 Y418.8073 I-3.0206 J0.0086
G1 X1560.5878 Y418.8073 Z-3.0600
G1 X1560.5874 Y418.8193 Z-3.0600
G2 X1557.5959 Y421.8192 I0.0085 J2.9999
G1 X1557.5959 Y510.2953 Z-3.0600
G2 X1560.5878 Y513.3073 I3.0206 J-0.0085
G1 X1551.3041 Y513.3073 Z-3.0600
G1 X1551.3041 Y513.3073 Z-6.1200
G1 X1551.3044 Y513.2953 Z-6.1200
G2 X1554.2959 Y510.2953 I-0.0085 J-3.0000
G1 X1554.2959 Y421.8192 Z-6.1200
G2 X1551.3041 Y418.8073 I-3.0206 J0.0086
G1 X1560.5878 Y418.8073 Z-6.1200
G1 X1560.5874 Y418.8193 Z-6.1200
G2 X1557.5959 Y421.8192 I0.0085 J2.9999
G1 X1557.5959 Y510.2953 Z-6.1200
G2 X1560.5878 Y513.3073 I3.0206 J-0.0085
G1 X1551.3041 Y513.3073 Z-6.1200
G1 X1551.3041 Y513.3073 Z-9.1800
G1 X1551.3044 Y513.2953 Z-9.1800
G2 X1554.2959 Y510.2953 I-0.0085 J-3.0000
G1 X1554.2959 Y421.8192 Z-9.1800
G2 X1551.3041 Y418.8073 I-3.0206 J0.0086
G1 X1560.5878 Y418.8073 Z-9.1800
G1 X1560.5874 Y418.8193 Z-9.1800
G2 X1557.5959 Y421.8192 I0.0085 J2.9999
G1 X1557.5959 Y510.2953 Z-9.1800
G2 X1560.5878 Y513.3073 I3.0206 J-0.0085
G1 X1551.3041 Y513.3073 Z-9.1800
G1 X1551.3041 Y513.3073 Z-12.2400
G1 X1551.3044 Y513.2953 Z-12.2400
G2 X1554.2959 Y510.2953 I-0.0085 J-3.0000
G1 X1554.2959 Y421.8192 Z-12.2400
G2 X1551.3041 Y418.8073 I-3.0206 J0.0086
G1 X1560.5878 Y418.8073 Z-12.2400
G1 X1560.5874 Y418.8193 Z-12.2400
G2 X1557.5959 Y421.8192 I0.0085 J2.9999
G1 X1557.5959 Y510.2953 Z-12.2400
G2 X1560.5878 Y513.3073 I3.0206 J-0.0085
G1 X1551.3041 Y513.3073 Z-12.2400
G1 X1551.3041 Y513.3073 Z-15.3000
G1 X1551.3044 Y513.2953 Z-15.3000
G2 X1554.2959 Y510.2953 I-0.0085 J-3.0000
G1 X1554.2959 Y421.8192 Z-15.3000
G2 X1551.3041 Y418.8073 I-3.0206 J0.0086
G1 X1560.5878 Y418.8073 Z-15.3000
G1 X1560.5874 Y418.8193 Z-15.3000
G2 X1557.5959 Y421.8192 I0.0085 J2.9999
G1 X1557.5959 Y510.2953 Z-15.3000
G2 X1560.5878 Y513.3073 I3.0206 J-0.0085
G1 X1551.3041 Y513.3073 Z-15.3000
G1 X1551.3041 Y513.3073 Z-14.7000
G0 Z10.0000
G0 X1551.3041 Y513.3073
G0 Z10.0000
G0 X1131.3099 Y930.5909
G1 X1131.3099 Y930.5909 Z-1.8600 F3000.
G1 X1131.3099 Y930.5909 Z-2.4600
G1 X1131.3099 Y933.9937 Z-3.0600
G1 X1131.2979 Y933.9933 Z-3.0600 F4000.
G2 X1128.2979 Y931.0018 I-3.0000 J0.0085
G1 X1039.8218 Y931.0018 Z-3.0600
G2 X1036.8099 Y933.9937 I0.0086 J3.0206
G1 X1036.8099 Y924.7100 Z-3.0600
G1 X1036.8218 Y924.7104 Z-3.0600
G2 X1039.8218 Y927.7018 I3.0000 J-0.0086
G1 X1128.2979 Y927.7018 Z-3.0600
G2 X1131.3099 Y924.7100 I-0.0085 J-3.0206
G1 X1131.3099 Y933.9937 Z-3.0600
G1 X1131.3099 Y933.9937 Z-6.1200
G1 X1131.2979 Y933.9933 Z-6.1200
G2 X1128.2979 Y931.0018 I-3.0000 J0.0085
G1 X1039.8218 Y931.0018 Z-6.1200
G2 X1036.8099 Y933.9937 I0.0086 J3.0206
G1 X1036.8099 Y924.7100 Z-6.1200
G1 X1036.8218 Y924.7104 Z-6.1200
G2 X1039.8218 Y927.7018 I3.0000 J-0.0086
G1 X1128.2979 Y927.7018 Z-6.1200
G2 X1131.3099 Y924.7100 I-0.0085 J-3.0206
G1 X1131.3099 Y933.9937 Z-6.1200
G1 X1131.3099 Y933.9937 Z-9.1800
G1 X1131.2979 Y933.9933 Z-9.1800
G2 X1128.2979 Y931.0018 I-3.0000 J0.0085
G1 X1039.8218 Y931.0018 Z-9.1800
G2 X1036.8099 Y933.9937 I0.0086 J3.0206
G1 X1036.8099 Y924.7100 Z-9.1800
G1 X1036.8218 Y924.7104 Z-9.1800
G2 X1039.8218 Y927.7018 I3.0000 J-0.0086
G1 X1128.2979 Y927.7018 Z-9.1800
G2 X1131.3099 Y924.7100 I-0.0085 J-3.0206
G1 X1131.3099 Y933.9937 Z-9.1800
G1 X1131.3099 Y933.9937 Z-12.2400
G1 X1131.2979 Y933.9933 Z-12.2400
G2 X1128.2979 Y931.0018 I-3.0000 J0.0085
G1 X1039.8218 Y931.0018 Z-12.2400
G2 X1036.8099 Y933.9937 I0.0086 J3.0206
G1 X1036.8099 Y924.7100 Z-12.2400
G1 X1036.8218 Y924.7104 Z-12.2400
G2 X1039.8218 Y927.7018 I3.0000 J-0.0086
G1 X1128.2979 Y927.7018 Z-12.2400
G2 X1131.3099 Y924.7100 I-0.0085 J-3.0206
G1 X1131.3099 Y933.9937 Z-12.2400
G1 X1131.3099 Y933.9937 Z-15.3000
G1 X1131.2979 Y933.9933 Z-15.3000
G2 X1128.2979 Y931.0018 I-3.0000 J0.0085
G1 X1039.8218 Y931.0018 Z-15.3000
G2 X1036.8099 Y933.9937 I0.0086 J3.0206
G1 X1036.8099 Y924.7100 Z-15.3000
G1 X1036.8218 Y924.7104 Z-15.3000
G2 X1039.8218 Y927.7018 I3.0000 J-0.0086
G1 X1128.2979 Y927.7018 Z-15.3000
G2 X1131.3099 Y924.7100 I-0.0085 J-3.0206
G1 X1131.3099 Y933.9937 Z-15.3000
G1 X1131.3099 Y933.9937 Z-14.7000
G0 Z10.0000
G0 X1131.3099 Y933.9937
G0 Z10.0000
G0 X932.8208 Y1126.6018
G1 X932.8208 Y1126.6018 Z-1.8600 F3000.
G1 X932.8208 Y1126.6018 Z-2.4600
G1 X929.4180 Y1126.6018 Z-3.0600
G1 X929.4184 Y1126.5899 Z-3.0600 F4000.
G2 X932.4099 Y1123.5899 I-0.0085 J-3.0000
G1 X932.4099 Y1035.1138 Z-3.0600
G2 X929.4180 Y1032.1018 I-3.0206 J0.0085
G1 X938.7017 Y1032.1018 Z-3.0600
G1 X938.7014 Y1032.1138 Z-3.0600
G2 X935.7099 Y1035.1138 I0.0085 J3.0000
G1 X935.7099 Y1123.5899 Z-3.0600
G2 X938.7017 Y1126.6018 I3.0206 J-0.0085
G1 X929.4180 Y1126.6018 Z-3.0600
G1 X929.4180 Y1126.6018 Z-6.1200
G1 X929.4184 Y1126.5899 Z-6.1200
G2 X932.4099 Y1123.5899 I-0.0085 J-3.0000
G1 X932.4099 Y1035.1138 Z-6.1200
G2 X929.4180 Y1032.1018 I-3.0206 J0.0085
G1 X938.7017 Y1032.1018 Z-6.1200
G1 X938.7014 Y1032.1138 Z-6.1200
G2 X935.7099 Y1035.1138 I0.0085 J3.0000
G1 X935.7099 Y1123.5899 Z-6.1200
G2 X938.7017 Y1126.6018 I3.0206 J-0.0085
G1 X929.4180 Y1126.6018 Z-6.1200
G1 X929.4180 Y1126.6018 Z-9.1800
G1 X929.4184 Y1126.5899 Z-9.1800
G2 X932.4099 Y1123.5899 I-0.0085 J-3.0000
G1 X932.4099 Y1035.1138 Z-9.1800
G2 X929.4180 Y1032.1018 I-3.0206 J0.0085
G1 X938.7017 Y1032.1018 Z-9.1800
G1 X938.7014 Y1032.1138 Z-9.1800
G2 X935.7099 Y1035.1138 I0.0085 J3.0000
G1 X935.7099 Y1123.5899 Z-9.1800
G2 X938.7017 Y1126.6018 I3.0206 J-0.0085
G1 X929.4180 Y1126.6018 Z-9.1800
G1 X929.4180 Y1126.6018 Z-12.2400
G1 X929.4184 Y1126.5899 Z-12.2400
G2 X932.4099 Y1123.5899 I-0.0085 J-3.0000
G1 X932.4099 Y1035.1138 Z-12.2400
G2 X929.4180 Y1032.1018 I-3.0206 J0.0085
G1 X938.7017 Y1032.1018 Z-12.2400
G1 X938.7014 Y1032.1138 Z-12.2400
G2 X935.7099 Y1035.1138 I0.0085 J3.0000
G1 X935.7099 Y1123.5899 Z-12.2400
G2 X938.7017 Y1126.6018 I3.0206 J-0.0085
G1 X929.4180 Y1126.6018 Z-12.2400
G1 X929.4180 Y1126.6018 Z-15.3000
G1 X929.4184 Y1126.5899 Z-15.3000
G2 X932.4099 Y1123.5899 I-0.0085 J-3.0000
G1 X932.4099 Y1035.1138 Z-15.3000
G2 X929.4180 Y1032.1018 I-3.0206 J0.0085
G1 X938.7017 Y1032.1018 Z-15.3000
G1 X938.7014 Y1032.1138 Z-15.3000
G2 X935.7099 Y1035.1138 I0.0085 J3.0000
G1 X935.7099 Y1123.5899 Z-15.3000
G2 X938.7017 Y1126.6018 I3.0206 J-0.0085
G1 X929.4180 Y1126.6018 Z-15.3000
G1 X929.4180 Y1126.6018 Z-14.7000
G0 Z10.0000
G0 X929.4180 Y1126.6018
G0 Z10.0000
G0 X316.6085 Y1126.6018
G1 X316.6085 Y1126.6018 Z-1.8600 F3000.
G1 X316.6085 Y1126.6018 Z-2.4600
G1 X313.2057 Y1126.6018 Z-3.0600
G1 X313.2060 Y1126.5899 Z-3.0600 F4000.
G2 X316.1975 Y1123.5899 I-0.0085 J-3.0000
G1 X316.1975 Y1035.1138 Z-3.0600
G2 X313.2057 Y1032.1018 I-3.0206 J0.0085
G1 X322.4894 Y1032.1018 Z-3.0600
G1 X322.4890 Y1032.1138 Z-3.0600
G2 X319.4975 Y1035.1138 I0.0085 J3.0000
G1 X319.4975 Y1123.5899 Z-3.0600
G2 X322.4894 Y1126.6018 I3.0206 J-0.0085
G1 X313.2057 Y1126.6018 Z-3.0600
G1 X313.2057 Y1126.6018 Z-6.1200
G1 X313.2060 Y1126.5899 Z-6.1200
G2 X316.1975 Y1123.5899 I-0.0085 J-3.0000
G1 X316.1975 Y1035.1138 Z-6.1200
G2 X313.2057 Y1032.1018 I-3.0206 J0.0085
G1 X322.4894 Y1032.1018 Z-6.1200
G1 X322.4890 Y1032.1138 Z-6.1200
G2 X319.4975 Y1035.1138 I0.0085 J3.0000
G1 X319.4975 Y1123.5899 Z-6.1200
G2 X322.4894 Y1126.6018 I3.0206 J-0.0085
G1 X313.2057 Y1126.6018 Z-6.1200
G1 X313.2057 Y1126.6018 Z-9.1800
G1 X313.2060 Y1126.5899 Z-9.1800
G2 X316.1975 Y1123.5899 I-0.0085 J-3.0000
G1 X316.1975 Y1035.1138 Z-9.1800
G2 X313.2057 Y1032.1018 I-3.0206 J0.0085
G1 X322.4894 Y1032.1018 Z-9.1800
G1 X322.4890 Y1032.1138 Z-9.1800
G2 X319.4975 Y1035.1138 I0.0085 J3.0000
G1 X319.4975 Y1123.5899 Z-9.1800
G2 X322.4894 Y1126.6018 I3.0206 J-0.0085
G1 X313.2057 Y1126.6018 Z-9.1800
G1 X313.2057 Y1126.6018 Z-12.2400
G1 X313.2060 Y1126.5899 Z-12.2400
G2 X316.1975 Y1123.5899 I-0.0085 J-3.0000
G1 X316.1975 Y1035.1138 Z-12.2400
G2 X313.2057 Y1032.1018 I-3.0206 J0.0085
G1 X322.4894 Y1032.1018 Z-12.2400
G1 X322.4890 Y1032.1138 Z-12.2400
G2 X319.4975 Y1035.1138 I0.0085 J3.0000
G1 X319.4975 Y1123.5899 Z-12.2400
G2 X322.4894 Y1126.6018 I3.0206 J-0.0085
G1 X313.2057 Y1126.6018 Z-12.2400
G1 X313.2057 Y1126.6018 Z-15.3000
G1 X313.2060 Y1126.5899 Z-15.3000
G2 X316.1975 Y1123.5899 I-0.0085 J-3.0000
G1 X316.1975 Y1035.1138 Z-15.3000
G2 X313.2057 Y1032.1018 I-3.0206 J0.0085
G1 X322.4894 Y1032.1018 Z-15.3000
G1 X322.4890 Y1032.1138 Z-15.3000
G2 X319.4975 Y1035.1138 I0.0085 J3.0000
G1 X319.4975 Y1123.5899 Z-15.3000
G2 X322.4894 Y1126.6018 I3.0206 J-0.0085
G1 X313.2057 Y1126.6018 Z-15.3000
G1 X313.2057 Y1126.6018 Z-14.7000
G0 Z10.0000
G0 X313.2057 Y1126.6018
G0 Z10.0000
G0 X120.5975 Y928.1128
G1 X120.5975 Y928.1128 Z-1.8600 F3000.
G1 X120.5975 Y928.1128 Z-2.4600
G1 X120.5975 Y924.7100 Z-3.0600
G1 X120.6095 Y924.7104 Z-3.0600 F4000.
G2 X123.6095 Y927.7018 I3.0000 J-0.0086
G1 X212.0856 Y927.7018 Z-3.0600
G2 X215.0975 Y924.7100 I-0.0086 J-3.0206
G1 X215.0975 Y933.9937 Z-3.0600
G1 X215.0856 Y933.9933 Z-3.0600
G2 X212.0856 Y931.0018 I-3.0000 J0.0085
G1 X123.6095 Y931.0018 Z-3.0600
G2 X120.5975 Y933.9937 I0.0085 J3.0206
G1 X120.5975 Y924.7100 Z-3.0600
G1 X120.5975 Y924.7100 Z-6.1200
G1 X120.6095 Y924.7104 Z-6.1200
G2 X123.6095 Y927.7018 I3.0000 J-0.0086
G1 X212.0856 Y927.7018 Z-6.1200
G2 X215.0975 Y924.7100 I-0.0086 J-3.0206
G1 X215.0975 Y933.9937 Z-6.1200
G1 X215.0856 Y933.9933 Z-6.1200
G2 X212.0856 Y931.0018 I-3.0000 J0.0085
G1 X123.6095 Y931.0018 Z-6.1200
G2 X120.5975 Y933.9937 I0.0085 J3.0206
G1 X120.5975 Y924.7100 Z-6.1200
G1 X120.5975 Y924.7100 Z-9.1800
G1 X120.6095 Y924.7104 Z-9.1800
G2 X123.6095 Y927.7018 I3.0000 J-0.0086
G1 X212.0856 Y927.7018 Z-9.1800
G2 X215.0975 Y924.7100 I-0.0086 J-3.0206
G1 X215.0975 Y933.9937 Z-9.1800
G1 X215.0856 Y933.9933 Z-9.1800
G2 X212.0856 Y931.0018 I-3.0000 J0.0085
G1 X123.6095 Y931.0018 Z-9.1800
G2 X120.5975 Y933.9937 I0.0085 J3.0206
G1 X120.5975 Y924.7100 Z-9.1800
G1 X120.5975 Y924.7100 Z-12.2400
G1 X120.6095 Y924.7104 Z-12.2400
G2 X123.6095 Y927.7018 I3.0000 J-0.0086
G1 X212.0856 Y927.7018 Z-12.2400
G2 X215.0975 Y924.7100 I-0.0086 J-3.0206
G1 X215.0975 Y933.9937 Z-12.2400
G1 X215.0856 Y933.9933 Z-12.2400
G2 X212.0856 Y931.0018 I-3.0000 J0.0085
G1 X123.6095 Y931.0018 Z-12.2400
G2 X120.5975 Y933.9937 I0.0085 J3.0206
G1 X120.5975 Y924.7100 Z-12.2400
G1 X120.5975 Y924.7100 Z-15.3000
G1 X120.6095 Y924.7104 Z-15.3000
G2 X123.6095 Y927.7018 I3.0000 J-0.0086
G1 X212.0856 Y927.7018 Z-15.3000
G2 X215.0975 Y924.7100 I-0.0086 J-3.0206
G1 X215.0975 Y933.9937 Z-15.3000
G1 X215.0856 Y933.9933 Z-15.3000
G2 X212.0856 Y931.0018 I-3.0000 J0.0085
G1 X123.6095 Y931.0018 Z-15.3000
G2 X120.5975 Y933.9937 I0.0085 J3.0206
G1 X120.5975 Y924.7100 Z-15.3000
G1 X120.5975 Y924.7100 Z-14.7000
G0 Z10.0000
G0 X120.5975 Y924.7100
G0 Z20.0000
G0 X989.8410 Y803.5615
G1 X989.8410 Y803.5615 Z-3.0600 F3000.
G3 X1133.8410 Y803.5615 I72.0000 J0.0000 F4000.
G3 X989.8410 Y803.5615 I-72.0000 J0.0000
G1 X989.8410 Y803.5615 Z-6.1200
G3 X1133.8410 Y803.5615 I72.0000 J0.0000
G3 X989.8410 Y803.5615 I-72.0000 J0.0000
G1 X989.8410 Y803.5615 Z-9.1800
G3 X1133.8410 Y803.5615 I72.0000 J0.0000
G3 X989.8410 Y803.5615 I-72.0000 J0.0000
G1 X989.8410 Y803.5615 Z-12.2400
G3 X1133.8410 Y803.5615 I72.0000 J0.0000
G3 X989.8410 Y803.5615 I-72.0000 J0.0000
G1 X989.8410 Y803.5615 Z-15.3000
G3 X1133.8410 Y803.5615 I72.0000 J0.0000
G3 X989.8410 Y803.5615 I-72.0000 J0.0000
G0 Z20.0000
G0 X989.8410 Y803.5615
G0 Z20.0000
G0 X14.8475 Y317.3518
G1 X14.8475 Y317.3518 Z-3.0600 F3000.
G2 X620.8475 Y317.3518 I303.0000 J0.0000 F4000.
G2 X14.8475 Y317.3518 I-303.0000 J0.0000
G1 X14.8475 Y317.3518 Z-6.1200
G2 X620.8475 Y317.3518 I303.0000 J0.0000
G2 X14.8475 Y317.3518 I-303.0000 J0.0000
G1 X14.8475 Y317.3518 Z-9.1800
G2 X620.8475 Y317.3518 I303.0000 J0.0000
G2 X14.8475 Y317.3518 I-303.0000 J0.0000
G1 X14.8475 Y317.3518 Z-12.2400
G1 X14.8609 Y320.1975 Z-12.2400
G1 X14.9010 Y323.0430 Z-12.2400
G1 X14.9678 Y325.8880 Z-12.2400
G1 X15.0613 Y328.7322 Z-12.2400
G1 X15.1816 Y331.5754 Z-12.2400
G1 X15.3285 Y334.4173 Z-12.2400
G1 X15.5021 Y337.2577 Z-12.2400
G1 X15.7024 Y340.0964 Z-12.2400
G1 X15.9293 Y342.9331 Z-12.2400
G1 X16.1829 Y345.7675 Z-12.2400
G1 X16.4631 Y348.5994 Z-12.2400
G1 X16.7698 Y351.4286 Z-12.2400
G1 X17.1032 Y354.2547 Z-12.2400
G1 X17.4630 Y357.0776 Z-12.2400
G1 X17.8493 Y359.8970 Z-12.2400
G1 X18.2622 Y362.7126 Z-12.2400
G1 X18.7014 Y365.5243 Z-12.2400
G1 X19.1670 Y368.3317 Z-12.2400
G1 X19.6590 Y371.1345 Z-12.2400
G1 X20.1772 Y373.9327 Z-12.2400
G1 X20.7218 Y376.7258 Z-12.2400
G1 X21.2925 Y379.5138 Z-12.2400
G1 X21.8894 Y382.2962 Z-12.2400
G1 X22.5124 Y385.0729 Z-12.2400
G1 X23.1614 Y387.8436 Z-12.2400
G1 X23.8365 Y390.6082 Z-12.2400
G1 X24.5374 Y393.3662 Z-12.2400
G1 X25.2643 Y396.1176 Z-12.2400
G1 X26.0169 Y398.8620 Z-12.2400
G1 X26.7953 Y401.5992 Z-12.2400
G1 X27.5994 Y404.3289 Z-12.2400
G1 X28.4291 Y407.0511 Z-12.2400
G1 X29.2843 Y409.7652 Z-12.2400
G1 X30.1649 Y412.4713 Z-12.2400
G1 X31.0709 Y415.1689 Z-12.2400
G1 X32.0023 Y417.8580 Z-12.2400
G1 X32.9588 Y420.5381 Z-12.2400
G1 X33.9405 Y423.2092 Z-12.2400
G1 X34.9472 Y425.8709 Z-12.2400
G1 X35.9788 Y428.5231 Z-12.2400
G1 X37.0354 Y431.1654 Z-12.2400
G1 X38.1167 Y433.7977 Z-12.2400
G1 X39.2226 Y436.4197 Z-12.2400
G1 X40.3532 Y439.0313 Z-12.2400
G1 X41.5082 Y441.6321 Z-12.2400
G1 X42.6876 Y444.2219 Z-12.2400
G1 X43.8913 Y446.8005 Z-12.2400
G1 X45.1191 Y449.3678 Z-12.2400
G1 X46.3710 Y451.9233 Z-12.2400
G1 X47.6468 Y454.4671 Z-12.2400
G1 X48.9465 Y456.9987 Z-12.2400
G1 X50.2699 Y459.5180 Z-12.2400
G1 X51.6169 Y462.0247 Z-12.2400
G1 X52.9874 Y464.5187 Z-12.2400
G1 X54.3812 Y466.9997 Z-12.2400
G1 X55.7983 Y469.4675 Z-12.2400
G1 X57.2385 Y471.9219 Z-12.2400
G1 X58.7016 Y474.3627 Z-12.2400
G1 X60.1877 Y476.7896 Z-12.2400
G1 X61.6965 Y479.2025 Z-12.2400
G1 X63.2278 Y481.6010 Z-12.2400
G1 X64.7816 Y483.9851 Z-12.2400
G1 X66.3578 Y486.3545 Z-12.2400
G1 X67.9561 Y488.7090 Z-12.2400
G1 X69.5765 Y491.0484 Z-12.2400
G1 X71.2187 Y493.3724 Z-12.2400
G1 X72.8828 Y495.6809 Z-12.2400
G1 X74.5684 Y497.9737 Z-12.2400
G1 X76.2755 Y500.2506 Z-12.2400
G1 X78.0039 Y502.5113 Z-12.2400
G1 X79.7534 Y504.7557 Z-12.2400
G1 X81.5240 Y506.9835 Z-12.2400
G1 X83.3154 Y509.1947 Z-12.2400
G1 X85.1275 Y511.3889 Z-12.2400
G1 X86.9601 Y513.5660 Z-12.2400
G1 X88.8131 Y515.7258 Z-12.2400
G1 X90.6862 Y517.8680 Z-12.2400
G1 X92.5795 Y519.9927 Z-12.2400
G1 X94.4926 Y522.0994 Z-12.2400
G1 X96.4253 Y524.1880 Z-12.2400
G1 X98.3777 Y526.2585 Z-12.2400
G1 X100.0482 Y527.9970 Z-12.2400
G1 X100.0482 Y527.9970 Z-11.3000
G2 X104.3501 Y532.3585 I156.9347 J-150.4909
G1 X106.3788 Y534.3541 Z-11.3000
G1 X107.1996 Y535.1464 Z-11.3000
G1 X107.1996 Y535.1464 Z-12.2400
G1 X108.4262 Y536.3306 Z-12.2400
G1 X110.4920 Y538.2878 Z-12.2400
G1 X112.5761 Y540.2255 Z-12.2400
G1 X114.6784 Y542.1435 Z-12.2400
G1 X116.7985 Y544.0417 Z-12.2400
G1 X118.9364 Y545.9199 Z-12.2400
G1 X121.0918 Y547.7779 Z-12.2400
G1 X123.2646 Y549.6157 Z-12.2400
G1 X125.4546 Y551.4329 Z-12.2400
G1 X127.6615 Y553.2295 Z-12.2400
G1 X129.8852 Y555.0053 Z-12.2400
G1 X132.1254 Y556.7601 Z-12.2400
G1 X134.3821 Y558.4938 Z-12.2400
G1 X136.6549 Y560.2062 Z-12.2400
G1 X138.9438 Y561.8972 Z-12.2400
G1 X141.2484 Y563.5667 Z-12.2400
G1 X143.5686 Y565.2144 Z-12.2400
G1 X145.9041 Y566.8402 Z-12.2400
G1 X148.2548 Y568.4441 Z-12.2400
G1 X150.6205 Y570.0258 Z-12.2400
G1 X153.0009 Y571.5852 Z-12.2400
G1 X155.3959 Y573.1222 Z-12.2400
G1 X157.8052 Y574.6366 Z-12.2400
G1 X160.2286 Y576.1284 Z-12.2400
G1 X162.6659 Y577.5973 Z-12.2400
G1 X165.1170 Y579.0432 Z-12.2400
G1 X167.5814 Y580.4661 Z-12.2400
G1 X170.0592 Y581.8657 Z-12.2400
G1 X172.5499 Y583.2421 Z-12.2400
G1 X175.0535 Y584.5949 Z-12.2400
G1 X177.5697 Y585.9242 Z-12.2400
G1 X180.0983 Y587.2299 Z-12.2400
G1 X182.6390 Y588.5117 Z-12.2400
G1 X185.1916 Y589.7696 Z-12.2400
G1 X187.7559 Y591.0034 Z-12.2400
G1 X190.3318 Y592.2131 Z-12.2400
G1 X192.9188 Y593.3986 Z-12.2400
G1 X195.5169 Y594.5597 Z-12.2400
G1 X198.1258 Y595.6964 Z-12.2400
G1 X200.7452 Y596.8085 Z-12.2400
G1 X203.3749 Y597.8960 Z-12.2400
G1 X206.0148 Y598.9587 Z-12.2400
G1 X208.6645 Y599.9966 Z-12.2400
G1 X211.3239 Y601.0096 Z-12.2400
G1 X213.9926 Y601.9975 Z-12.2400
G1 X216.6705 Y602.9603 Z-12.2400
G1 X219.3574 Y603.8980 Z-12.2400
G1 X222.0529 Y604.8103 Z-12.2400
G1 X224.7568 Y605.6973 Z-12.2400
G1 X227.4690 Y606.5589 Z-12.2400
G1 X230.1892 Y607.3950 Z-12.2400
G1 X232.9171 Y608.2054 Z-12.2400
G1 X235.6524 Y608.9903 Z-12.2400
G1 X238.3951 Y609.7494 Z-12.2400
G1 X241.1447 Y610.4827 Z-12.2400
G1 X243.9011 Y611.1901 Z-12.2400
G1 X246.6640 Y611.8716 Z-12.2400
G1 X249.4332 Y612.5272 Z-12.2400
G1 X252.2084 Y613.1567 Z-12.2400
G1 X254.9895 Y613.7601 Z-12.2400
G1 X257.7760 Y614.3374 Z-12.2400
G1 X260.5679 Y614.8885 Z-12.2400
G1 X263.3648 Y615.4133 Z-12.2400
G1 X266.1666 Y615.9118 Z-12.2400
G1 X268.9728 Y616.3841 Z-12.2400
G1 X271.7834 Y616.8299 Z-12.2400
G1 X274.5981 Y617.2493 Z-12.2400
G1 X277.4166 Y617.6423 Z-12.2400
G1 X280.2386 Y618.0087 Z-12.2400
G1 X283.0640 Y618.3487 Z-12.2400
G1 X285.8924 Y618.6621 Z-12.2400
G1 X288.7236 Y618.9489 Z-12.2400
G1 X291.5575 Y619.2091 Z-12.2400
G1 X294.3936 Y619.4427 Z-12.2400
G1 X297.2318 Y619.6497 Z-12.2400
G1 X300.0718 Y619.8300 Z-12.2400
G1 X302.9134 Y619.9836 Z-12.2400
G1 X305.7563 Y620.1105 Z-12.2400
G1 X308.6003 Y620.2107 Z-12.2400
G1 X311.4451 Y620.2842 Z-12.2400
G1 X314.2904 Y620.3310 Z-12.2400
G1 X317.1361 Y620.3510 Z-12.2400
G1 X319.9818 Y620.3443 Z-12.2400
G1 X322.8274 Y620.3109 Z-12.2400
G1 X325.6725 Y620.2508 Z-12.2400
G1 X328.5169 Y620.1639 Z-12.2400
G1 X331.3603 Y620.0504 Z-12.2400
G1 X334.2026 Y619.9101 Z-12.2400
G1 X337.0435 Y619.7432 Z-12.2400
G1 X339.8826 Y619.5496 Z-12.2400
G1 X342.7198 Y619.3293 Z-12.2400
G1 X345.5548 Y619.0824 Z-12.2400
G1 X348.3874 Y618.8088 Z-12.2400
G1 X351.2172 Y618.5087 Z-12.2400
G1 X354.0442 Y618.1820 Z-12.2400
G1 X356.8679 Y617.8288 Z-12.2400
G1 X359.6882 Y617.4491 Z-12.2400
G1 X362.5048 Y617.0429 Z-12.2400
G1 X365.3174 Y616.6103 Z-12.2400
G1 X368.1259 Y616.1512 Z-12.2400
G1 X370.9299 Y615.6659 Z-12.2400
G1 X373.7293 Y615.1542 Z-12.2400
G1 X376.5237 Y614.6162 Z-12.2400
G1 X379.3130 Y614.0520 Z-12.2400
G1 X382.0968 Y613.4617 Z-12.2400
G1 X384.8750 Y612.8452 Z-12.2400
G1 X387.6472 Y612.2027 Z-12.2400
G1 X390.4133 Y611.5341 Z-12.2400
G1 X393.1730 Y610.8396 Z-12.2400
G1 X395.9260 Y610.1192 Z-12.2400
G1 X398.6722 Y609.3730 Z-12.2400
G1 X401.4112 Y608.6011 Z-12.2400
G1 X404.1429 Y607.8034 Z-12.2400
G1 X406.8669 Y606.9801 Z-12.2400
G1 X409.5831 Y606.1313 Z-12.2400
G1 X412.2912 Y605.2570 Z-12.2400
G1 X414.9910 Y604.3573 Z-12.2400
G1 X417.6822 Y603.4323 Z-12.2400
G1 X420.3646 Y602.4821 Z-12.2400
G1 X423.0380 Y601.5067 Z-12.2400
G1 X425.7021 Y600.5062 Z-12.2400
G1 X428.3566 Y599.4808 Z-12.2400
G1 X431.0014 Y598.4305 Z-12.2400
G1 X433.6363 Y597.3554 Z-12.2400
G1 X436.2609 Y596.2555 Z-12.2400
G1 X438.8751 Y595.1311 Z-12.2400
G1 X441.4786 Y593.9822 Z-12.2400
G1 X444.0712 Y592.8089 Z-12.2400
G1 X446.6526 Y591.6113 Z-12.2400
G1 X449.2227 Y590.3895 Z-12.2400
G1 X451.7812 Y589.1436 Z-12.2400
G1 X454.3279 Y587.8737 Z-12.2400
G1 X456.8626 Y586.5800 Z-12.2400
G1 X459.3850 Y585.2625 Z-12.2400
G1 X461.8949 Y583.9214 Z-12.2400
G1 X464.3921 Y582.5568 Z-12.2400
G1 X466.8764 Y581.1688 Z-12.2400
G1 X469.3475 Y579.7575 Z-12.2400
G1 X471.8053 Y578.3231 Z-12.2400
G1 X474.2495 Y576.8657 Z-12.2400
G1 X476.6799 Y575.3853 Z-12.2400
G1 X479.0963 Y573.8822 Z-12.2400
G1 X481.4984 Y572.3565 Z-12.2400
G1 X483.8862 Y570.8083 Z-12.2400
G1 X486.2592 Y569.2377 Z-12.2400
G1 X488.6175 Y567.6449 Z-12.2400
G1 X490.9606 Y566.0301 Z-12.2400
G1 X493.2885 Y564.3932 Z-12.2400
G1 X495.6009 Y562.7347 Z-12.2400
G1 X497.8977 Y561.0544 Z-12.2400
G1 X500.1785 Y559.3527 Z-12.2400
G1 X502.4433 Y557.6296 Z-12.2400
G1 X504.6918 Y555.8853 Z-12.2400
G1 X506.9238 Y554.1200 Z-12.2400
G1 X509.1391 Y552.3338 Z-12.2400
G1 X511.3376 Y550.5269 Z-12.2400
G1 X513.5190 Y548.6994 Z-12.2400
G1 X515.6831 Y546.8515 Z-12.2400
G1 X517.8298 Y544.9833 Z-12.2400
G1 X519.9589 Y543.0951 Z-12.2400
G1 X522.0701 Y541.1869 Z-12.2400
G1 X524.1633 Y539.2591 Z-12.2400
G1 X526.2383 Y537.3116 Z-12.2400
G1 X528.2949 Y535.3447 Z-12.2400
G1 X528.5095 Y535.1356 Z-12.2400
G1 X528.5095 Y535.1356 Z-11.3000
G1 X530.3330 Y533.3587 Z-11.3000
G1 X532.3523 Y531.3535 Z-11.3000
G1 X534.3527 Y529.3295 Z-11.3000
G1 X535.6386 Y528.0037 Z-11.3000
G1 X535.6386 Y528.0037 Z-12.2400
G2 X540.2386 Y523.1460 I-170.0976 J-165.6789
G1 X542.1615 Y521.0483 Z-12.2400
G1 X544.0647 Y518.9326 Z-12.2400
G1 X545.9479 Y516.7991 Z-12.2400
G1 X547.8110 Y514.6480 Z-12.2400
G1 X549.6538 Y512.4796 Z-12.2400
G1 X551.4762 Y510.2939 Z-12.2400
G1 X553.2780 Y508.0912 Z-12.2400
G1 X555.0590 Y505.8717 Z-12.2400
G1 X556.8190 Y503.6355 Z-12.2400
G1 X558.5580 Y501.3830 Z-12.2400
G1 X560.2758 Y499.1141 Z-12.2400
G1 X561.9722 Y496.8293 Z-12.2400
G1 X563.6470 Y494.5286 Z-12.2400
G1 X565.3002 Y492.2123 Z-12.2400
G1 X566.9315 Y489.8806 Z-12.2400
G1 X568.5409 Y487.5336 Z-12.2400
G1 X570.1281 Y485.1717 Z-12.2400
G1 X571.6931 Y482.7949 Z-12.2400
G1 X573.2357 Y480.4036 Z-12.2400
G1 X574.7558 Y477.9978 Z-12.2400
G1 X576.2532 Y475.5779 Z-12.2400
G1 X577.7279 Y473.1440 Z-12.2400
G1 X579.1796 Y470.6964 Z-12.2400
G1 X580.6082 Y468.2353 Z-12.2400
G1 X582.0137 Y465.7609 Z-12.2400
G1 X583.3959 Y463.2733 Z-12.2400
G1 X584.7546 Y460.7729 Z-12.2400
G1 X586.0898 Y458.2599 Z-12.2400
G1 X587.4014 Y455.7344 Z-12.2400
G1 X588.6891 Y453.1967 Z-12.2400
G1 X589.9530 Y450.6470 Z-12.2400
G1 X591.1929 Y448.0856 Z-12.2400
G1 X592.4087 Y445.5126 Z-12.2400
G1 X593.6002 Y442.9284 Z-12.2400
G1 X594.7674 Y440.3330 Z-12.2400
G1 X595.9102 Y437.7268 Z-12.2400
G1 X597.0285 Y435.1100 Z-12.2400
G1 X598.1221 Y432.4828 Z-12.2400
G1 X599.1911 Y429.8455 Z-12.2400
G1 X600.2352 Y427.1982 Z-12.2400
G1 X601.2544 Y424.5412 Z-12.2400
G1 X602.2486 Y421.8748 Z-12.2400
G1 X603.2177 Y419.1992 Z-12.2400
G1 X604.1616 Y416.5146 Z-12.2400
G1 X605.0803 Y413.8212 Z-12.2400
G1 X605.9737 Y411.1193 Z-12.2400
G1 X606.8416 Y408.4092 Z-12.2400
G1 X607.6840 Y405.6910 Z-12.2400
G1 X608.5009 Y402.9650 Z-12.2400
G1 X609.2921 Y400.2315 Z-12.2400
G1 X610.0577 Y397.4906 Z-12.2400
G1 X610.7974 Y394.7427 Z-12.2400
G1 X611.5114 Y391.9880 Z-12.2400
G1 X612.1994 Y389.2267 Z-12.2400
G1 X612.8614 Y386.4590 Z-12.2400
G1 X613.4974 Y383.6853 Z-12.2400
G1 X614.1074 Y380.9057 Z-12.2400
G1 X614.6912 Y378.1205 Z-12.2400
G1 X615.2488 Y375.3299 Z-12.2400
G1 X615.7802 Y372.5342 Z-12.2400
G1 X616.2854 Y369.7337 Z-12.2400
G1 X616.7642 Y366.9285 Z-12.2400
G1 X617.2166 Y364.1190 Z-12.2400
G1 X617.6426 Y361.3053 Z-12.2400
G1 X618.0422 Y358.4878 Z-12.2400
G1 X618.4153 Y355.6666 Z-12.2400
G1 X618.7619 Y352.8420 Z-12.2400
G1 X619.0819 Y350.0143 Z-12.2400
G1 X619.3754 Y347.1838 Z-12.2400
G1 X619.6423 Y344.3506 Z-12.2400
G1 X619.8825 Y341.5150 Z-12.2400
G1 X620.0961 Y338.6773 Z-12.2400
G1 X620.2831 Y335.8377 Z-12.2400
G1 X620.4434 Y332.9965 Z-12.2400
G1 X620.5770 Y330.1539 Z-12.2400
G1 X620.6838 Y327.3102 Z-12.2400
G1 X620.7640 Y324.4656 Z-12.2400
G1 X620.8175 Y321.6203 Z-12.2400
G1 X620.8442 Y318.7747 Z-12.2400
G1 X620.8442 Y315.9290 Z-12.2400
G1 X620.8175 Y313.0834 Z-12.2400
G1 X620.7640 Y310.2381 Z-12.2400
G1 X620.6838 Y307.3935 Z-12.2400
G1 X620.5770 Y304.5498 Z-12.2400
G1 X620.4434 Y301.7072 Z-12.2400
G1 X620.2831 Y298.8660 Z-12.2400
G1 X620.0961 Y296.0264 Z-12.2400
G1 X619.8825 Y293.1887 Z-12.2400
G1 X619.6423 Y290.3531 Z-12.2400
G1 X619.3754 Y287.5199 Z-12.2400
G1 X619.0819 Y284.6893 Z-12.2400
G1 X618.7619 Y281.8617 Z-12.2400
G1 X618.4153 Y279.0371 Z-12.2400
G1 X618.0422 Y276.2159 Z-12.2400
G1 X617.6426 Y273.3984 Z-12.2400
G1 X617.2166 Y270.5847 Z-12.2400
G1 X616.7642 Y267.7752 Z-12.2400
G1 X616.2854 Y264.9700 Z-12.2400
G1 X615.7802 Y262.1695 Z-12.2400
G1 X615.2488 Y259.3738 Z-12.2400
G1 X614.6912 Y256.5832 Z-12.2400
G1 X614.1074 Y253.7980 Z-12.2400
G1 X613.4974 Y251.0184 Z-12.2400
G1 X612.8614 Y248.2446 Z-12.2400
G1 X612.1994 Y245.4770 Z-12.2400
G1 X611.5114 Y242.7157 Z-12.2400
G1 X610.7974 Y239.9609 Z-12.2400
G1 X610.0577 Y237.2130 Z-12.2400
G1 X609.2921 Y234.4722 Z-12.2400
G1 X608.5009 Y231.7387 Z-12.2400
G1 X607.6840 Y229.0127 Z-12.2400
G1 X606.8416 Y226.2945 Z-12.2400
G1 X605.9737 Y223.5844 Z-12.2400
G1 X605.0803 Y220.8825 Z-12.2400
G1 X604.1616 Y218.1891 Z-12.2400
G1 X603.2177 Y215.5045 Z-12.2400
G1 X602.2486 Y212.8289 Z-12.2400
G1 X601.2544 Y210.1625 Z-12.2400
G1 X600.2352 Y207.5055 Z-12.2400
G1 X599.1911 Y204.8582 Z-12.2400
G1 X598.1221 Y202.2209 Z-12.2400
G1 X597.0285 Y199.5937 Z-12.2400
G1 X595.9102 Y196.9769 Z-12.2400
G1 X594.7674 Y194.3707 Z-12.2400
G1 X593.6002 Y191.7753 Z-12.2400
G1 X592.4087 Y189.1911 Z-12.2400
G1 X591.1929 Y186.6181 Z-12.2400
G1 X589.9530 Y184.0567 Z-12.2400
G1 X588.6891 Y181.5070 Z-12.2400
G1 X587.4014 Y178.9693 Z-12.2400
G1 X586.0898 Y176.4438 Z-12.2400
G1 X584.7546 Y173.9308 Z-12.2400
G1 X583.3959 Y171.4304 Z-12.2400
G1 X582.0137 Y168.9428 Z-12.2400
G1 X580.6082 Y166.4684 Z-12.2400
G1 X579.1796 Y164.0072 Z-12.2400
G1 X577.7279 Y161.5596 Z-12.2400
G1 X576.2532 Y159.1258 Z-12.2400
G1 X574.7558 Y156.7059 Z-12.2400
G1 X573.2357 Y154.3001 Z-12.2400
G1 X571.6931 Y151.9088 Z-12.2400
G1 X570.1281 Y149.5320 Z-12.2400
G1 X568.5409 Y147.1701 Z-12.2400
G1 X566.9315 Y144.8231 Z-12.2400
G1 X565.3002 Y142.4914 Z-12.2400
G1 X563.6470 Y140.1751 Z-12.2400
G1 X561.9722 Y137.8744 Z-12.2400
G1 X560.2758 Y135.5895 Z-12.2400
G1 X558.5580 Y133.3207 Z-12.2400
G1 X556.8190 Y131.0681 Z-12.2400
G1 X555.0590 Y128.8320 Z-12.2400
G1 X553.2780 Y126.6125 Z-12.2400
G1 X551.4762 Y124.4098 Z-12.2400
G1 X549.6538 Y122.2241 Z-12.2400
G1 X547.8110 Y120.0556 Z-12.2400
G1 X545.9479 Y117.9046 Z-12.2400
G1 X544.0647 Y115.7711 Z-12.2400
G1 X542.1615 Y113.6554 Z-12.2400
G1 X540.2386 Y111.5577 Z-12.2400
G1 X538.2960 Y109.4781 Z-12.2400
G1 X536.3340 Y107.4169 Z-12.2400
G1 X535.6337 Y106.6949 Z-12.2400
G1 X535.6337 Y106.6949 Z-11.3000
G1 X534.3527 Y105.3742 Z-11.3000
G1 X532.3523 Y103.3502 Z-11.3000
G1 X530.3330 Y101.3450 Z-11.3000
G1 X528.5045 Y99.5632 Z-11.3000
G1 X528.5045 Y99.5632 Z-12.2400
G2 X524.1633 Y95.4446 I-148.3350 J152.0068
G1 X522.0701 Y93.5167 Z-12.2400
G1 X519.9589 Y91.6086 Z-12.2400
G1 X517.8298 Y89.7204 Z-12.2400
G1 X515.6831 Y87.8522 Z-12.2400
G1 X513.5190 Y86.0043 Z-12.2400
G1 X511.3376 Y84.1768 Z-12.2400
G1 X509.1391 Y82.3699 Z-12.2400
G1 X506.9238 Y80.5837 Z-12.2400
G1 X504.6918 Y78.8184 Z-12.2400
G1 X502.4433 Y77.0741 Z-12.2400
G1 X500.1785 Y75.3510 Z-12.2400
G1 X497.8977 Y73.6493 Z-12.2400
G1 X495.6009 Y71.9690 Z-12.2400
G1 X493.2885 Y70.3104 Z-12.2400
G1 X490.9606 Y68.6736 Z-12.2400
G1 X488.6175 Y67.0588 Z-12.2400
G1 X486.2592 Y65.4660 Z-12.2400
G1 X483.8862 Y63.8954 Z-12.2400
G1 X481.4984 Y62.3472 Z-12.2400
G1 X479.0963 Y60.8214 Z-12.2400
G1 X476.6799 Y59.3184 Z-12.2400
G1 X474.2495 Y57.8380 Z-12.2400
G1 X471.8053 Y56.3806 Z-12.2400
G1 X469.3475 Y54.9461 Z-12.2400
G1 X466.8764 Y53.5349 Z-12.2400
G1 X464.3921 Y52.1469 Z-12.2400
G1 X461.8949 Y50.7822 Z-12.2400
G1 X459.3850 Y49.4411 Z-12.2400
G1 X456.8626 Y48.1237 Z-12.2400
G1 X454.3279 Y46.8299 Z-12.2400
G1 X451.7812 Y45.5601 Z-12.2400
G1 X449.2227 Y44.3142 Z-12.2400
G1 X446.6526 Y43.0924 Z-12.2400
G1 X444.0712 Y41.8948 Z-12.2400
G1 X441.4786 Y40.7215 Z-12.2400
G1 X438.8751 Y39.5725 Z-12.2400
G1 X436.2609 Y38.4481 Z-12.2400
G1 X433.6363 Y37.3483 Z-12.2400
G1 X431.0014 Y36.2732 Z-12.2400
G1 X428.3566 Y35.2229 Z-12.2400
G1 X425.7021 Y34.1975 Z-12.2400
G1 X423.0380 Y33.1970 Z-12.2400
G1 X420.3646 Y32.2216 Z-12.2400
G1 X417.6822 Y31.2714 Z-12.2400
G1 X414.9910 Y30.3464 Z-12.2400
G1 X412.2912 Y29.4467 Z-12.2400
G1 X409.5831 Y28.5724 Z-12.2400
G1 X406.8669 Y27.7236 Z-12.2400
G1 X404.1429 Y26.9003 Z-12.2400
G1 X401.4112 Y26.1026 Z-12.2400
G1 X398.6722 Y25.3307 Z-12.2400
G1 X395.9260 Y24.5845 Z-12.2400
G1 X393.1730 Y23.8641 Z-12.2400
G1 X390.4133 Y23.1696 Z-12.2400
G1 X387.6472 Y22.5010 Z-12.2400
G1 X384.8750 Y21.8585 Z-12.2400
G1 X382.0968 Y21.2420 Z-12.2400
G1 X379.3130 Y20.6517 Z-12.2400
G1 X376.5237 Y20.0875 Z-12.2400
G1 X373.7293 Y19.5495 Z-12.2400
G1 X370.9299 Y19.0378 Z-12.2400
G1 X368.1259 Y18.5524 Z-12.2400
G1 X365.3174 Y18.0934 Z-12.2400
G1 X362.5048 Y17.6608 Z-12.2400
G1 X359.6882 Y17.2546 Z-12.2400
G1 X356.8679 Y16.8749 Z-12.2400
G1 X354.0442 Y16.5217 Z-12.2400
G1 X351.2172 Y16.1950 Z-12.2400
G1 X348.3874 Y15.8948 Z-12.2400
G1 X345.5548 Y15.6213 Z-12.2400
G1 X342.7198 Y15.3744 Z-12.2400
G1 X339.8826 Y15.1541 Z-12.2400
G1 X337.0435 Y14.9605 Z-12.2400
G1 X334.2026 Y14.7936 Z-12.2400
G1 X331.3603 Y14.6533 Z-12.2400
G1 X328.5169 Y14.5397 Z-12.2400
G1 X325.6725 Y14.4529 Z-12.2400
G1 X322.8274 Y14.3928 Z-12.2400
G1 X319.9818 Y14.3594 Z-12.2400
G1 X317.1361 Y14.3527 Z-12.2400
G1 X314.2904 Y14.3727 Z-12.2400
G1 X311.4451 Y14.4195 Z-12.2400
G1 X308.6003 Y14.4930 Z-12.2400
G1 X305.7563 Y14.5932 Z-12.2400
G1 X302.9134 Y14.7201 Z-12.2400
G1 X300.0718 Y14.8737 Z-12.2400
G1 X297.2318 Y15.0540 Z-12.2400
G1 X294.3936 Y15.2609 Z-12.2400
G1 X291.5575 Y15.4945 Z-12.2400
G1 X288.7236 Y15.7548 Z-12.2400
G1 X285.8924 Y16.0416 Z-12.2400
G1 X283.0640 Y16.3550 Z-12.2400
G1 X280.2386 Y16.6949 Z-12.2400
G1 X277.4166 Y17.0614 Z-12.2400
G1 X274.5981 Y17.4544 Z-12.2400
G1 X271.7834 Y17.8738 Z-12.2400
G1 X268.9728 Y18.3196 Z-12.2400
G1 X266.1666 Y18.7918 Z-12.2400
G1 X263.3648 Y19.2904 Z-12.2400
G1 X260.5679 Y19.8152 Z-12.2400
G1 X257.7760 Y20.3663 Z-12.2400
G1 X254.9895 Y20.9436 Z-12.2400
G1 X252.2084 Y21.5470 Z-12.2400
G1 X249.4332 Y22.1765 Z-12.2400
G1 X246.6640 Y22.8321 Z-12.2400
G1 X243.9011 Y23.5136 Z-12.2400
G1 X241.1447 Y24.2210 Z-12.2400
G1 X238.3951 Y24.9543 Z-12.2400
G1 X235.6524 Y25.7134 Z-12.2400
G1 X232.9171 Y26.4982 Z-12.2400
G1 X230.1892 Y27.3087 Z-12.2400
G1 X227.4690 Y28.1448 Z-12.2400
G1 X224.7568 Y29.0063 Z-12.2400
G1 X222.0529 Y29.8934 Z-12.2400
G1 X219.3574 Y30.8057 Z-12.2400
G1 X216.6705 Y31.7433 Z-12.2400
G1 X213.9926 Y32.7062 Z-12.2400
G1 X211.3239 Y33.6941 Z-12.2400
G1 X208.6645 Y34.7071 Z-12.2400
G1 X206.0148 Y35.7450 Z-12.2400
G1 X203.3749 Y36.8077 Z-12.2400
G1 X200.7452 Y37.8952 Z-12.2400
G1 X198.1258 Y39.0073 Z-12.2400
G1 X195.5169 Y40.1439 Z-12.2400
G1 X192.9188 Y41.3051 Z-12.2400
G1 X190.3318 Y42.4906 Z-12.2400
G1 X187.7559 Y43.7003 Z-12.2400
G1 X185.1916 Y44.9341 Z-12.2400
G1 X182.6390 Y46.1920 Z-12.2400
G1 X180.0983 Y47.4738 Z-12.2400
G1 X177.5697 Y48.7794 Z-12.2400
G1 X175.0535 Y50.1087 Z-12.2400
G1 X172.5499 Y51.4616 Z-12.2400
G1 X170.0592 Y52.8379 Z-12.2400
G1 X167.5814 Y54.2376 Z-12.2400
G1 X165.1170 Y55.6605 Z-12.2400
G1 X162.6659 Y57.1064 Z-12.2400
G1 X160.2286 Y58.5753 Z-12.2400
G1 X157.8052 Y60.0671 Z-12.2400
G1 X155.3959 Y61.5815 Z-12.2400
G1 X153.0009 Y63.1185 Z-12.2400
G1 X150.6205 Y64.6779 Z-12.2400
G1 X148.2548 Y66.2596 Z-12.2400
G1 X145.9041 Y67.8634 Z-12.2400
G1 X143.5686 Y69.4893 Z-12.2400
G1 X141.2484 Y71.1370 Z-12.2400
G1 X138.9438 Y72.8065 Z-12.2400
G1 X136.6549 Y74.4975 Z-12.2400
G1 X134.3821 Y76.2099 Z-12.2400
G1 X132.1254 Y77.9436 Z-12.2400
G1 X129.8852 Y79.6984 Z-12.2400
G1 X127.6615 Y81.4742 Z-12.2400
G1 X125.4546 Y83.2708 Z-12.2400
G1 X123.2646 Y85.0880 Z-12.2400
G1 X121.0918 Y86.9257 Z-12.2400
G1 X118.9364 Y88.7838 Z-12.2400
G1 X116.7985 Y90.6620 Z-12.2400
G1 X114.6784 Y92.5602 Z-12.2400
G1 X112.5761 Y94.4782 Z-12.2400
G1 X110.4920 Y96.4159 Z-12.2400
G1 X108.4262 Y98.3731 Z-12.2400
G1 X107.1945 Y99.5621 Z-12.2400
G1 X107.1945 Y99.5621 Z-11.3000
G2 X102.3402 Y104.3598 I167.8404 J174.6745
G1 X100.3494 Y106.3932 Z-11.3000
G1 X100.0433 Y106.7117 Z-11.3000
G1 X100.0433 Y106.7117 Z-12.2400
G1 X98.3777 Y108.4452 Z-12.2400
G1 X96.4253 Y110.5156 Z-12.2400
G1 X94.4926 Y112.6043 Z-12.2400
G1 X92.5795 Y114.7110 Z-12.2400
G1 X90.6862 Y116.8356 Z-12.2400
G1 X88.8131 Y118.9779 Z-12.2400
G1 X86.9601 Y121.1377 Z-12.2400
G1 X85.1275 Y123.3148 Z-12.2400
G1 X83.3154 Y125.5090 Z-12.2400
G1 X81.5240 Y127.7201 Z-12.2400
G1 X79.7534 Y129.9480 Z-12.2400
G1 X78.0039 Y132.1924 Z-12.2400
G1 X76.2755 Y134.4531 Z-12.2400
G1 X74.5684 Y136.7300 Z-12.2400
G1 X72.8828 Y139.0228 Z-12.2400
G1 X71.2187 Y141.3313 Z-12.2400
G1 X69.5765 Y143.6553 Z-12.2400
G1 X67.9561 Y145.9947 Z-12.2400
G1 X66.3578 Y148.3492 Z-12.2400
G1 X64.7816 Y150.7186 Z-12.2400
G1 X63.2278 Y153.1026 Z-12.2400
G1 X61.6965 Y155.5012 Z-12.2400
G1 X60.1877 Y157.9141 Z-12.2400
G1 X58.7016 Y160.3410 Z-12.2400
G1 X57.2385 Y162.7817 Z-12.2400
G1 X55.7983 Y165.2361 Z-12.2400
G1 X54.3812 Y167.7040 Z-12.2400
G1 X52.9874 Y170.1850 Z-12.2400
G1 X51.6169 Y172.6790 Z-12.2400
G1 X50.2699 Y175.1857 Z-12.2400
G1 X48.9465 Y177.7050 Z-12.2400
G1 X47.6468 Y180.2366 Z-12.2400
G1 X46.3710 Y182.7803 Z-12.2400
G1 X45.1191 Y185.3359 Z-12.2400
G1 X43.8913 Y187.9031 Z-12.2400
G1 X42.6876 Y190.4818 Z-12.2400
G1 X41.5082 Y193.0716 Z-12.2400
G1 X40.3532 Y195.6724 Z-12.2400
G1 X39.2226 Y198.2839 Z-12.2400
G1 X38.1167 Y200.9060 Z-12.2400
G1 X37.0354 Y203.5383 Z-12.2400
G1 X35.9788 Y206.1806 Z-12.2400
G1 X34.9472 Y208.8328 Z-12.2400
G1 X33.9405 Y211.4945 Z-12.2400
G1 X32.9588 Y214.1656 Z-12.2400
G1 X32.0023 Y216.8457 Z-12.2400
G1 X31.0709 Y219.5347 Z-12.2400
G1 X30.1649 Y222.2324 Z-12.2400
G1 X29.2843 Y224.9384 Z-12.2400
G1 X28.4291 Y227.6526 Z-12.2400
G1 X27.5994 Y230.3747 Z-12.2400
G1 X26.7953 Y233.1045 Z-12.2400
G1 X26.0169 Y235.8417 Z-12.2400
G1 X25.2643 Y238.5861 Z-12.2400
G1 X24.5374 Y241.3375 Z-12.2400
G1 X23.8365 Y244.0955 Z-12.2400
G1 X23.1614 Y246.8600 Z-12.2400
G1 X22.5124 Y249.6308 Z-12.2400
G1 X21.8894 Y252.4075 Z-12.2400
G1 X21.2925 Y255.1899 Z-12.2400
G1 X20.7218 Y257.9778 Z-12.2400
G1 X20.1772 Y260.7710 Z-12.2400
G1 X19.6590 Y263.5691 Z-12.2400
G1 X19.1670 Y266.3720 Z-12.2400
G1 X18.7014 Y269.1794 Z-12.2400
G1 X18.2622 Y271.9910 Z-12.2400
G1 X17.8493 Y274.8067 Z-12.2400
G1 X17.4630 Y277.6261 Z-12.2400
G1 X17.1032 Y280.4490 Z-12.2400
G1 X16.7698 Y283.2751 Z-12.2400
G1 X16.4631 Y286.1043 Z-12.2400
G1 X16.1829 Y288.9362 Z-12.2400
G1 X15.9293 Y291.7706 Z-12.2400
G1 X15.7024 Y294.6073 Z-12.2400
G1 X15.5021 Y297.4460 Z-12.2400
G1 X15.3285 Y300.2864 Z-12.2400
G1 X15.1816 Y303.1283 Z-12.2400
G1 X15.0613 Y305.9715 Z-12.2400
G1 X14.9678 Y308.8157 Z-12.2400
G1 X14.9010 Y311.6607 Z-12.2400
G1 X14.8609 Y314.5061 Z-12.2400
G1 X14.8475 Y317.3518 Z-12.2400
G1 X14.8475 Y317.3518 Z-15.3000
G1 X14.8609 Y320.1975 Z-15.3000
G1 X14.9010 Y323.0430 Z-15.3000
G1 X14.9678 Y325.8880 Z-15.3000
G1 X15.0613 Y328.7322 Z-15.3000
G1 X15.1816 Y331.5754 Z-15.3000
G1 X15.3285 Y334.4173 Z-15.3000
G1 X15.5021 Y337.2577 Z-15.3000
G1 X15.7024 Y340.0964 Z-15.3000
G1 X15.9293 Y342.9331 Z-15.3000
G1 X16.1829 Y345.7675 Z-15.3000
G1 X16.4631 Y348.5994 Z-15.3000
G1 X16.7698 Y351.4286 Z-15.3000
G1 X17.1032 Y354.2547 Z-15.3000
G1 X17.4630 Y357.0776 Z-15.3000
G1 X17.8493 Y359.8970 Z-15.3000
G1 X18.2622 Y362.7126 Z-15.3000
G1 X18.7014 Y365.5243 Z-15.3000
G1 X19.1670 Y368.3317 Z-15.3000
G1 X19.6590 Y371.1345 Z-15.3000
G1 X20.1772 Y373.9327 Z-15.3000
G1 X20.7218 Y376.7258 Z-15.3000
G1 X21.2925 Y379.5138 Z-15.3000
G1 X21.8894 Y382.2962 Z-15.3000
G1 X22.5124 Y385.0729 Z-15.3000
G1 X23.1614 Y387.8436 Z-15.3000
G1 X23.8365 Y390.6082 Z-15.3000
G1 X24.5374 Y393.3662 Z-15.3000
G1 X25.2643 Y396.1176 Z-15.3000
G1 X26.0169 Y398.8620 Z-15.3000
G1 X26.7953 Y401.5992 Z-15.3000
G1 X27.5994 Y404.3289 Z-15.3000
G1 X28.4291 Y407.0511 Z-15.3000
G1 X29.2843 Y409.7652 Z-15.3000
G1 X30.1649 Y412.4713 Z-15.3000
G1 X31.0709 Y415.1689 Z-15.3000
G1 X32.0023 Y417.8580 Z-15.3000
G1 X32.9588 Y420.5381 Z-15.3000
G1 X33.9405 Y423.2092 Z-15.3000
G1 X34.9472 Y425.8709 Z-15.3000
G1 X35.9788 Y428.5231 Z-15.3000
G1 X37.0354 Y431.1654 Z-15.3000
G1 X38.1167 Y433.7977 Z-15.3000
G1 X39.2226 Y436.4197 Z-15.3000
G1 X40.3532 Y439.0313 Z-15.3000
G1 X41.5082 Y441.6321 Z-15.3000
G1 X42.6876 Y444.2219 Z-15.3000
G1 X43.8913 Y446.8005 Z-15.3000
G1 X45.1191 Y449.3678 Z-15.3000
G1 X46.3710 Y451.9233 Z-15.3000
G1 X47.6468 Y454.4671 Z-15.3000
G1 X48.9465 Y456.9987 Z-15.3000
G1 X50.2699 Y459.5180 Z-15.3000
G1 X51.6169 Y462.0247 Z-15.3000
G1 X52.9874 Y464.5187 Z-15.3000
G1 X54.3812 Y466.9997 Z-15.3000
G1 X55.7983 Y469.4675 Z-15.3000
G1 X57.2385 Y471.9219 Z-15.3000
G1 X58.7016 Y474.3627 Z-15.3000
G1 X60.1877 Y476.7896 Z-15.3000
G1 X61.6965 Y479.2025 Z-15.3000
G1 X63.2278 Y481.6010 Z-15.3000
G1 X64.7816 Y483.9851 Z-15.3000
G1 X66.3578 Y486.3545 Z-15.3000
G1 X67.9561 Y488.7090 Z-15.3000
G1 X69.5765 Y491.0484 Z-15.3000
G1 X71.2187 Y493.3724 Z-15.3000
G1 X72.8828 Y495.6809 Z-15.3000
G1 X74.5684 Y497.9737 Z-15.3000
G1 X76.2755 Y500.2506 Z-15.3000
G1 X78.0039 Y502.5113 Z-15.3000
G1 X79.7534 Y504.7557 Z-15.3000
G1 X81.5240 Y506.9835 Z-15.3000
G1 X83.3154 Y509.1947 Z-15.3000
G1 X85.1275 Y511.3889 Z-15.3000
G1 X86.9601 Y513.5660 Z-15.3000
G1 X88.8131 Y515.7258 Z-15.3000
G1 X90.6862 Y517.8680 Z-15.3000
G1 X92.5795 Y519.9927 Z-15.3000
G1 X94.4926 Y522.0994 Z-15.3000
G1 X96.4253 Y524.1880 Z-15.3000
G1 X98.3777 Y526.2585 Z-15.3000
G1 X100.0482 Y527.9970 Z-15.3000
G1 X100.0482 Y527.9970 Z-11.3000
G2 X104.3501 Y532.3585 I156.9347 J-150.4909
G1 X106.3788 Y534.3541 Z-11.3000
G1 X107.1996 Y535.1464 Z-11.3000
G1 X107.1996 Y535.1464 Z-15.3000
G1 X108.4262 Y536.3306 Z-15.3000
G1 X110.4920 Y538.2878 Z-15.3000
G1 X112.5761 Y540.2255 Z-15.3000
G1 X114.6784 Y542.1435 Z-15.3000
G1 X116.7985 Y544.0417 Z-15.3000
G1 X118.9364 Y545.9199 Z-15.3000
G1 X121.0918 Y547.7779 Z-15.3000
G1 X123.2646 Y549.6157 Z-15.3000
G1 X125.4546 Y551.4329 Z-15.3000
G1 X127.6615 Y553.2295 Z-15.3000
G1 X129.8852 Y555.0053 Z-15.3000
G1 X132.1254 Y556.7601 Z-15.3000
G1 X134.3821 Y558.4938 Z-15.3000
G1 X136.6549 Y560.2062 Z-15.3000
G1 X138.9438 Y561.8972 Z-15.3000
G1 X141.2484 Y563.5667 Z-15.3000
G1 X143.5686 Y565.2144 Z-15.3000
G1 X145.9041 Y566.8402 Z-15.3000
G1 X148.2548 Y568.4441 Z-15.3000
G1 X150.6205 Y570.0258 Z-15.3000
G1 X153.0009 Y571.5852 Z-15.3000
G1 X155.3959 Y573.1222 Z-15.3000
G1 X157.8052 Y574.6366 Z-15.3000
G1 X160.2286 Y576.1284 Z-15.3000
G1 X162.6659 Y577.5973 Z-15.3000
G1 X165.1170 Y579.0432 Z-15.3000
G1 X167.5814 Y580.4661 Z-15.3000
G1 X170.0592 Y581.8657 Z-15.3000
G1 X172.5499 Y583.2421 Z-15.3000
G1 X175.0535 Y584.5949 Z-15.3000
G1 X177.5697 Y585.9242 Z-15.3000
G1 X180.0983 Y587.2299 Z-15.3000
G1 X182.6390 Y588.5117 Z-15.3000
G1 X185.1916 Y589.7696 Z-15.3000
G1 X187.7559 Y591.0034 Z-15.3000
G1 X190.3318 Y592.2131 Z-15.3000
G1 X192.9188 Y593.3986 Z-15.3000
G1 X195.5169 Y594.5597 Z-15.3000
G1 X198.1258 Y595.6964 Z-15.3000
G1 X200.7452 Y596.8085 Z-15.3000
G1 X203.3749 Y597.8960 Z-15.3000
G1 X206.0148 Y598.9587 Z-15.3000
G1 X208.6645 Y599.9966 Z-15.3000
G1 X211.3239 Y601.0096 Z-15.3000
G1 X213.9926 Y601.9975 Z-15.3000
G1 X216.6705 Y602.9603 Z-15.3000
G1 X219.3574 Y603.8980 Z-15.3000
G1 X222.0529 Y604.8103 Z-15.3000
G1 X224.7568 Y605.6973 Z-15.3000
G1 X227.4690 Y606.5589 Z-15.3000
G1 X230.1892 Y607.3950 Z-15.3000
G1 X232.9171 Y608.2054 Z-15.3000
G1 X235.6524 Y608.9903 Z-15.3000
G1 X238.3951 Y609.7494 Z-15.3000
G1 X241.1447 Y610.4827 Z-15.3000
G1 X243.9011 Y611.1901 Z-15.3000
G1 X246.6640 Y611.8716 Z-15.3000
G1 X249.4332 Y612.5272 Z-15.3000
G1 X252.2084 Y613.1567 Z-15.3000
G1 X254.9895 Y613.7601 Z-15.3000
G1 X257.7760 Y614.3374 Z-15.3000
G1 X260.5679 Y614.8885 Z-15.3000
G1 X263.3648 Y615.4133 Z-15.3000
G1 X266.1666 Y615.9118 Z-15.3000
G1 X268.9728 Y616.3841 Z-15.3000
G1 X271.7834 Y616.8299 Z-15.3000
G1 X274.5981 Y617.2493 Z-15.3000
G1 X277.4166 Y617.6423 Z-15.3000
G1 X280.2386 Y618.0087 Z-15.3000
G1 X283.0640 Y618.3487 Z-15.3000
G1 X285.8924 Y618.6621 Z-15.3000
G1 X288.7236 Y618.9489 Z-15.3000
G1 X291.5575 Y619.2091 Z-15.3000
G1 X294.3936 Y619.4427 Z-15.3000
G1 X297.2318 Y619.6497 Z-15.3000
G1 X300.0718 Y619.8300 Z-15.3000
G1 X302.9134 Y619.9836 Z-15.3000
G1 X305.7563 Y620.1105 Z-15.3000
G1 X308.6003 Y620.2107 Z-15.3000
G1 X311.4451 Y620.2842 Z-15.3000
G1 X314.2904 Y620.3310 Z-15.3000
G1 X317.1361 Y620.3510 Z-15.3000
G1 X319.9818 Y620.3443 Z-15.3000
G1 X322.8274 Y620.3109 Z-15.3000
G1 X325.6725 Y620.2508 Z-15.3000
G1 X328.5169 Y620.1639 Z-15.3000
G1 X331.3603 Y620.0504 Z-15.3000
G1 X334.2026 Y619.9101 Z-15.3000
G1 X337.0435 Y619.7432 Z-15.3000
G1 X339.8826 Y619.5496 Z-15.3000
G1 X342.7198 Y619.3293 Z-15.3000
G1 X345.5548 Y619.0824 Z-15.3000
G1 X348.3874 Y618.8088 Z-15.3000
G1 X351.2172 Y618.5087 Z-15.3000
G1 X354.0442 Y618.1820 Z-15.3000
G1 X356.8679 Y617.8288 Z-15.3000
G1 X359.6882 Y617.4491 Z-15.3000
G1 X362.5048 Y617.0429 Z-15.3000
G1 X365.3174 Y616.6103 Z-15.3000
G1 X368.1259 Y616.1512 Z-15.3000
G1 X370.9299 Y615.6659 Z-15.3000
G1 X373.7293 Y615.1542 Z-15.3000
G1 X376.5237 Y614.6162 Z-15.3000
G1 X379.3130 Y614.0520 Z-15.3000
G1 X382.0968 Y613.4617 Z-15.3000
G1 X384.8750 Y612.8452 Z-15.3000
G1 X387.6472 Y612.2027 Z-15.3000
G1 X390.4133 Y611.5341 Z-15.3000
G1 X393.1730 Y610.8396 Z-15.3000
G1 X395.9260 Y610.1192 Z-15.3000
G1 X398.6722 Y609.3730 Z-15.3000
G1 X401.4112 Y608.6011 Z-15.3000
G1 X404.1429 Y607.8034 Z-15.3000
G1 X406.8669 Y606.9801 Z-15.3000
G1 X409.5831 Y606.1313 Z-15.3000
G1 X412.2912 Y605.2570 Z-15.3000
G1 X414.9910 Y604.3573 Z-15.3000
G1 X417.6822 Y603.4323 Z-15.3000
G1 X420.3646 Y602.4821 Z-15.3000
G1 X423.0380 Y601.5067 Z-15.3000
G1 X425.7021 Y600.5062 Z-15.3000
G1 X428.3566 Y599.4808 Z-15.3000
G1 X431.0014 Y598.4305 Z-15.3000
G1 X433.6363 Y597.3554 Z-15.3000
G1 X436.2609 Y596.2555 Z-15.3000
G1 X438.8751 Y595.1311 Z-15.3000
G1 X441.4786 Y593.9822 Z-15.3000
G1 X444.0712 Y592.8089 Z-15.3000
G1 X446.6526 Y591.6113 Z-15.3000
G1 X449.2227 Y590.3895 Z-15.3000
G1 X451.7812 Y589.1436 Z-15.3000
G1 X454.3279 Y587.8737 Z-15.3000
G1 X456.8626 Y586.5800 Z-15.3000
G1 X459.3850 Y585.2625 Z-15.3000
G1 X461.8949 Y583.9214 Z-15.3000
G1 X464.3921 Y582.5568 Z-15.3000
G1 X466.8764 Y581.1688 Z-15.3000
G1 X469.3475 Y579.7575 Z-15.3000
G1 X471.8053 Y578.3231 Z-15.3000
G1 X474.2495 Y576.8657 Z-15.3000
G1 X476.6799 Y575.3853 Z-15.3000
G1 X479.0963 Y573.8822 Z-15.3000
G1 X481.4984 Y572.3565 Z-15.3000
G1 X483.8862 Y570.8083 Z-15.3000
G1 X486.2592 Y569.2377 Z-15.3000
G1 X488.6175 Y567.6449 Z-15.3000
G1 X490.9606 Y566.0301 Z-15.3000
G1 X493.2885 Y564.3932 Z-15.3000
G1 X495.6009 Y562.7347 Z-15.3000
G1 X497.8977 Y561.0544 Z-15.3000
G1 X500.1785 Y559.3527 Z-15.3000
G1 X502.4433 Y557.6296 Z-15.3000
G1 X504.6918 Y555.8853 Z-15.3000
G1 X506.9238 Y554.1200 Z-15.3000
G1 X509.1391 Y552.3338 Z-15.3000
G1 X511.3376 Y550.5269 Z-15.3000
G1 X513.5190 Y548.6994 Z-15.3000
G1 X515.6831 Y546.8515 Z-15.3000
G1 X517.8298 Y544.9833 Z-15.3000
G1 X519.9589 Y543.0951 Z-15.3000
G1 X522.0701 Y541.1869 Z-15.3000
G1 X524.1633 Y539.2591 Z-15.3000
G1 X526.2383 Y537.3116 Z-15.3000
G1 X528.2949 Y535.3447 Z-15.3000
G1 X528.5095 Y535.1356 Z-15.3000
G1 X528.5095 Y535.1356 Z-11.3000
G1 X530.3330 Y533.3587 Z-11.3000
G1 X532.3523 Y531.3535 Z-11.3000
G1 X534.3527 Y529.3295 Z-11.3000
G1 X535.6386 Y528.0037 Z-11.3000
G1 X535.6386 Y528.0037 Z-15.3000
G2 X540.2386 Y523.1460 I-170.0976 J-165.6789
G1 X542.1615 Y521.0483 Z-15.3000
G1 X544.0647 Y518.9326 Z-15.3000
G1 X545.9479 Y516.7991 Z-15.3000
G1 X547.8110 Y514.6480 Z-15.3000
G1 X549.6538 Y512.4796 Z-15.3000
G1 X551.4762 Y510.2939 Z-15.3000
G1 X553.2780 Y508.0912 Z-15.3000
G1 X555.0590 Y505.8717 Z-15.3000
G1 X556.8190 Y503.6355 Z-15.3000
G1 X558.5580 Y501.3830 Z-15.3000
G1 X560.2758 Y499.1141 Z-15.3000
G1 X561.9722 Y496.8293 Z-15.3000
G1 X563.6470 Y494.5286 Z-15.3000
G1 X565.3002 Y492.2123 Z-15.3000
G1 X566.9315 Y489.8806 Z-15.3000
G1 X568.5409 Y487.5336 Z-15.3000
G1 X570.1281 Y485.1717 Z-15.3000
G1 X571.6931 Y482.7949 Z-15.3000
G1 X573.2357 Y480.4036 Z-15.3000
G1 X574.7558 Y477.9978 Z-15.3000
G1 X576.2532 Y475.5779 Z-15.3000
G1 X577.7279 Y473.1440 Z-15.3000
G1 X579.1796 Y470.6964 Z-15.3000
G1 X580.6082 Y468.2353 Z-15.3000
G1 X582.0137 Y465.7609 Z-15.3000
G1 X583.3959 Y463.2733 Z-15.3000
G1 X584.7546 Y460.7729 Z-15.3000
G1 X586.0898 Y458.2599 Z-15.3000
G1 X587.4014 Y455.7344 Z-15.3000
G1 X588.6891 Y453.1967 Z-15.3000
G1 X589.9530 Y450.6470 Z-15.3000
G1 X591.1929 Y448.0856 Z-15.3000
G1 X592.4087 Y445.5126 Z-15.3000
G1 X593.6002 Y442.9284 Z-15.3000
G1 X594.7674 Y440.3330 Z-15.3000
G1 X595.9102 Y437.7268 Z-15.3000
G1 X597.0285 Y435.1100 Z-15.3000
G1 X598.1221 Y432.4828 Z-15.3000
G1 X599.1911 Y429.8455 Z-15.3000
G1 X600.2352 Y427.1982 Z-15.3000
G1 X601.2544 Y424.5412 Z-15.3000
G1 X602.2486 Y421.8748 Z-15.3000
G1 X603.2177 Y419.1992 Z-15.3000
G1 X604.1616 Y416.5146 Z-15.3000
G1 X605.0803 Y413.8212 Z-15.3000
G1 X605.9737 Y411.1193 Z-15.3000
G1 X606.8416 Y408.4092 Z-15.3000
G1 X607.6840 Y405.6910 Z-15.3000
G1 X608.5009 Y402.9650 Z-15.3000
G1 X609.2921 Y400.2315 Z-15.3000
G1 X610.0577 Y397.4906 Z-15.3000
G1 X610.7974 Y394.7427 Z-15.3000
G1 X611.5114 Y391.9880 Z-15.3000
G1 X612.1994 Y389.2267 Z-15.3000
G1 X612.8614 Y386.4590 Z-15.3000
G1 X613.4974 Y383.6853 Z-15.3000
G1 X614.1074 Y380.9057 Z-15.3000
G1 X614.6912 Y378.1205 Z-15.3000
G1 X615.2488 Y375.3299 Z-15.3000
G1 X615.7802 Y372.5342 Z-15.3000
G1 X616.2854 Y369.7337 Z-15.3000
G1 X616.7642 Y366.9285 Z-15.3000
G1 X617.2166 Y364.1190 Z-15.3000
G1 X617.6426 Y361.3053 Z-15.3000
G1 X618.0422 Y358.4878 Z-15.3000
G1 X618.4153 Y355.6666 Z-15.3000
G1 X618.7619 Y352.8420 Z-15.3000
G1 X619.0819 Y350.0143 Z-15.3000
G1 X619.3754 Y347.1838 Z-15.3000
G1 X619.6423 Y344.3506 Z-15.3000
G1 X619.8825 Y341.5150 Z-15.3000
G1 X620.0961 Y338.6773 Z-15.3000
G1 X620.2831 Y335.8377 Z-15.3000
G1 X620.4434 Y332.9965 Z-15.3000
G1 X620.5770 Y330.1539 Z-15.3000
G1 X620.6838 Y327.3102 Z-15.3000
G1 X620.7640 Y324.4656 Z-15.3000
G1 X620.8175 Y321.6203 Z-15.3000
G1 X620.8442 Y318.7747 Z-15.3000
G1 X620.8442 Y315.9290 Z-15.3000
G1 X620.8175 Y313.0834 Z-15.3000
G1 X620.7640 Y310.2381 Z-15.3000
G1 X620.6838 Y307.3935 Z-15.3000
G1 X620.5770 Y304.5498 Z-15.3000
G1 X620.4434 Y301.7072 Z-15.3000
G1 X620.2831 Y298.8660 Z-15.3000
G1 X620.0961 Y296.0264 Z-15.3000
G1 X619.8825 Y293.1887 Z-15.3000
G1 X619.6423 Y290.3531 Z-15.3000
G1 X619.3754 Y287.5199 Z-15.3000
G1 X619.0819 Y284.6893 Z-15.3000
G1 X618.7619 Y281.8617 Z-15.3000
G1 X618.4153 Y279.0371 Z-15.3000
G1 X618.0422 Y276.2159 Z-15.3000
G1 X617.6426 Y273.3984 Z-15.3000
G1 X617.2166 Y270.5847 Z-15.3000
G1 X616.7642 Y267.7752 Z-15.3000
G1 X616.2854 Y264.9700 Z-15.3000
G1 X615.7802 Y262.1695 Z-15.3000
G1 X615.2488 Y259.3738 Z-15.3000
G1 X614.6912 Y256.5832 Z-15.3000
G1 X614.1074 Y253.7980 Z-15.3000
G1 X613.4974 Y251.0184 Z-15.3000
G1 X612.8614 Y248.2446 Z-15.3000
G1 X612.1994 Y245.4770 Z-15.3000
G1 X611.5114 Y242.7157 Z-15.3000
G1 X610.7974 Y239.9609 Z-15.3000
G1 X610.0577 Y237.2130 Z-15.3000
G1 X609.2921 Y234.4722 Z-15.3000
G1 X608.5009 Y231.7387 Z-15.3000
G1 X607.6840 Y229.0127 Z-15.3000
G1 X606.8416 Y226.2945 Z-15.3000
G1 X605.9737 Y223.5844 Z-15.3000
G1 X605.0803 Y220.8825 Z-15.3000
G1 X604.1616 Y218.1891 Z-15.3000
G1 X603.2177 Y215.5045 Z-15.3000
G1 X602.2486 Y212.8289 Z-15.3000
G1 X601.2544 Y210.1625 Z-15.3000
G1 X600.2352 Y207.5055 Z-15.3000
G1 X599.1911 Y204.8582 Z-15.3000
G1 X598.1221 Y202.2209 Z-15.3000
G1 X597.0285 Y199.5937 Z-15.3000
G1 X595.9102 Y196.9769 Z-15.3000
G1 X594.7674 Y194.3707 Z-15.3000
G1 X593.6002 Y191.7753 Z-15.3000
G1 X592.4087 Y189.1911 Z-15.3000
G1 X591.1929 Y186.6181 Z-15.3000
G1 X589.9530 Y184.0567 Z-15.3000
G1 X588.6891 Y181.5070 Z-15.3000
G1 X587.4014 Y178.9693 Z-15.3000
G1 X586.0898 Y176.4438 Z-15.3000
G1 X584.7546 Y173.9308 Z-15.3000
G1 X583.3959 Y171.4304 Z-15.3000
G1 X582.0137 Y168.9428 Z-15.3000
G1 X580.6082 Y166.4684 Z-15.3000
G1 X579.1796 Y164.0072 Z-15.3000
G1 X577.7279 Y161.5596 Z-15.3000
G1 X576.2532 Y159.1258 Z-15.3000
G1 X574.7558 Y156.7059 Z-15.3000
G1 X573.2357 Y154.3001 Z-15.3000
G1 X571.6931 Y151.9088 Z-15.3000
G1 X570.1281 Y149.5320 Z-15.3000
G1 X568.5409 Y147.1701 Z-15.3000
G1 X566.9315 Y144.8231 Z-15.3000
G1 X565.3002 Y142.4914 Z-15.3000
G1 X563.6470 Y140.1751 Z-15.3000
G1 X561.9722 Y137.8744 Z-15.3000
G1 X560.2758 Y135.5895 Z-15.3000
G1 X558.5580 Y133.3207 Z-15.3000
G1 X556.8190 Y131.0681 Z-15.3000
G1 X555.0590 Y128.8320 Z-15.3000
G1 X553.2780 Y126.6125 Z-15.3000
G1 X551.4762 Y124.4098 Z-15.3000
G1 X549.6538 Y122.2241 Z-15.3000
G1 X547.8110 Y120.0556 Z-15.3000
G1 X545.9479 Y117.9046 Z-15.3000
G1 X544.0647 Y115.7711 Z-15.3000
G1 X542.1615 Y113.6554 Z-15.3000
G1 X540.2386 Y111.5577 Z-15.3000
G1 X538.2960 Y109.4781 Z-15.3000
G1 X536.3340 Y107.4169 Z-15.3000
G1 X535.6337 Y106.6949 Z-15.3000
G1 X535.6337 Y106.6949 Z-11.3000
G1 X534.3527 Y105.3742 Z-11.3000
G1 X532.3523 Y103.3502 Z-11.3000
G1 X530.3330 Y101.3450 Z-11.3000
G1 X528.5045 Y99.5632 Z-11.3000
G1 X528.5045 Y99.5632 Z-15.3000
G2 X524.1633 Y95.4446 I-148.3350 J152.0068
G1 X522.0701 Y93.5167 Z-15.3000
G1 X519.9589 Y91.6086 Z-15.3000
G1 X517.8298 Y89.7204 Z-15.3000
G1 X515.6831 Y87.8522 Z-15.3000
G1 X513.5190 Y86.0043 Z-15.3000
G1 X511.3376 Y84.1768 Z-15.3000
G1 X509.1391 Y82.3699 Z-15.3000
G1 X506.9238 Y80.5837 Z-15.3000
G1 X504.6918 Y78.8184 Z-15.3000
G1 X502.4433 Y77.0741 Z-15.3000
G1 X500.1785 Y75.3510 Z-15.3000
G1 X497.8977 Y73.6493 Z-15.3000
G1 X495.6009 Y71.9690 Z-15.3000
G1 X493.2885 Y70.3104 Z-15.3000
G1 X490.9606 Y68.6736 Z-15.3000
G1 X488.6175 Y67.0588 Z-15.3000
G1 X486.2592 Y65.4660 Z-15.3000
G1 X483.8862 Y63.8954 Z-15.3000
G1 X481.4984 Y62.3472 Z-15.3000
G1 X479.0963 Y60.8214 Z-15.3000
G1 X476.6799 Y59.3184 Z-15.3000
G1 X474.2495 Y57.8380 Z-15.3000
G1 X471.8053 Y56.3806 Z-15.3000
G1 X469.3475 Y54.9461 Z-15.3000
G1 X466.8764 Y53.5349 Z-15.3000
G1 X464.3921 Y52.1469 Z-15.3000
G1 X461.8949 Y50.7822 Z-15.3000
G1 X459.3850 Y49.4411 Z-15.3000
G1 X456.8626 Y48.1237 Z-15.3000
G1 X454.3279 Y46.8299 Z-15.3000
G1 X451.7812 Y45.5601 Z-15.3000
G1 X449.2227 Y44.3142 Z-15.3000
G1 X446.6526 Y43.0924 Z-15.3000
G1 X444.0712 Y41.8948 Z-15.3000
G1 X441.4786 Y40.7215 Z-15.3000
G1 X438.8751 Y39.5725 Z-15.3000
G1 X436.2609 Y38.4481 Z-15.3000
G1 X433.6363 Y37.3483 Z-15.3000
G1 X431.0014 Y36.2732 Z-15.3000
G1 X428.3566 Y35.2229 Z-15.3000
G1 X425.7021 Y34.1975 Z-15.3000
G1 X423.0380 Y33.1970 Z-15.3000
G1 X420.3646 Y32.2216 Z-15.3000
G1 X417.6822 Y31.2714 Z-15.3000
G1 X414.9910 Y30.3464 Z-15.3000
G1 X412.2912 Y29.4467 Z-15.3000
G1 X409.5831 Y28.5724 Z-15.3000
G1 X406.8669 Y27.7236 Z-15.3000
G1 X404.1429 Y26.9003 Z-15.3000
G1 X401.4112 Y26.1026 Z-15.3000
G1 X398.6722 Y25.3307 Z-15.3000
G1 X395.9260 Y24.5845 Z-15.3000
G1 X393.1730 Y23.8641 Z-15.3000
G1 X390.4133 Y23.1696 Z-15.3000
G1 X387.6472 Y22.5010 Z-15.3000
G1 X384.8750 Y21.8585 Z-15.3000
G1 X382.0968 Y21.2420 Z-15.3000
G1 X379.3130 Y20.6517 Z-15.3000
G1 X376.5237 Y20.0875 Z-15.3000
G1 X373.7293 Y19.5495 Z-15.3000
G1 X370.9299 Y19.0378 Z-15.3000
G1 X368.1259 Y18.5524 Z-15.3000
G1 X365.3174 Y18.0934 Z-15.3000
G1 X362.5048 Y17.6608 Z-15.3000
G1 X359.6882 Y17.2546 Z-15.3000
G1 X356.8679 Y16.8749 Z-15.3000
G1 X354.0442 Y16.5217 Z-15.3000
G1 X351.2172 Y16.1950 Z-15.3000
G1 X348.3874 Y15.8948 Z-15.3000
G1 X345.5548 Y15.6213 Z-15.3000
G1 X342.7198 Y15.3744 Z-15.3000
G1 X339.8826 Y15.1541 Z-15.3000
G1 X337.0435 Y14.9605 Z-15.3000
G1 X334.2026 Y14.7936 Z-15.3000
G1 X331.3603 Y14.6533 Z-15.3000
G1 X328.5169 Y14.5397 Z-15.3000
G1 X325.6725 Y14.4529 Z-15.3000
G1 X322.8274 Y14.3928 Z-15.3000
G1 X319.9818 Y14.3594 Z-15.3000
G1 X317.1361 Y14.3527 Z-15.3000
G1 X314.2904 Y14.3727 Z-15.3000
G1 X311.4451 Y14.4195 Z-15.3000
G1 X308.6003 Y14.4930 Z-15.3000
G1 X305.7563 Y14.5932 Z-15.3000
G1 X302.9134 Y14.7201 Z-15.3000
G1 X300.0718 Y14.8737 Z-15.3000
G1 X297.2318 Y15.0540 Z-15.3000
G1 X294.3936 Y15.2609 Z-15.3000
G1 X291.5575 Y15.4945 Z-15.3000
G1 X288.7236 Y15.7548 Z-15.3000
G1 X285.8924 Y16.0416 Z-15.3000
G1 X283.0640 Y16.3550 Z-15.3000
G1 X280.2386 Y16.6949 Z-15.3000
G1 X277.4166 Y17.0614 Z-15.3000
G1 X274.5981 Y17.4544 Z-15.3000
G1 X271.7834 Y17.8738 Z-15.3000
G1 X268.9728 Y18.3196 Z-15.3000
G1 X266.1666 Y18.7918 Z-15.3000
G1 X263.3648 Y19.2904 Z-15.3000
G1 X260.5679 Y19.8152 Z-15.3000
G1 X257.7760 Y20.3663 Z-15.3000
G1 X254.9895 Y20.9436 Z-15.3000
G1 X252.2084 Y21.5470 Z-15.3000
G1 X249.4332 Y22.1765 Z-15.3000
G1 X246.6640 Y22.8321 Z-15.3000
G1 X243.9011 Y23.5136 Z-15.3000
G1 X241.1447 Y24.2210 Z-15.3000
G1 X238.3951 Y24.9543 Z-15.3000
G1 X235.6524 Y25.7134 Z-15.3000
G1 X232.9171 Y26.4982 Z-15.3000
G1 X230.1892 Y27.3087 Z-15.3000
G1 X227.4690 Y28.1448 Z-15.3000
G1 X224.7568 Y29.0063 Z-15.3000
G1 X222.0529 Y29.8934 Z-15.3000
G1 X219.3574 Y30.8057 Z-15.3000
G1 X216.6705 Y31.7433 Z-15.3000
G1 X213.9926 Y32.7062 Z-15.3000
G1 X211.3239 Y33.6941 Z-15.3000
G1 X208.6645 Y34.7071 Z-15.3000
G1 X206.0148 Y35.7450 Z-15.3000
G1 X203.3749 Y36.8077 Z-15.3000
G1 X200.7452 Y37.8952 Z-15.3000
G1 X198.1258 Y39.0073 Z-15.3000
G1 X195.5169 Y40.1439 Z-15.3000
G1 X192.9188 Y41.3051 Z-15.3000
G1 X190.3318 Y42.4906 Z-15.3000
G1 X187.7559 Y43.7003 Z-15.3000
G1 X185.1916 Y44.9341 Z-15.3000
G1 X182.6390 Y46.1920 Z-15.3000
G1 X180.0983 Y47.4738 Z-15.3000
G1 X177.5697 Y48.7794 Z-15.3000
G1 X175.0535 Y50.1087 Z-15.3000
G1 X172.5499 Y51.4616 Z-15.3000
G1 X170.0592 Y52.8379 Z-15.3000
G1 X167.5814 Y54.2376 Z-15.3000
G1 X165.1170 Y55.6605 Z-15.3000
G1 X162.6659 Y57.1064 Z-15.3000
G1 X160.2286 Y58.5753 Z-15.3000
G1 X157.8052 Y60.0671 Z-15.3000
G1 X155.3959 Y61.5815 Z-15.3000
G1 X153.0009 Y63.1185 Z-15.3000
G1 X150.6205 Y64.6779 Z-15.3000
G1 X148.2548 Y66.2596 Z-15.3000
G1 X145.9041 Y67.8634 Z-15.3000
G1 X143.5686 Y69.4893 Z-15.3000
G1 X141.2484 Y71.1370 Z-15.3000
G1 X138.9438 Y72.8065 Z-15.3000
G1 X136.6549 Y74.4975 Z-15.3000
G1 X134.3821 Y76.2099 Z-15.3000
G1 X132.1254 Y77.9436 Z-15.3000
G1 X129.8852 Y79.6984 Z-15.3000
G1 X127.6615 Y81.4742 Z-15.3000
G1 X125.4546 Y83.2708 Z-15.3000
G1 X123.2646 Y85.0880 Z-15.3000
G1 X121.0918 Y86.9257 Z-15.3000
G1 X118.9364 Y88.7838 Z-15.3000
G1 X116.7985 Y90.6620 Z-15.3000
G1 X114.6784 Y92.5602 Z-15.3000
G1 X112.5761 Y94.4782 Z-15.3000
G1 X110.4920 Y96.4159 Z-15.3000
G1 X108.4262 Y98.3731 Z-15.3000
G1 X107.1945 Y99.5621 Z-15.3000
G1 X107.1945 Y99.5621 Z-11.3000
G2 X102.3402 Y104.3598 I167.8404 J174.6745
G1 X100.3494 Y106.3932 Z-11.3000
G1 X100.0433 Y106.7117 Z-11.3000
G1 X100.0433 Y106.7117 Z-15.3000
G1 X98.3777 Y108.4452 Z-15.3000
G1 X96.4253 Y110.5156 Z-15.3000
G1 X94.4926 Y112.6043 Z-15.3000
G1 X92.5795 Y114.7110 Z-15.3000
G1 X90.6862 Y116.8356 Z-15.3000
G1 X88.8131 Y118.9779 Z-15.3000
G1 X86.9601 Y121.1377 Z-15.3000
G1 X85.1275 Y123.3148 Z-15.3000
G1 X83.3154 Y125.5090 Z-15.3000
G1 X81.5240 Y127.7201 Z-15.3000
G1 X79.7534 Y129.9480 Z-15.3000
G1 X78.0039 Y132.1924 Z-15.3000
G1 X76.2755 Y134.4531 Z-15.3000
G1 X74.5684 Y136.7300 Z-15.3000
G1 X72.8828 Y139.0228 Z-15.3000
G1 X71.2187 Y141.3313 Z-15.3000
G1 X69.5765 Y143.6553 Z-15.3000
G1 X67.9561 Y145.9947 Z-15.3000
G1 X66.3578 Y148.3492 Z-15.3000
G1 X64.7816 Y150.7186 Z-15.3000
G1 X63.2278 Y153.1026 Z-15.3000
G1 X61.6965 Y155.5012 Z-15.3000
G1 X60.1877 Y157.9141 Z-15.3000
G1 X58.7016 Y160.3410 Z-15.3000
G1 X57.2385 Y162.7817 Z-15.3000
G1 X55.7983 Y165.2361 Z-15.3000
G1 X54.3812 Y167.7040 Z-15.3000
G1 X52.9874 Y170.1850 Z-15.3000
G1 X51.6169 Y172.6790 Z-15.3000
G1 X50.2699 Y175.1857 Z-15.3000
G1 X48.9465 Y177.7050 Z-15.3000
G1 X47.6468 Y180.2366 Z-15.3000
G1 X46.3710 Y182.7803 Z-15.3000
G1 X45.1191 Y185.3359 Z-15.3000
G1 X43.8913 Y187.9031 Z-15.3000
G1 X42.6876 Y190.4818 Z-15.3000
G1 X41.5082 Y193.0716 Z-15.3000
G1 X40.3532 Y195.6724 Z-15.3000
G1 X39.2226 Y198.2839 Z-15.3000
G1 X38.1167 Y200.9060 Z-15.3000
G1 X37.0354 Y203.5383 Z-15.3000
G1 X35.9788 Y206.1806 Z-15.3000
G1 X34.9472 Y208.8328 Z-15.3000
G1 X33.9405 Y211.4945 Z-15.3000
G1 X32.9588 Y214.1656 Z-15.3000
G1 X32.0023 Y216.8457 Z-15.3000
G1 X31.0709 Y219.5347 Z-15.3000
G1 X30.1649 Y222.2324 Z-15.3000
G1 X29.2843 Y224.9384 Z-15.3000
G1 X28.4291 Y227.6526 Z-15.3000
G1 X27.5994 Y230.3747 Z-15.3000
G1 X26.7953 Y233.1045 Z-15.3000
G1 X26.0169 Y235.8417 Z-15.3000
G1 X25.2643 Y238.5861 Z-15.3000
G1 X24.5374 Y241.3375 Z-15.3000
G1 X23.8365 Y244.0955 Z-15.3000
G1 X23.1614 Y246.8600 Z-15.3000
G1 X22.5124 Y249.6308 Z-15.3000
G1 X21.8894 Y252.4075 Z-15.3000
G1 X21.2925 Y255.1899 Z-15.3000
G1 X20.7218 Y257.9778 Z-15.3000
G1 X20.1772 Y260.7710 Z-15.3000
G1 X19.6590 Y263.5691 Z-15.3000
G1 X19.1670 Y266.3720 Z-15.3000
G1 X18.7014 Y269.1794 Z-15.3000
G1 X18.2622 Y271.9910 Z-15.3000
G1 X17.8493 Y274.8067 Z-15.3000
G1 X17.4630 Y277.6261 Z-15.3000
G1 X17.1032 Y280.4490 Z-15.3000
G1 X16.7698 Y283.2751 Z-15.3000
G1 X16.4631 Y286.1043 Z-15.3000
G1 X16.1829 Y288.9362 Z-15.3000
G1 X15.9293 Y291.7706 Z-15.3000
G1 X15.7024 Y294.6073 Z-15.3000
G1 X15.5021 Y297.4460 Z-15.3000
G1 X15.3285 Y300.2864 Z-15.3000
G1 X15.1816 Y303.1283 Z-15.3000
G1 X15.0613 Y305.9715 Z-15.3000
G1 X14.9678 Y308.8157 Z-15.3000
G1 X14.9010 Y311.6607 Z-15.3000
G1 X14.8609 Y314.5061 Z-15.3000
G1 X14.8475 Y317.3518 Z-15.3000
G0 Z20.0000
G0 X14.8475 Y317.3518
G0 Z20.0000
G0 X14.8475 Y929.3518
G1 X14.8475 Y929.3518 Z-3.0600 F3000.
G2 X620.8475 Y929.3518 I303.0000 J0.0000 F4000.
G2 X14.8475 Y929.3518 I-303.0000 J0.0000
G1 X14.8475 Y929.3518 Z-6.1200
G2 X620.8475 Y929.3518 I303.0000 J0.0000
G2 X14.8475 Y929.3518 I-303.0000 J0.0000
G1 X14.8475 Y929.3518 Z-9.1800
G2 X620.8475 Y929.3518 I303.0000 J0.0000
G2 X14.8475 Y929.3518 I-303.0000 J0.0000
G1 X14.8475 Y929.3518 Z-12.2400
G1 X14.8609 Y932.1975 Z-12.2400
G1 X14.9010 Y935.0430 Z-12.2400
G1 X14.9678 Y937.8880 Z-12.2400
G1 X15.0613 Y940.7322 Z-12.2400
G1 X15.1816 Y943.5754 Z-12.2400
G1 X15.3285 Y946.4173 Z-12.2400
G1 X15.5021 Y949.2577 Z-12.2400
G1 X15.7024 Y952.0964 Z-12.2400
G1 X15.9293 Y954.9331 Z-12.2400
G1 X16.1829 Y957.7675 Z-12.2400
G1 X16.4631 Y960.5994 Z-12.2400
G1 X16.7698 Y963.4286 Z-12.2400
G1 X17.1032 Y966.2547 Z-12.2400
G1 X17.4630 Y969.0776 Z-12.2400
G1 X17.8493 Y971.8970 Z-12.2400
G1 X18.2622 Y974.7126 Z-12.2400
G1 X18.7014 Y977.5243 Z-12.2400
G1 X19.1670 Y980.3317 Z-12.2400
G1 X19.6590 Y983.1345 Z-12.2400
G1 X20.1772 Y985.9327 Z-12.2400
G1 X20.7218 Y988.7258 Z-12.2400
G1 X21.2925 Y991.5138 Z-12.2400
G1 X21.8894 Y994.2962 Z-12.2400
G1 X22.5124 Y997.0729 Z-12.2400
G1 X23.1614 Y999.8436 Z-12.2400
G1 X23.8365 Y1002.6082 Z-12.2400
G1 X24.5374 Y1005.3662 Z-12.2400
G1 X25.2643 Y1008.1176 Z-12.2400
G1 X26.0169 Y1010.8620 Z-12.2400
G1 X26.7953 Y1013.5992 Z-12.2400
G1 X27.5994 Y1016.3289 Z-12.2400
G1 X28.4291 Y1019.0511 Z-12.2400
G1 X29.2843 Y1021.7652 Z-12.2400
G1 X30.1649 Y1024.4713 Z-12.2400
G1 X31.0709 Y1027.1689 Z-12.2400
G1 X32.0023 Y1029.8580 Z-12.2400
G1 X32.9588 Y1032.5381 Z-12.2400
G1 X33.9405 Y1035.2092 Z-12.2400
G1 X34.9472 Y1037.8709 Z-12.2400
G1 X35.9788 Y1040.5231 Z-12.2400
G1 X37.0354 Y1043.1654 Z-12.2400
G1 X38.1167 Y1045.7977 Z-12.2400
G1 X39.2226 Y1048.4197 Z-12.2400
G1 X40.3532 Y1051.0313 Z-12.2400
